P3
180 110
255
255 255 255 255 255 255 255 255 255 255 255 255 255 255 255 255 255 255 255 255 255 255 255 255 255 255 255 255 255 255 255 255 255 255 255 255 255 255 255 255 255 255 255 255 255 255 255 255 255 255 255 255 255 255 255 255 255 255 255 255 255 255 255 255 255 255 255 255 255 255 255 255 255 255 255 255 255 255 255 255 255 255 255 255 255 255 255 255 255 255 255 255 255 255 255 255 255 255 255 255 255 255 255 255 255 255 255 255 255 255 255 255 255 255 255 255 255 255 255 255 255 255 255 255 255 255 255 255 255 255 255 255 255 255 255 255 255 255 255 255 255 255 255 255 255 255 255 255 255 255 000 053 128 000 053 128 000 053 128 000 053 128 000 053 128 000 053 128 000 053 128 000 053 128 000 053 128 000 053 128 000 053 128 000 053 128 000 053 128 000 053 128 000 053 128 000 053 128 000 053 128 000 053 128 000 053 128 000 053 128 000 053 128 000 053 128 000 053 128 000 053 128 000 053 128 000 053 128 000 053 128 000 053 128 000 053 128 000 053 128 255 255 255 255 255 255 255 255 255 255 255 255 255 255 255 255 255 255 255 255 255 255 255 255 255 255 255 255 255 255 255 255 255 255 255 255 255 255 255 255 255 255 255 255 255 255 255 255 255 255 255 255 255 255 255 255 255 255 255 255 255 255 255 255 255 255 255 255 255 255 255 255 255 255 255 255 255 255 255 255 255 255 255 255 255 255 255 255 255 255 255 255 255 255 255 255 255 255 255 255 255 255 255 255 255 255 255 255 255 255 255 255 255 255 255 255 255 255 255 255 255 255 255 255 255 255 255 255 255 255 255 255 255 255 255 255 255 255 255 255 255 255 255 255 255 255 255 255 255 255 255 255 255 255 255 255 255 255 255 255 255 255 255 255 255 255 255 255 255 255 255 255 255 255 255 255 255 255 255 255 255 255 255 255 255 255 255 255 255 255 255 255 255 255 255 255 255 255 255 255 255 255 255 255 255 255 255 255 255 255 255 255 255 255 255 255 255 255 255 255 255 255 255 255 255 255 255 255 255 255 255 255 255 255 255 255 255 255 255 255 255 255 255 255 255 255 255 255 255 255 255 255 255 255 255 255 255 255 255 255 255 255 255 255 255 255 255 255 255 255 255 255 255 255 255 255 255 255 255 255 255 255 255 255 255 255 255 255 255 255 255 255 255 255 255 255 255 255 255 255 255 255 255 255 255 255 255 255 255 255 255 255 255 255 255 255 255 255 255 255 255 255 255 255 255 255 255 255 255 255 255 255 255 255 255 255 255 255 255 255 255 255 255 255 255 255 255 255 255 255 255 255 255 255 255 255 255 255 255 255 255 255 255 255 255 255 255 255 255 255 255 255 255 255 255 255 255 255 255 255 255 255 255 255 255 255 255 255 255 255 255 255 255 255 255 255 255 255 255 255 255 255 255 255 255 255 255 255 255 255 255 255 255 255 255 255 255 255 255 255 255 255 255 255 255 255 255 255 255 255 255 255 255 255 255 255 255 255 255 255 255 255 255 255 255 255 255 255 255 255 000 053 128 000 053 128 000 053 128 000 053 128 000 053 128 000 053 128 000 053 128 000 053 128 000 053 128 000 053 128 000 053 128 000 053 128 000 053 128 000 053 128 000 053 128 000 053 128 000 053 128 000 053 128 000 053 128 000 053 128 000 053 128 000 053 128 000 053 128 000 053 128 000 053 128 000 053 128 000 053 128 000 053 128 000 053 128 000 053 128 255 255 255 255 255 255 255 255 255 255 255 255 255 255 255 255 255 255 255 255 255 255 255 255 255 255 255 255 255 255 255 255 255 255 255 255 255 255 255 255 255 255 255 255 255 255 255 255 255 255 255 255 255 255 255 255 255 255 255 255 255 255 255 255 255 255 255 255 255 255 255 255 255 255 255 255 255 255 255 255 255 255 255 255 255 255 255 255 255 255 255 255 255 255 255 255 255 255 255 255 255 255 255 255 255 255 255 255 255 255 255 255 255 255 255 255 255 255 255 255 255 255 255 255 255 255 255 255 255 255 255 255 255 255 255 255 255 255 255 255 255 255 255 255 255 255 255 255 255 255 255 255 255 255 255 255 255 255 255 255 255 255 255 255 255 255 255 255 255 255 255 255 255 255 255 255 255 255 255 255 255 255 255 255 255 255 255 255 255 255 255 255 255 255 255 255 255 255 255 255 255 255 255 255 255 255 255 255 255 255 255 255 255 255 255 255 255 255 255 255 255 255 255 255 255 255 255 255 255 255 255 255 255 255 255 255 255 255 255 255 255 255 255 255 255 255 255 255 255 255 255 255 255 255 255 255 255 255 255 255 255 255 255 255 255 255 255 255 255 255 255 255 255 255 255 255 255 255 255 255 255 255 255 255 255 255 255 255 255 255 255 255 255 255 255 255 255 255 255 255 255 255 255 255 255 255 255 255 255 255 255 255 255 255 255 255 255 255 255 255 255 255 255 255 255 255 255 255 255 255 255 255 255 255 255 255 255 255 255 255 255 255 255 255 255 255 255 255 255 255 255 255 255 255 255 255 255 255 255 255 255 255 255 255 255 255 255 255 255 255 255 255 255 255 255 255 255 255 255 255 255 255 255 255 255 255 255 255 255 255 255 255 255 255 255 255 255 255 255 255 255 255 255 255 255 255 255 255 255 255 255 255 255 255 255 255 255 255 255 255 255 255 255 255 255 255 255 255 255 255 255 255 255 255 255 255 255 255 255 255 255 255 255 255 255 255 255 255 255 255 000 053 128 000 053 128 000 053 128 000 053 128 000 053 128 000 053 128 000 053 128 000 053 128 000 053 128 000 053 128 000 053 128 000 053 128 000 053 128 000 053 128 000 053 128 000 053 128 000 053 128 000 053 128 000 053 128 000 053 128 000 053 128 000 053 128 000 053 128 000 053 128 000 053 128 000 053 128 000 053 128 000 053 128 000 053 128 000 053 128 255 255 255 255 255 255 255 255 255 255 255 255 255 255 255 255 255 255 255 255 255 255 255 255 255 255 255 255 255 255 255 255 255 255 255 255 255 255 255 255 255 255 255 255 255 255 255 255 255 255 255 255 255 255 255 255 255 255 255 255 255 255 255 255 255 255 255 255 255 255 255 255 255 255 255 255 255 255 255 255 255 255 255 255 255 255 255 255 255 255 255 255 255 255 255 255 255 255 255 255 255 255 255 255 255 255 255 255 255 255 255 255 255 255 255 255 255 255 255 255 255 255 255 255 255 255 255 255 255 255 255 255 255 255 255 255 255 255 255 255 255 255 255 255 255 255 255 255 255 255 255 255 255 255 255 255 255 255 255 255 255 255 255 255 255 255 255 255 255 255 255 255 255 255 255 255 255 255 255 255 255 255 255 255 255 255 255 255 255 255 255 255 255 255 255 255 255 255 255 255 255 255 255 255 255 255 255 255 255 255 255 255 255 255 255 255 255 255 255 255 255 255 255 255 255 255 255 255 255 255 255 255 255 255 255 255 255 255 255 255 255 255 255 255 255 255 255 255 255 255 255 255 255 255 255 255 255 255 255 255 255 255 255 255 255 255 255 255 255 255 255 255 255 255 255 255 255 255 255 255 255 255 255 255 255 255 255 255 255 255 255 255 255 255 255 255 255 255 255 255 255 255 255 255 255 255 255 255 255 255 255 255 255 255 255 255 255 255 255 255 255 255 255 255 255 255 255 255 255 255 255 255 255 255 255 255 255 255 255 255 255 255 255 255 255 255 255 255 255 255 255 255 255 255 255 255 255 255 255 255 255 255 255 255 255 255 255 255 255 255 255 255 255 255 255 255 255 255 255 255 255 255 255 255 255 255 255 255 255 255 255 255 255 255 255 255 255 255 255 255 255 255 255 255 255 255 255 255 255 255 255 255 255 255 255 255 255 255 255 255 255 255 255 255 255 255 255 255 255 255 255 255 255 255 255 255 255 255 255 255 255 255 255 255 255 255 255 255 255 255 000 053 128 000 053 128 000 053 128 000 053 128 000 053 128 000 053 128 000 053 128 000 053 128 000 053 128 000 053 128 000 053 128 000 053 128 000 053 128 000 053 128 000 053 128 000 053 128 000 053 128 000 053 128 000 053 128 000 053 128 000 053 128 000 053 128 000 053 128 000 053 128 000 053 128 000 053 128 000 053 128 000 053 128 000 053 128 000 053 128 255 255 255 255 255 255 255 255 255 255 255 255 255 255 255 255 255 255 255 255 255 255 255 255 255 255 255 255 255 255 255 255 255 255 255 255 255 255 255 255 255 255 255 255 255 255 255 255 255 255 255 255 255 255 255 255 255 255 255 255 255 255 255 255 255 255 255 255 255 255 255 255 255 255 255 255 255 255 255 255 255 255 255 255 255 255 255 255 255 255 255 255 255 255 255 255 255 255 255 255 255 255 255 255 255 255 255 255 255 255 255 255 255 255 255 255 255 255 255 255 255 255 255 255 255 255 255 255 255 255 255 255 255 255 255 255 255 255 255 255 255 255 255 255 255 255 255 255 255 255 255 255 255 255 255 255 255 255 255 255 255 255 255 255 255 255 255 255 255 255 255 255 255 255 255 255 255 255 255 255 255 255 255 255 255 255 255 255 255 255 255 255 255 255 255 255 255 255 255 255 255 255 255 255 255 255 255 255 255 255 255 255 255 255 255 255 255 255 255 255 255 255 255 255 255 255 255 255 255 255 255 255 255 255 255 255 255 255 255 255 255 255 255 255 255 255 255 255 255 255 255 255 255 255 255 255 255 255 255 255 255 255 255 255 255 255 255 255 255 255 255 255 255 255 255 255 255 255 255 255 255 255 255 255 255 255 255 255 255 255 255 255 255 255 255 255 255 255 255 255 255 255 255 255 255 255 255 255 255 255 255 255 255 255 255 255 255 255 255 255 255 255 255 255 255 255 255 255 255 255 255 255 255 255 255 255 255 255 255 255 255 255 255 255 255 255 255 255 255 255 255 255 255 255 255 255 255 255 255 255 255 255 255 255 255 255 255 255 255 255 255 255 255 255 255 255 255 255 255 255 255 255 255 255 255 255 255 255 255 255 255 255 255 255 255 255 255 255 255 255 255 255 255 255 255 255 255 255 255 255 255 255 255 255 255 255 255 255 255 255 255 255 255 255 255 255 255 255 255 255 255 255 255 255 255 255 255 255 255 255 255 255 255 255 255 255 255 255 255 255 000 053 128 000 053 128 000 053 128 000 053 128 000 053 128 000 053 128 000 053 128 000 053 128 000 053 128 000 053 128 000 053 128 000 053 128 000 053 128 000 053 128 000 053 128 000 053 128 000 053 128 000 053 128 000 053 128 000 053 128 000 053 128 000 053 128 000 053 128 000 053 128 000 053 128 000 053 128 000 053 128 000 053 128 000 053 128 000 053 128 255 255 255 255 255 255 255 255 255 255 255 255 255 255 255 255 255 255 255 255 255 255 255 255 255 255 255 255 255 255 255 255 255 255 255 255 255 255 255 255 255 255 255 255 255 255 255 255 255 255 255 255 255 255 255 255 255 255 255 255 255 255 255 255 255 255 255 255 255 255 255 255 255 255 255 255 255 255 255 255 255 255 255 255 255 255 255 255 255 255 255 255 255 255 255 255 255 255 255 255 255 255 255 255 255 255 255 255 255 255 255 255 255 255 255 255 255 255 255 255 255 255 255 255 255 255 255 255 255 255 255 255 255 255 255 255 255 255 255 255 255 255 255 255 255 255 255 255 255 255 255 255 255 255 255 255 255 255 255 255 255 255 255 255 255 255 255 255 255 255 255 255 255 255 255 255 255 255 255 255 255 255 255 255 255 255 255 255 255 255 255 255 255 255 255 255 255 255 255 255 255 255 255 255 255 255 255 255 255 255 255 255 255 255 255 255 255 255 255 255 255 255 255 255 255 255 255 255 255 255 255 255 255 255 255 255 255 255 255 255 255 255 255 255 255 255 255 255 255 255 255 255 255 255 255 255 255 255 255 255 255 255 255 255 255 255 255 255 255 255 255 255 255 255 255 255 255 255 255 255 255 255 255 255 255 255 255 255 255 255 255 255 255 255 255 255 255 255 255 255 255 255 255 255 255 255 255 255 255 255 255 255 255 255 255 255 255 255 255 255 255 255 255 255 255 255 255 255 255 255 255 255 255 255 255 255 255 255 255 255 255 255 255 255 255 255 255 255 255 255 255 255 255 255 255 255 255 255 255 255 255 255 255 255 255 255 255 255 255 255 255 255 255 255 255 255 255 255 255 255 255 255 255 255 255 255 255 255 255 255 255 255 255 255 255 255 255 255 255 255 255 255 255 255 255 255 255 255 255 255 255 255 255 255 255 255 255 255 255 255 255 255 255 255 255 255 255 255 255 255 255 255 255 255 255 255 255 255 255 255 255 255 255 255 255 255 255 255 255 255 000 053 128 000 053 128 000 053 128 000 053 128 000 053 128 000 053 128 000 053 128 000 053 128 000 053 128 000 053 128 000 053 128 000 053 128 000 053 128 000 053 128 000 053 128 000 053 128 000 053 128 000 053 128 000 053 128 000 053 128 000 053 128 000 053 128 000 053 128 000 053 128 000 053 128 000 053 128 000 053 128 000 053 128 000 053 128 000 053 128 255 255 255 255 255 255 255 255 255 255 255 255 255 255 255 255 255 255 255 255 255 255 255 255 255 255 255 255 255 255 255 255 255 255 255 255 255 255 255 255 255 255 255 255 255 255 255 255 255 255 255 255 255 255 255 255 255 255 255 255 255 255 255 255 255 255 255 255 255 255 255 255 255 255 255 255 255 255 255 255 255 255 255 255 255 255 255 255 255 255 255 255 255 255 255 255 255 255 255 255 255 255 255 255 255 255 255 255 255 255 255 255 255 255 255 255 255 255 255 255 255 255 255 255 255 255 255 255 255 255 255 255 255 255 255 255 255 255 255 255 255 255 255 255 255 255 255 255 255 255 255 255 255 255 255 255 255 255 255 255 255 255 255 255 255 255 255 255 255 255 255 255 255 255 255 255 255 255 255 255 255 255 255 255 255 255 255 255 255 255 255 255 255 255 255 255 255 255 255 255 255 255 255 255 255 255 255 255 255 255 255 255 255 255 255 255 255 255 255 255 255 255 255 255 255 255 255 255 255 255 255 255 255 255 255 255 255 255 255 255 255 255 255 255 255 255 255 255 255 255 255 255 255 255 255 255 255 255 255 255 255 255 255 255 255 255 255 255 255 255 255 255 255 255 255 255 255 255 255 255 255 255 255 255 255 255 255 255 255 255 255 255 255 255 255 255 255 255 255 255 255 255 255 255 255 255 255 255 255 255 255 255 255 255 255 255 255 255 255 255 255 255 255 255 255 255 255 255 255 255 255 255 255 255 255 255 255 255 255 255 255 255 255 255 255 255 255 255 255 255 255 255 255 255 255 255 255 255 255 255 255 255 255 255 255 255 255 255 255 255 255 255 255 255 255 255 255 255 255 255 255 255 255 255 255 255 255 255 255 255 255 255 255 255 255 255 255 255 255 255 255 255 255 255 255 255 255 255 255 255 255 255 255 255 255 255 255 255 255 255 255 255 255 255 255 255 255 255 255 255 255 255 255 255 255 255 255 255 255 255 255 255 255 255 255 255 255 255 255 255 000 053 128 000 053 128 000 053 128 000 053 128 000 053 128 000 053 128 000 053 128 000 053 128 000 053 128 000 053 128 000 053 128 000 053 128 000 053 128 000 053 128 000 053 128 000 053 128 000 053 128 000 053 128 000 053 128 000 053 128 000 053 128 000 053 128 000 053 128 000 053 128 000 053 128 000 053 128 000 053 128 000 053 128 000 053 128 000 053 128 255 255 255 255 255 255 255 255 255 255 255 255 255 255 255 255 255 255 255 255 255 255 255 255 255 255 255 255 255 255 255 255 255 255 255 255 255 255 255 255 255 255 255 255 255 255 255 255 255 255 255 255 255 255 255 255 255 255 255 255 255 255 255 255 255 255 255 255 255 255 255 255 255 255 255 255 255 255 255 255 255 255 255 255 255 255 255 255 255 255 255 255 255 255 255 255 255 255 255 255 255 255 255 255 255 255 255 255 255 255 255 255 255 255 255 255 255 255 255 255 255 255 255 255 255 255 255 255 255 255 255 255 255 255 255 255 255 255 255 255 255 255 255 255 255 255 255 255 255 255 255 255 255 255 255 255 255 255 255 255 255 255 255 255 255 255 255 255 255 255 255 255 255 255 255 255 255 255 255 255 255 255 255 255 255 255 255 255 255 255 255 255 255 255 255 255 255 255 255 255 255 255 255 255 255 255 255 255 255 255 255 255 255 255 255 255 255 255 255 255 255 255 255 255 255 255 255 255 255 255 255 255 255 255 255 255 255 255 255 255 255 255 255 255 255 255 255 255 255 255 255 255 255 255 255 255 255 255 255 255 255 255 255 255 255 255 255 255 255 255 255 255 255 255 255 255 255 255 255 255 255 255 255 255 255 255 255 255 255 255 255 255 255 255 255 255 255 255 255 255 255 255 255 255 255 255 255 255 255 255 255 255 255 255 255 255 255 255 255 255 255 255 255 255 255 255 255 255 255 255 255 255 255 255 255 255 255 255 255 255 255 255 255 255 255 255 255 255 255 255 255 255 255 255 255 255 255 255 255 255 255 255 255 255 255 255 255 255 255 255 255 255 255 255 255 255 255 255 255 255 255 255 255 255 255 255 255 255 255 255 255 255 255 255 255 255 255 255 255 255 255 255 255 255 255 255 255 255 255 255 255 255 255 255 255 255 255 255 255 255 255 255 255 255 255 255 255 255 255 255 255 255 255 255 255 255 255 255 255 255 255 255 255 255 255 255 255 255 255 255 000 053 128 000 053 128 000 053 128 000 053 128 000 053 128 000 053 128 000 053 128 000 053 128 000 053 128 000 053 128 000 053 128 000 053 128 000 053 128 000 053 128 000 053 128 000 053 128 000 053 128 000 053 128 000 053 128 000 053 128 000 053 128 000 053 128 000 053 128 000 053 128 000 053 128 000 053 128 000 053 128 000 053 128 000 053 128 000 053 128 255 255 255 255 255 255 255 255 255 255 255 255 255 255 255 255 255 255 255 255 255 255 255 255 255 255 255 255 255 255 255 255 255 255 255 255 255 255 255 255 255 255 255 255 255 255 255 255 255 255 255 255 255 255 255 255 255 255 255 255 255 255 255 255 255 255 255 255 255 255 255 255 255 255 255 255 255 255 255 255 255 255 255 255 255 255 255 255 255 255 255 255 255 255 255 255 255 255 255 255 255 255 255 255 255 255 255 255 255 255 255 255 255 255 255 255 255 255 255 255 255 255 255 255 255 255 255 255 255 255 255 255 255 255 255 255 255 255 255 255 255 255 255 255 255 255 255 255 255 255 255 255 255 255 255 255 255 255 255 255 255 255 255 255 255 255 255 255 255 255 255 255 255 255 255 255 255 255 255 255 255 255 255 255 255 255 255 255 255 255 255 255 255 255 255 255 255 255 255 255 255 255 255 255 255 255 255 255 255 255 255 255 255 255 255 255 255 255 255 255 255 255 255 255 255 255 255 255 255 255 255 255 255 255 255 255 255 255 255 255 255 255 255 255 255 255 255 255 255 255 255 255 255 255 255 255 255 255 255 255 255 255 255 255 255 255 255 255 255 255 255 255 255 255 255 255 255 255 255 255 255 255 255 255 255 255 255 255 255 255 255 255 255 255 255 255 255 255 255 255 255 255 255 255 255 255 255 255 255 255 255 255 255 255 255 255 255 255 255 255 255 255 255 255 255 255 255 255 255 255 255 255 255 255 255 255 255 255 255 255 255 255 255 255 255 255 255 255 255 255 255 255 255 255 255 255 255 255 255 255 255 255 255 255 255 255 255 255 255 255 255 255 255 255 255 255 255 255 255 255 255 255 255 255 255 255 255 255 255 255 255 255 255 255 255 255 255 255 255 255 255 255 255 255 255 255 255 255 255 255 255 255 255 255 255 255 255 255 255 255 255 255 255 255 255 255 255 255 255 255 255 255 255 255 255 255 255 255 255 255 255 255 255 255 255 255 255 255 255 255 000 053 128 000 053 128 000 053 128 000 053 128 000 053 128 000 053 128 000 053 128 000 053 128 000 053 128 000 053 128 000 053 128 000 053 128 000 053 128 000 053 128 000 053 128 000 053 128 000 053 128 000 053 128 000 053 128 000 053 128 000 053 128 000 053 128 000 053 128 000 053 128 000 053 128 000 053 128 000 053 128 000 053 128 000 053 128 000 053 128 255 255 255 255 255 255 255 255 255 255 255 255 255 255 255 255 255 255 255 255 255 255 255 255 255 255 255 255 255 255 255 255 255 255 255 255 255 255 255 255 255 255 255 255 255 255 255 255 255 255 255 255 255 255 255 255 255 255 255 255 255 255 255 255 255 255 255 255 255 255 255 255 255 255 255 255 255 255 255 255 255 255 255 255 255 255 255 255 255 255 255 255 255 255 255 255 255 255 255 255 255 255 255 255 255 255 255 255 255 255 255 255 255 255 255 255 255 255 255 255 255 255 255 255 255 255 255 255 255 255 255 255 255 255 255 255 255 255 255 255 255 255 255 255 255 255 255 255 255 255 255 255 255 255 255 255 255 255 255 255 255 255 255 255 255 255 255 255 255 255 255 255 255 255 255 255 255 255 255 255 255 255 255 255 255 255 255 255 255 255 255 255 255 255 255 255 255 255 255 255 255 255 255 255 255 255 255 255 255 255 255 255 255 255 255 255 255 255 255 255 255 255 255 255 255 255 255 255 255 255 255 255 255 255 255 255 255 255 255 255 255 255 255 255 255 255 255 255 255 255 255 255 255 255 255 255 255 255 255 255 255 255 255 255 255 255 255 255 255 255 255 255 255 255 255 255 255 255 255 255 255 255 255 255 255 255 255 255 255 255 255 255 255 255 255 255 255 255 255 255 255 255 255 255 255 255 255 255 255 255 255 255 255 255 255 255 255 255 255 255 255 255 255 255 255 255 255 255 255 255 255 255 255 255 255 255 255 255 255 255 255 255 255 255 255 255 255 255 255 255 255 255 255 255 255 255 255 255 255 255 255 255 255 255 255 255 255 255 255 255 255 255 255 255 255 255 255 255 255 255 255 255 255 255 255 255 255 255 255 255 255 255 255 255 255 255 255 255 255 255 255 255 255 255 255 255 255 255 255 255 255 255 255 255 255 255 255 255 255 255 255 255 255 255 255 255 255 255 255 255 255 255 255 255 255 255 255 255 255 255 255 255 255 255 255 255 255 255 255 255 000 053 128 000 053 128 000 053 128 000 053 128 000 053 128 000 053 128 000 053 128 000 053 128 000 053 128 000 053 128 000 053 128 000 053 128 000 053 128 000 053 128 000 053 128 000 053 128 000 053 128 000 053 128 000 053 128 000 053 128 000 053 128 000 053 128 000 053 128 000 053 128 000 053 128 000 053 128 000 053 128 000 053 128 000 053 128 000 053 128 255 255 255 255 255 255 255 255 255 255 255 255 255 255 255 255 255 255 255 255 255 255 255 255 255 255 255 255 255 255 255 255 255 255 255 255 255 255 255 255 255 255 255 255 255 255 255 255 255 255 255 255 255 255 255 255 255 255 255 255 255 255 255 255 255 255 255 255 255 255 255 255 255 255 255 255 255 255 255 255 255 255 255 255 255 255 255 255 255 255 255 255 255 255 255 255 255 255 255 255 255 255 255 255 255 255 255 255 255 255 255 255 255 255 255 255 255 255 255 255 255 255 255 255 255 255 255 255 255 255 255 255 255 255 255 255 255 255 255 255 255 255 255 255 255 255 255 255 255 255 255 255 255 255 255 255 255 255 255 255 255 255 255 255 255 255 255 255 255 255 255 255 255 255 255 255 255 255 255 255 255 255 255 255 255 255 255 255 255 255 255 255 255 255 255 255 255 255 255 255 255 255 255 255 255 255 255 255 255 255 255 255 255 255 255 255 255 255 255 255 255 255 255 255 255 255 255 255 255 255 255 255 255 255 255 255 255 255 255 255 255 255 255 255 255 255 255 255 255 255 255 255 255 255 255 255 255 255 255 255 255 255 255 255 255 255 255 255 255 255 255 255 255 255 255 255 255 255 255 255 255 255 255 255 255 255 255 255 255 255 255 255 255 255 255 255 255 255 255 255 255 255 255 255 255 255 255 255 255 255 255 255 255 255 255 255 255 255 255 255 255 255 255 255 255 255 255 255 255 255 255 255 255 255 255 255 255 255 255 255 255 255 255 255 255 255 255 255 255 255 255 255 255 255 255 255 255 255 255 255 255 255 255 255 255 255 255 255 255 255 255 255 255 255 255 255 255 255 255 255 255 255 255 255 255 255 255 255 255 255 255 255 255 255 255 255 255 255 255 255 255 255 255 255 255 255 255 255 255 255 255 255 255 255 255 255 255 255 255 255 255 255 255 255 255 255 255 255 255 255 255 255 255 255 255 255 255 255 255 255 255 255 255 255 255 255 255 255 255 255 000 053 128 000 053 128 000 053 128 000 053 128 000 053 128 000 053 128 000 053 128 000 053 128 000 053 128 000 053 128 000 053 128 000 053 128 000 053 128 000 053 128 000 053 128 000 053 128 000 053 128 000 053 128 000 053 128 000 053 128 000 053 128 000 053 128 000 053 128 000 053 128 000 053 128 000 053 128 000 053 128 000 053 128 000 053 128 000 053 128 255 255 255 255 255 255 255 255 255 255 255 255 255 255 255 255 255 255 255 255 255 255 255 255 255 255 255 255 255 255 255 255 255 255 255 255 255 255 255 255 255 255 255 255 255 255 255 255 255 255 255 255 255 255 255 255 255 255 255 255 255 255 255 255 255 255 255 255 255 255 255 255 255 255 255 255 255 255 255 255 255 255 255 255 255 255 255 255 255 255 255 255 255 255 255 255 255 255 255 255 255 255 255 255 255 255 255 255 255 255 255 255 255 255 255 255 255 255 255 255 255 255 255 255 255 255 255 255 255 255 255 255 255 255 255 255 255 255 255 255 255 255 255 255 255 255 255 255 255 255 255 255 255 255 255 255 255 255 255 255 255 255 255 255 255 255 255 255 255 255 255 255 255 255 255 255 255 255 255 255 255 255 255 255 255 255 255 255 255 255 255 255 255 255 255 255 255 255 255 255 255 255 255 255 255 255 255 255 255 255 255 255 255 255 255 255 255 255 255 255 255 255 255 255 255 255 255 255 255 255 255 255 255 255 255 255 255 255 255 255 255 255 255 255 255 255 255 255 255 255 255 255 255 255 255 255 255 255 255 255 255 255 255 255 255 255 255 255 255 255 255 255 255 255 255 255 255 255 255 255 255 255 255 255 255 255 255 255 255 255 255 255 255 255 255 255 255 255 255 255 255 255 255 255 255 255 255 255 255 255 255 255 255 255 255 255 255 255 255 255 255 255 255 255 255 255 255 255 255 255 255 255 255 255 255 255 255 255 255 255 255 255 255 255 255 255 255 255 255 255 255 255 255 255 255 255 255 255 255 255 255 255 255 255 255 255 255 255 255 255 255 255 255 255 255 255 255 255 255 255 255 255 255 255 255 255 255 255 255 255 255 255 255 255 255 255 255 255 255 255 255 255 255 255 255 255 255 255 255 255 255 255 255 255 255 255 255 255 255 255 255 255 255 255 255 255 255 255 255 255 255 255 255 255 255 255 255 255 255 255 255 255 255 255 255 255 255 255 255 255 000 053 128 000 053 128 000 053 128 000 053 128 000 053 128 000 053 128 000 053 128 000 053 128 000 053 128 000 053 128 000 053 128 000 053 128 000 053 128 000 053 128 000 053 128 000 053 128 000 053 128 000 053 128 000 053 128 000 053 128 000 053 128 000 053 128 000 053 128 000 053 128 000 053 128 000 053 128 000 053 128 000 053 128 000 053 128 000 053 128 255 255 255 255 255 255 255 255 255 255 255 255 255 255 255 255 255 255 255 255 255 255 255 255 255 255 255 255 255 255 255 255 255 255 255 255 255 255 255 255 255 255 255 255 255 255 255 255 255 255 255 255 255 255 255 255 255 255 255 255 255 255 255 255 255 255 255 255 255 255 255 255 255 255 255 255 255 255 255 255 255 255 255 255 255 255 255 255 255 255 255 255 255 255 255 255 255 255 255 255 255 255 255 255 255 255 255 255 255 255 255 255 255 255 255 255 255 255 255 255 255 255 255 255 255 255 255 255 255 255 255 255 255 255 255 255 255 255 255 255 255 255 255 255 255 255 255 255 255 255 255 255 255 255 255 255 255 255 255 255 255 255 255 255 255 255 255 255 255 255 255 255 255 255 255 255 255 255 255 255 255 255 255 255 255 255 255 255 255 255 255 255 255 255 255 255 255 255 255 255 255 255 255 255 255 255 255 255 255 255 255 255 255 255 255 255 255 255 255 255 255 255 255 255 255 255 255 255 255 255 255 255 255 255 255 255 255 255 255 255 255 255 255 255 255 255 255 255 255 255 255 255 255 255 255 255 255 255 255 255 255 255 255 255 255 255 255 255 255 255 255 255 255 255 255 255 255 255 255 255 255 255 255 255 255 255 255 255 255 255 255 255 255 255 255 255 255 255 255 255 255 255 255 255 255 255 255 255 255 255 255 255 255 255 255 255 255 255 255 255 255 255 255 255 255 255 255 255 255 255 255 255 255 255 255 255 255 255 255 255 255 255 255 255 255 255 255 255 255 255 255 255 255 255 255 255 255 255 255 255 255 255 255 255 255 255 255 255 255 255 255 255 255 255 255 255 255 255 255 255 255 255 255 255 255 255 255 255 255 255 255 255 255 255 255 255 255 255 255 255 255 255 255 255 255 255 255 255 255 255 255 255 255 255 255 255 255 255 255 255 255 255 255 255 255 255 255 255 255 255 255 255 255 255 255 255 255 255 255 255 255 255 255 255 255 255 255 255 255 255 000 053 128 000 053 128 000 053 128 000 053 128 000 053 128 000 053 128 000 053 128 000 053 128 000 053 128 000 053 128 000 053 128 000 053 128 000 053 128 000 053 128 000 053 128 000 053 128 000 053 128 000 053 128 000 053 128 000 053 128 000 053 128 000 053 128 000 053 128 000 053 128 000 053 128 000 053 128 000 053 128 000 053 128 000 053 128 000 053 128 255 255 255 255 255 255 255 255 255 255 255 255 255 255 255 255 255 255 255 255 255 255 255 255 255 255 255 255 255 255 255 255 255 255 255 255 255 255 255 255 255 255 255 255 255 255 255 255 255 255 255 255 255 255 255 255 255 255 255 255 255 255 255 255 255 255 255 255 255 255 255 255 255 255 255 255 255 255 255 255 255 255 255 255 255 255 255 255 255 255 255 255 255 255 255 255 255 255 255 255 255 255 255 255 255 255 255 255 255 255 255 255 255 255 255 255 255 255 255 255 255 255 255 255 255 255 255 255 255 255 255 255 255 255 255 255 255 255 255 255 255 255 255 255 255 255 255 255 255 255 255 255 255 255 255 255 255 255 255 255 255 255 255 255 255 255 255 255 255 255 255 255 255 255 255 255 255 255 255 255 255 255 255 255 255 255 255 255 255 255 255 255 255 255 255 255 255 255 255 255 255 255 255 255 255 255 255 255 255 255 255 255 255 255 255 255 255 255 255 255 255 255 255 255 255 255 255 255 255 255 255 255 255 255 255 255 255 255 255 255 255 255 255 255 255 255 255 255 255 255 255 255 255 255 255 255 255 255 255 255 255 255 255 255 255 255 255 255 255 255 255 255 255 255 255 255 255 255 255 255 255 255 255 255 255 255 255 255 255 255 255 255 255 255 255 255 255 255 255 255 255 255 255 255 255 255 255 255 255 255 255 255 255 255 255 255 255 255 255 255 255 255 255 255 255 255 255 255 255 255 255 255 255 255 255 255 255 255 255 255 255 255 255 255 255 255 255 255 255 255 255 255 255 255 255 255 255 255 255 255 255 255 255 255 255 255 255 255 255 255 255 255 255 255 255 255 255 255 255 255 255 255 255 255 255 255 255 255 255 255 255 255 255 255 255 255 255 255 255 255 255 255 255 255 255 255 255 255 255 255 255 255 255 255 255 255 255 255 255 255 255 255 255 255 255 255 255 255 255 255 255 255 255 255 255 255 255 255 255 255 255 255 255 255 255 255 255 255 255 255 000 053 128 000 053 128 000 053 128 000 053 128 000 053 128 000 053 128 000 053 128 000 053 128 000 053 128 000 053 128 000 053 128 000 053 128 000 053 128 000 053 128 000 053 128 000 053 128 000 053 128 000 053 128 000 053 128 000 053 128 000 053 128 000 053 128 000 053 128 000 053 128 000 053 128 000 053 128 000 053 128 000 053 128 000 053 128 000 053 128 255 255 255 255 255 255 255 255 255 255 255 255 255 255 255 255 255 255 255 255 255 255 255 255 255 255 255 255 255 255 255 255 255 255 255 255 255 255 255 255 255 255 255 255 255 255 255 255 255 255 255 255 255 255 255 255 255 255 255 255 255 255 255 255 255 255 255 255 255 255 255 255 255 255 255 255 255 255 255 255 255 255 255 255 255 255 255 255 255 255 255 255 255 255 255 255 255 255 255 255 255 255 255 255 255 255 255 255 255 255 255 255 255 255 255 255 255 255 255 255 255 255 255 255 255 255 255 255 255 255 255 255 255 255 255 255 255 255 255 255 255 255 255 255 255 255 255 255 255 255 255 255 255 255 255 255 255 255 255 255 255 255 255 255 255 255 255 255 255 255 255 255 255 255 255 255 255 255 255 255 255 255 255 255 255 255 255 255 255 255 255 255 255 255 255 255 255 255 255 255 255 255 255 255 255 255 255 255 255 255 255 255 255 255 255 255 255 255 255 255 255 255 255 255 255 255 255 255 255 255 255 255 255 255 255 255 255 255 255 255 255 255 255 255 255 255 255 255 255 255 255 255 255 255 255 255 255 255 255 255 255 255 255 255 255 255 255 255 255 255 255 255 255 255 255 255 255 255 255 255 255 255 255 255 255 255 255 255 255 255 255 255 255 255 255 255 255 255 255 255 255 255 255 255 255 255 255 255 255 255 255 255 255 255 255 255 255 255 255 255 255 255 255 255 255 255 255 255 255 255 255 255 255 255 255 255 255 255 255 255 255 255 255 255 255 255 255 255 255 255 255 255 255 255 255 255 255 255 255 255 255 255 255 255 255 255 255 255 255 255 255 255 255 255 255 255 255 255 255 255 255 255 255 255 255 255 255 255 255 255 255 255 255 255 255 255 255 255 255 255 255 255 255 255 255 255 255 255 255 255 255 255 255 255 255 255 255 255 255 255 255 255 255 255 255 255 255 255 255 255 255 255 255 255 255 255 255 255 255 255 255 255 255 255 255 255 255 255 255 255 000 053 128 000 053 128 000 053 128 000 053 128 000 053 128 000 053 128 000 053 128 000 053 128 000 053 128 000 053 128 000 053 128 000 053 128 000 053 128 000 053 128 000 053 128 000 053 128 000 053 128 000 053 128 000 053 128 000 053 128 000 053 128 000 053 128 000 053 128 000 053 128 000 053 128 000 053 128 000 053 128 000 053 128 000 053 128 000 053 128 255 255 255 255 255 255 255 255 255 255 255 255 255 255 255 255 255 255 255 255 255 255 255 255 255 255 255 255 255 255 255 255 255 255 255 255 255 255 255 255 255 255 255 255 255 255 255 255 255 255 255 255 255 255 255 255 255 255 255 255 255 255 255 255 255 255 255 255 255 255 255 255 255 255 255 255 255 255 255 255 255 255 255 255 255 255 255 255 255 255 255 255 255 255 255 255 255 255 255 255 255 255 255 255 255 255 255 255 255 255 255 255 255 255 255 255 255 255 255 255 255 255 255 255 255 255 255 255 255 255 255 255 255 255 255 255 255 255 255 255 255 255 255 255 255 255 255 255 255 255 255 255 255 255 255 255 255 255 255 255 255 255 255 255 255 255 255 255 255 255 255 255 255 255 255 255 255 255 255 255 255 255 255 255 255 255 255 255 255 255 255 255 255 255 255 255 255 255 255 255 255 255 255 255 255 255 255 255 255 255 255 255 255 255 255 255 255 255 255 255 255 255 255 255 255 255 255 255 255 255 255 255 255 255 255 255 255 255 255 255 255 255 255 255 255 255 255 255 255 255 255 255 255 255 255 255 255 255 255 255 255 255 255 255 255 255 255 255 255 255 255 255 255 255 255 255 255 255 255 255 255 255 255 255 255 255 255 255 255 255 255 255 255 255 255 255 255 255 255 255 255 255 255 255 255 255 255 255 255 255 255 255 255 255 255 255 255 255 255 255 255 255 255 255 255 255 255 255 255 255 255 255 255 255 255 255 255 255 255 255 255 255 255 255 255 255 255 255 255 255 255 255 255 255 255 255 255 255 255 255 255 255 255 255 255 255 255 255 255 255 255 255 255 255 255 255 255 255 255 255 255 255 255 255 255 255 255 255 255 255 255 255 255 255 255 255 255 255 255 255 255 255 255 255 255 255 255 255 255 255 255 255 255 255 255 255 255 255 255 255 255 255 255 255 255 255 255 255 255 255 255 255 255 255 255 255 255 255 255 255 255 255 255 255 255 255 255 255 255 255 000 053 128 000 053 128 000 053 128 000 053 128 000 053 128 000 053 128 000 053 128 000 053 128 000 053 128 000 053 128 000 053 128 000 053 128 000 053 128 000 053 128 000 053 128 000 053 128 000 053 128 000 053 128 000 053 128 000 053 128 000 053 128 000 053 128 000 053 128 000 053 128 000 053 128 000 053 128 000 053 128 000 053 128 000 053 128 000 053 128 255 255 255 255 255 255 255 255 255 255 255 255 255 255 255 255 255 255 255 255 255 255 255 255 255 255 255 255 255 255 255 255 255 255 255 255 255 255 255 255 255 255 255 255 255 255 255 255 255 255 255 255 255 255 255 255 255 255 255 255 255 255 255 255 255 255 255 255 255 255 255 255 255 255 255 255 255 255 255 255 255 255 255 255 255 255 255 255 255 255 255 255 255 255 255 255 255 255 255 255 255 255 255 255 255 255 255 255 255 255 255 255 255 255 255 255 255 255 255 255 255 255 255 255 255 255 255 255 255 255 255 255 255 255 255 255 255 255 255 255 255 255 255 255 255 255 255 255 255 255 255 255 255 255 255 255 255 255 255 255 255 255 255 255 255 255 255 255 255 255 255 255 255 255 255 255 255 255 255 255 255 255 255 255 255 255 255 255 255 255 255 255 255 255 255 255 255 255 255 255 255 255 255 255 255 255 255 255 255 255 255 255 255 255 255 255 255 255 255 255 255 255 255 255 255 255 255 255 255 255 255 255 255 255 255 255 255 255 255 255 255 255 255 255 255 255 255 255 255 255 255 255 255 255 255 255 255 255 255 255 255 255 255 255 255 255 255 255 255 255 255 255 255 255 255 255 255 255 255 255 255 255 255 255 255 255 255 255 255 255 255 255 255 255 255 255 255 255 255 255 255 255 255 255 255 255 255 255 255 255 255 255 255 255 255 255 255 255 255 255 255 255 255 255 255 255 255 255 255 255 255 255 255 255 255 255 255 255 255 255 255 255 255 255 255 255 255 255 255 255 255 255 255 255 255 255 255 255 255 255 255 255 255 255 255 255 255 255 255 255 255 255 255 255 255 255 255 255 255 255 255 255 255 255 255 255 255 255 255 255 255 255 255 255 255 255 255 255 255 255 255 255 255 255 255 255 255 255 255 255 255 255 255 255 255 255 255 255 255 255 255 255 255 255 255 255 255 255 255 255 255 255 255 255 255 255 255 255 255 255 255 255 255 255 255 255 255 255 255 255 000 053 128 000 053 128 000 053 128 000 053 128 000 053 128 000 053 128 000 053 128 000 053 128 000 053 128 000 053 128 000 053 128 000 053 128 000 053 128 000 053 128 000 053 128 000 053 128 000 053 128 000 053 128 000 053 128 000 053 128 000 053 128 000 053 128 000 053 128 000 053 128 000 053 128 000 053 128 000 053 128 000 053 128 000 053 128 000 053 128 255 255 255 255 255 255 255 255 255 255 255 255 255 255 255 255 255 255 255 255 255 255 255 255 255 255 255 255 255 255 255 255 255 255 255 255 255 255 255 255 255 255 255 255 255 255 255 255 255 255 255 255 255 255 255 255 255 255 255 255 255 255 255 255 255 255 255 255 255 255 255 255 255 255 255 255 255 255 255 255 255 255 255 255 255 255 255 255 255 255 255 255 255 255 255 255 255 255 255 255 255 255 255 255 255 255 255 255 255 255 255 255 255 255 255 255 255 255 255 255 255 255 255 255 255 255 255 255 255 255 255 255 255 255 255 255 255 255 255 255 255 255 255 255 255 255 255 255 255 255 255 255 255 255 255 255 255 255 255 255 255 255 255 255 255 255 255 255 255 255 255 255 255 255 255 255 255 255 255 255 255 255 255 255 255 255 255 255 255 255 255 255 255 255 255 255 255 255 255 255 255 255 255 255 255 255 255 255 255 255 255 255 255 255 255 255 255 255 255 255 255 255 255 255 255 255 255 255 255 255 255 255 255 255 255 255 255 255 255 255 255 255 255 255 255 255 255 255 255 255 255 255 255 255 255 255 255 255 255 255 255 255 255 255 255 255 255 255 255 255 255 255 255 255 255 255 255 255 255 255 255 255 255 255 255 255 255 255 255 255 255 255 255 255 255 255 255 255 255 255 255 255 255 255 255 255 255 255 255 255 255 255 255 255 255 255 255 255 255 255 255 255 255 255 255 255 255 255 255 255 255 255 255 255 255 255 255 255 255 255 255 255 255 255 255 255 255 255 255 255 255 255 255 255 255 255 255 255 255 255 255 255 255 255 255 255 255 255 255 255 255 255 255 255 255 255 255 255 255 255 255 255 255 255 255 255 255 255 255 255 255 255 255 255 255 255 255 255 255 255 255 255 255 255 255 255 255 255 255 255 255 255 255 255 255 255 255 255 255 255 255 255 255 255 255 255 255 255 255 255 255 255 255 255 255 255 255 255 255 255 255 255 255 255 255 255 255 255 255 255 000 053 128 000 053 128 000 053 128 000 053 128 000 053 128 000 053 128 000 053 128 000 053 128 000 053 128 000 053 128 000 053 128 000 053 128 000 053 128 000 053 128 000 053 128 000 053 128 000 053 128 000 053 128 000 053 128 000 053 128 000 053 128 000 053 128 000 053 128 000 053 128 000 053 128 000 053 128 000 053 128 000 053 128 000 053 128 000 053 128 255 255 255 255 255 255 255 255 255 255 255 255 255 255 255 255 255 255 255 255 255 255 255 255 255 255 255 255 255 255 255 255 255 255 255 255 255 255 255 255 255 255 255 255 255 255 255 255 255 255 255 255 255 255 255 255 255 255 255 255 255 255 255 255 255 255 255 255 255 255 255 255 255 255 255 255 255 255 255 255 255 255 255 255 255 255 255 255 255 255 255 255 255 255 255 255 255 255 255 255 255 255 255 255 255 255 255 255 255 255 255 255 255 255 255 255 255 255 255 255 255 255 255 255 255 255 255 255 255 255 255 255 255 255 255 255 255 255 255 255 255 255 255 255 255 255 255 255 255 255 255 255 255 255 255 255 255 255 255 255 255 255 255 255 255 255 255 255 255 255 255 255 255 255 255 255 255 255 255 255 255 255 255 255 255 255 255 255 255 255 255 255 255 255 255 255 255 255 255 255 255 255 255 255 255 255 255 255 255 255 255 255 255 255 255 255 255 255 255 255 255 255 255 255 255 255 255 255 255 255 255 255 255 255 255 255 255 255 255 255 255 255 255 255 255 255 255 255 255 255 255 255 255 255 255 255 255 255 255 255 255 255 255 255 255 255 255 255 255 255 255 255 255 255 255 255 255 255 255 255 255 255 255 255 255 255 255 255 255 255 255 255 255 255 255 255 255 255 255 255 255 255 255 255 255 255 255 255 255 255 255 255 255 255 255 255 255 255 255 255 255 255 255 255 255 255 255 255 255 255 255 255 255 255 255 255 255 255 255 255 255 255 255 255 255 255 255 255 255 255 255 255 255 255 255 255 255 255 255 255 255 255 255 255 255 255 255 255 255 255 255 255 255 255 255 255 255 255 255 255 255 255 255 255 255 255 255 255 255 255 255 255 255 255 255 255 255 255 255 255 255 255 255 255 255 255 255 255 255 255 255 255 255 255 255 255 255 255 255 255 255 255 255 255 255 255 255 255 255 255 255 255 255 255 255 255 255 255 255 255 255 255 255 255 255 255 255 255 255 255 000 053 128 000 053 128 000 053 128 000 053 128 000 053 128 000 053 128 000 053 128 000 053 128 000 053 128 000 053 128 000 053 128 000 053 128 000 053 128 000 053 128 000 053 128 000 053 128 000 053 128 000 053 128 000 053 128 000 053 128 000 053 128 000 053 128 000 053 128 000 053 128 000 053 128 000 053 128 000 053 128 000 053 128 000 053 128 000 053 128 255 255 255 255 255 255 255 255 255 255 255 255 255 255 255 255 255 255 255 255 255 255 255 255 255 255 255 255 255 255 255 255 255 255 255 255 255 255 255 255 255 255 255 255 255 255 255 255 255 255 255 255 255 255 255 255 255 255 255 255 255 255 255 255 255 255 255 255 255 255 255 255 255 255 255 255 255 255 255 255 255 255 255 255 255 255 255 255 255 255 255 255 255 255 255 255 255 255 255 255 255 255 255 255 255 255 255 255 255 255 255 255 255 255 255 255 255 255 255 255 255 255 255 255 255 255 255 255 255 255 255 255 255 255 255 255 255 255 255 255 255 255 255 255 255 255 255 255 255 255 255 255 255 255 255 255 255 255 255 255 255 255 255 255 255 255 255 255 255 255 255 255 255 255 255 255 255 255 255 255 255 255 255 255 255 255 255 255 255 255 255 255 255 255 255 255 255 255 255 255 255 255 255 255 255 255 255 255 255 255 255 255 255 255 255 255 255 255 255 255 255 255 255 255 255 255 255 255 255 255 255 255 255 255 255 255 255 255 255 255 255 255 255 255 255 255 255 255 255 255 255 255 255 255 255 255 255 255 255 255 255 255 255 255 255 255 255 255 255 255 255 255 255 255 255 255 255 255 255 255 255 255 255 255 255 255 255 255 255 255 255 255 255 255 255 255 255 255 255 255 255 255 255 255 255 255 255 255 255 255 255 255 255 255 255 255 255 255 255 255 255 255 255 255 255 255 255 255 255 255 255 255 255 255 255 255 255 255 255 255 255 255 255 255 255 255 255 255 255 255 255 255 255 255 255 255 255 255 255 255 255 255 255 255 255 255 255 255 255 255 255 255 255 255 255 255 255 255 255 255 255 255 255 255 255 255 255 255 255 255 255 255 255 255 255 255 255 255 255 255 255 255 255 255 255 255 255 255 255 255 255 255 255 255 255 255 255 255 255 255 255 255 255 255 255 255 255 255 255 255 255 255 255 255 255 255 255 255 255 255 255 255 255 255 255 255 255 255 255 255 000 053 128 000 053 128 000 053 128 000 053 128 000 053 128 000 053 128 000 053 128 000 053 128 000 053 128 000 053 128 000 053 128 000 053 128 000 053 128 000 053 128 000 053 128 000 053 128 000 053 128 000 053 128 000 053 128 000 053 128 000 053 128 000 053 128 000 053 128 000 053 128 000 053 128 000 053 128 000 053 128 000 053 128 000 053 128 000 053 128 255 255 255 255 255 255 255 255 255 255 255 255 255 255 255 255 255 255 255 255 255 255 255 255 255 255 255 255 255 255 255 255 255 255 255 255 255 255 255 255 255 255 255 255 255 255 255 255 255 255 255 255 255 255 255 255 255 255 255 255 255 255 255 255 255 255 255 255 255 255 255 255 255 255 255 255 255 255 255 255 255 255 255 255 255 255 255 255 255 255 255 255 255 255 255 255 255 255 255 255 255 255 255 255 255 255 255 255 255 255 255 255 255 255 255 255 255 255 255 255 255 255 255 255 255 255 255 255 255 255 255 255 255 255 255 255 255 255 255 255 255 255 255 255 255 255 255 255 255 255 255 255 255 255 255 255 255 255 255 255 255 255 255 255 255 255 255 255 255 255 255 255 255 255 255 255 255 255 255 255 255 255 255 255 255 255 255 255 255 255 255 255 255 255 255 255 255 255 255 255 255 255 255 255 255 255 255 255 255 255 255 255 255 255 255 255 255 255 255 255 255 255 255 255 255 255 255 255 255 255 255 255 255 255 255 255 255 255 255 255 255 255 255 255 255 255 255 255 255 255 255 255 255 255 255 255 255 255 255 255 255 255 255 255 255 255 255 255 255 255 255 255 255 255 255 255 255 255 255 255 255 255 255 255 255 255 255 255 255 255 255 255 255 255 255 255 255 255 255 255 255 255 255 255 255 255 255 255 255 255 255 255 255 255 255 255 255 255 255 255 255 255 255 255 255 255 255 255 255 255 255 255 255 255 255 255 255 255 255 255 255 255 255 255 255 255 255 255 255 255 255 255 255 255 255 255 255 255 255 255 255 255 255 255 255 255 255 255 255 255 255 255 255 255 255 255 255 255 255 255 255 255 255 255 255 255 255 255 255 255 255 255 255 255 255 255 255 255 255 255 255 255 255 255 255 255 255 255 255 255 255 255 255 255 255 255 255 255 255 255 255 255 255 255 255 255 255 255 255 255 255 255 255 255 255 255 255 255 255 255 255 255 255 255 255 255 255 255 255 255 000 053 128 000 053 128 000 053 128 000 053 128 000 053 128 000 053 128 000 053 128 000 053 128 000 053 128 000 053 128 000 053 128 000 053 128 000 053 128 000 053 128 000 053 128 000 053 128 000 053 128 000 053 128 000 053 128 000 053 128 000 053 128 000 053 128 000 053 128 000 053 128 000 053 128 000 053 128 000 053 128 000 053 128 000 053 128 000 053 128 255 255 255 255 255 255 255 255 255 255 255 255 255 255 255 255 255 255 255 255 255 255 255 255 255 255 255 255 255 255 255 255 255 255 255 255 255 255 255 255 255 255 255 255 255 255 255 255 255 255 255 255 255 255 255 255 255 255 255 255 255 255 255 255 255 255 255 255 255 255 255 255 255 255 255 255 255 255 255 255 255 255 255 255 255 255 255 255 255 255 255 255 255 255 255 255 255 255 255 255 255 255 255 255 255 255 255 255 255 255 255 255 255 255 255 255 255 255 255 255 255 255 255 255 255 255 255 255 255 255 255 255 255 255 255 255 255 255 255 255 255 255 255 255 255 255 255 255 255 255 255 255 255 255 255 255 255 255 255 255 255 255 255 255 255 255 255 255 255 255 255 255 255 255 255 255 255 255 255 255 255 255 255 255 255 255 255 255 255 255 255 255 255 255 255 255 255 255 255 255 255 255 255 255 255 255 255 255 255 255 255 255 255 255 255 255 255 255 255 255 255 255 255 255 255 255 255 255 255 255 255 255 255 255 255 255 255 255 255 255 255 255 255 255 255 255 255 255 255 255 255 255 255 255 255 255 255 255 255 255 255 255 255 255 255 255 255 255 255 255 255 255 255 255 255 255 255 255 255 255 255 255 255 255 255 255 255 255 255 255 255 255 255 255 255 255 255 255 255 255 255 255 255 255 255 255 255 255 255 255 255 255 255 255 255 255 255 255 255 255 255 255 255 255 255 255 255 255 255 255 255 255 255 255 255 255 255 255 255 255 255 255 255 255 255 255 255 255 255 255 255 255 255 255 255 255 255 255 255 255 255 255 255 255 255 255 255 255 255 255 255 255 255 255 255 255 255 255 255 255 255 255 255 255 255 255 255 255 255 255 255 255 255 255 255 255 255 255 255 255 255 255 255 255 255 255 255 255 255 255 255 255 255 255 255 255 255 255 255 255 255 255 255 255 255 255 255 255 255 255 255 255 255 255 255 255 255 255 255 255 255 255 255 255 255 255 255 255 255 255 000 053 128 000 053 128 000 053 128 000 053 128 000 053 128 000 053 128 000 053 128 000 053 128 000 053 128 000 053 128 000 053 128 000 053 128 000 053 128 000 053 128 000 053 128 000 053 128 000 053 128 000 053 128 000 053 128 000 053 128 000 053 128 000 053 128 000 053 128 000 053 128 000 053 128 000 053 128 000 053 128 000 053 128 000 053 128 000 053 128 255 255 255 255 255 255 255 255 255 255 255 255 255 255 255 255 255 255 255 255 255 255 255 255 255 255 255 255 255 255 255 255 255 255 255 255 255 255 255 255 255 255 255 255 255 255 255 255 255 255 255 255 255 255 255 255 255 255 255 255 255 255 255 255 255 255 255 255 255 255 255 255 255 255 255 255 255 255 255 255 255 255 255 255 255 255 255 255 255 255 255 255 255 255 255 255 255 255 255 255 255 255 255 255 255 255 255 255 255 255 255 255 255 255 255 255 255 255 255 255 255 255 255 255 255 255 255 255 255 255 255 255 255 255 255 255 255 255 255 255 255 255 255 255 255 255 255 255 255 255 255 255 255 255 255 255 255 255 255 255 255 255 255 255 255 255 255 255 255 255 255 255 255 255 255 255 255 255 255 255 255 255 255 255 255 255 255 255 255 255 255 255 255 255 255 255 255 255 255 255 255 255 255 255 255 255 255 255 255 255 255 255 255 255 255 255 255 255 255 255 255 255 255 255 255 255 255 255 255 255 255 255 255 255 255 255 255 255 255 255 255 255 255 255 255 255 255 255 255 255 255 255 255 255 255 255 255 255 255 255 255 255 255 255 255 255 255 255 255 255 255 255 255 255 255 255 255 255 255 255 255 255 255 255 255 255 255 255 255 255 255 255 255 255 255 255 255 255 255 255 255 255 255 255 255 255 255 255 255 255 255 255 255 255 255 255 255 255 255 255 255 255 255 255 255 255 255 255 255 255 255 255 255 255 255 255 255 255 255 255 255 255 255 255 255 255 255 255 255 255 255 255 255 255 255 255 255 255 255 255 255 255 255 255 255 255 255 255 255 255 255 255 255 255 255 255 255 255 255 255 255 255 255 255 255 255 255 255 255 255 255 255 255 255 255 255 255 255 255 255 255 255 255 255 255 255 255 255 255 255 255 255 255 255 255 255 255 255 255 255 255 255 255 255 255 255 255 255 255 255 255 255 255 255 255 255 255 255 255 255 255 255 255 255 255 255 255 255 255 255 000 053 128 000 053 128 000 053 128 000 053 128 000 053 128 000 053 128 000 053 128 000 053 128 000 053 128 000 053 128 000 053 128 000 053 128 000 053 128 000 053 128 000 053 128 000 053 128 000 053 128 000 053 128 000 053 128 000 053 128 000 053 128 000 053 128 000 053 128 000 053 128 000 053 128 000 053 128 000 053 128 000 053 128 000 053 128 000 053 128 255 255 255 255 255 255 255 255 255 255 255 255 255 255 255 255 255 255 255 255 255 255 255 255 255 255 255 255 255 255 255 255 255 255 255 255 255 255 255 255 255 255 255 255 255 255 255 255 255 255 255 255 255 255 255 255 255 255 255 255 255 255 255 255 255 255 255 255 255 255 255 255 255 255 255 255 255 255 255 255 255 255 255 255 255 255 255 255 255 255 255 255 255 255 255 255 255 255 255 255 255 255 255 255 255 255 255 255 255 255 255 255 255 255 255 255 255 255 255 255 255 255 255 255 255 255 255 255 255 255 255 255 255 255 255 255 255 255 255 255 255 255 255 255 255 255 255 255 255 255 255 255 255 255 255 255 255 255 255 255 255 255 255 255 255 255 255 255 255 255 255 255 255 255 255 255 255 255 255 255 255 255 255 255 255 255 255 255 255 255 255 255 255 255 255 255 255 255 255 255 255 255 255 255 255 255 255 255 255 255 255 255 255 255 255 255 255 255 255 255 255 255 255 255 255 255 255 255 255 255 255 255 255 255 255 255 255 255 255 255 255 255 255 255 255 255 255 255 255 255 255 255 255 255 255 255 255 255 255 255 255 255 255 255 255 255 255 255 255 255 255 255 255 255 255 255 255 255 255 255 255 255 255 255 255 255 255 255 255 255 255 255 255 255 255 255 255 255 255 255 255 255 255 255 255 255 255 255 255 255 255 255 255 255 255 255 255 255 255 255 255 255 255 255 255 255 255 255 255 255 255 255 255 255 255 255 255 255 255 255 255 255 255 255 255 255 255 255 255 255 255 255 255 255 255 255 255 255 255 255 255 255 255 255 255 255 255 255 255 255 255 255 255 255 255 255 255 255 255 255 255 255 255 255 255 255 255 255 255 255 255 255 255 255 255 255 255 255 255 255 255 255 255 255 255 255 255 255 255 255 255 255 255 255 255 255 255 255 255 255 255 255 255 255 255 255 255 255 255 255 255 255 255 255 255 255 255 255 255 255 255 255 255 255 255 255 255 255 255 255 000 053 128 000 053 128 000 053 128 000 053 128 000 053 128 000 053 128 000 053 128 000 053 128 000 053 128 000 053 128 000 053 128 000 053 128 000 053 128 000 053 128 000 053 128 000 053 128 000 053 128 000 053 128 000 053 128 000 053 128 000 053 128 000 053 128 000 053 128 000 053 128 000 053 128 000 053 128 000 053 128 000 053 128 000 053 128 000 053 128 255 255 255 255 255 255 255 255 255 255 255 255 255 255 255 255 255 255 255 255 255 255 255 255 255 255 255 255 255 255 255 255 255 255 255 255 255 255 255 255 255 255 255 255 255 255 255 255 255 255 255 255 255 255 255 255 255 255 255 255 255 255 255 255 255 255 255 255 255 255 255 255 255 255 255 255 255 255 255 255 255 255 255 255 255 255 255 255 255 255 255 255 255 255 255 255 255 255 255 255 255 255 255 255 255 255 255 255 255 255 255 255 255 255 255 255 255 255 255 255 255 255 255 255 255 255 255 255 255 255 255 255 255 255 255 255 255 255 255 255 255 255 255 255 255 255 255 255 255 255 255 255 255 255 255 255 255 255 255 255 255 255 255 255 255 255 255 255 255 255 255 255 255 255 255 255 255 255 255 255 255 255 255 255 255 255 255 255 255 255 255 255 255 255 255 255 255 255 255 255 255 255 255 255 255 255 255 255 255 255 255 255 255 255 255 255 255 255 255 255 255 255 255 255 255 255 255 255 255 255 255 255 255 255 255 255 255 255 255 255 255 255 255 255 255 255 255 255 255 255 255 255 255 255 255 255 255 255 255 255 255 255 255 255 255 255 255 255 255 255 255 255 255 255 255 255 255 255 255 255 255 255 255 255 255 255 255 255 255 255 255 255 255 255 255 255 255 255 255 255 255 255 255 255 255 255 255 255 255 255 255 255 255 255 255 255 255 255 255 255 255 255 255 255 255 255 255 255 255 255 255 255 255 255 255 255 255 255 255 255 255 255 255 255 255 255 255 255 255 255 255 255 255 255 255 255 255 255 255 255 255 255 255 255 255 255 255 255 255 255 255 255 255 255 255 255 255 255 255 255 255 255 255 255 255 255 255 255 255 255 255 255 255 255 255 255 255 255 255 255 255 255 255 255 255 255 255 255 255 255 255 255 255 255 255 255 255 255 255 255 255 255 255 255 255 255 255 255 255 255 255 255 255 255 255 255 255 255 255 255 255 255 255 255 255 255 255 255 255 255 000 053 128 000 053 128 000 053 128 000 053 128 000 053 128 000 053 128 000 053 128 000 053 128 000 053 128 000 053 128 000 053 128 000 053 128 000 053 128 000 053 128 000 053 128 000 053 128 000 053 128 000 053 128 000 053 128 000 053 128 000 053 128 000 053 128 000 053 128 000 053 128 000 053 128 000 053 128 000 053 128 000 053 128 000 053 128 000 053 128 255 255 255 255 255 255 255 255 255 255 255 255 255 255 255 255 255 255 255 255 255 255 255 255 255 255 255 255 255 255 255 255 255 255 255 255 255 255 255 255 255 255 255 255 255 255 255 255 255 255 255 255 255 255 255 255 255 255 255 255 255 255 255 255 255 255 255 255 255 255 255 255 255 255 255 255 255 255 255 255 255 255 255 255 255 255 255 255 255 255 255 255 255 255 255 255 255 255 255 255 255 255 255 255 255 255 255 255 255 255 255 255 255 255 255 255 255 255 255 255 255 255 255 255 255 255 255 255 255 255 255 255 255 255 255 255 255 255 255 255 255 255 255 255 255 255 255 255 255 255 255 255 255 255 255 255 255 255 255 255 255 255 255 255 255 255 255 255 255 255 255 255 255 255 255 255 255 255 255 255 255 255 255 255 255 255 255 255 255 255 255 255 255 255 255 255 255 255 255 255 255 255 255 255 255 255 255 255 255 255 255 255 255 255 255 255 255 255 255 255 255 255 255 255 255 255 255 255 255 255 255 255 255 255 255 255 255 255 255 255 255 255 255 255 255 255 255 255 255 255 255 255 255 255 255 255 255 255 255 255 255 255 255 255 255 255 255 255 255 255 255 255 255 255 255 255 255 255 255 255 255 255 255 255 255 255 255 255 255 255 255 255 255 255 255 255 255 255 255 255 255 255 255 255 255 255 255 255 255 255 255 255 255 255 255 255 255 255 255 255 255 255 255 255 255 255 255 255 255 255 255 255 255 255 255 255 255 255 255 255 255 255 255 255 255 255 255 255 255 255 255 255 255 255 255 255 255 255 255 255 255 255 255 255 255 255 255 255 255 255 255 255 255 255 255 255 255 255 255 255 255 255 255 255 255 255 255 255 255 255 255 255 255 255 255 255 255 255 255 255 255 255 255 255 255 255 255 255 255 255 255 255 255 255 255 255 255 255 255 255 255 255 255 255 255 255 255 255 255 255 255 255 255 255 255 255 255 255 255 255 255 255 255 255 255 255 255 255 255 255 000 053 128 000 053 128 000 053 128 000 053 128 000 053 128 000 053 128 000 053 128 000 053 128 000 053 128 000 053 128 000 053 128 000 053 128 000 053 128 000 053 128 000 053 128 000 053 128 000 053 128 000 053 128 000 053 128 000 053 128 000 053 128 000 053 128 000 053 128 000 053 128 000 053 128 000 053 128 000 053 128 000 053 128 000 053 128 000 053 128 255 255 255 255 255 255 255 255 255 255 255 255 255 255 255 255 255 255 255 255 255 255 255 255 255 255 255 255 255 255 255 255 255 255 255 255 255 255 255 255 255 255 255 255 255 255 255 255 255 255 255 255 255 255 255 255 255 255 255 255 255 255 255 255 255 255 255 255 255 255 255 255 255 255 255 255 255 255 255 255 255 255 255 255 255 255 255 255 255 255 255 255 255 255 255 255 255 255 255 255 255 255 255 255 255 255 255 255 255 255 255 255 255 255 255 255 255 255 255 255 255 255 255 255 255 255 255 255 255 255 255 255 255 255 255 255 255 255 255 255 255 255 255 255 255 255 255 255 255 255 255 255 255 255 255 255 255 255 255 255 255 255 255 255 255 255 255 255 255 255 255 255 255 255 255 255 255 255 255 255 255 255 255 255 255 255 255 255 255 255 255 255 255 255 255 255 255 255 255 255 255 255 255 255 255 255 255 255 255 255 255 255 255 255 255 255 255 255 255 255 255 255 255 255 255 255 255 255 255 255 255 255 255 255 255 255 255 255 255 255 255 255 255 255 255 255 255 255 255 255 255 255 255 255 255 255 255 255 255 255 255 255 255 255 255 255 255 255 255 255 255 255 255 255 255 255 255 255 255 255 255 255 255 255 255 255 255 255 255 255 255 255 255 255 255 255 255 255 255 255 255 255 255 255 255 255 255 255 255 255 255 255 255 255 255 255 255 255 255 255 255 255 255 255 255 255 255 255 255 255 255 255 255 255 255 255 255 255 255 255 255 255 255 255 255 255 255 255 255 255 255 255 255 255 255 255 255 255 255 255 255 255 255 255 255 255 255 255 255 255 255 255 255 255 255 255 255 255 255 255 255 255 255 255 255 255 255 255 255 255 255 255 255 255 255 255 255 255 255 255 255 255 255 255 255 255 255 255 255 255 255 255 255 255 255 255 255 255 255 255 255 255 255 255 255 255 255 255 255 255 255 255 255 255 255 255 255 255 255 255 255 255 255 255 255 255 255 255 255 255 000 053 128 000 053 128 000 053 128 000 053 128 000 053 128 000 053 128 000 053 128 000 053 128 000 053 128 000 053 128 000 053 128 000 053 128 000 053 128 000 053 128 000 053 128 000 053 128 000 053 128 000 053 128 000 053 128 000 053 128 000 053 128 000 053 128 000 053 128 000 053 128 000 053 128 000 053 128 000 053 128 000 053 128 000 053 128 000 053 128 255 255 255 255 255 255 255 255 255 255 255 255 255 255 255 255 255 255 255 255 255 255 255 255 255 255 255 255 255 255 255 255 255 255 255 255 255 255 255 255 255 255 255 255 255 255 255 255 255 255 255 255 255 255 255 255 255 255 255 255 255 255 255 255 255 255 255 255 255 255 255 255 255 255 255 255 255 255 255 255 255 255 255 255 255 255 255 255 255 255 255 255 255 255 255 255 255 255 255 255 255 255 255 255 255 255 255 255 255 255 255 255 255 255 255 255 255 255 255 255 255 255 255 255 255 255 255 255 255 255 255 255 255 255 255 255 255 255 255 255 255 255 255 255 255 255 255 255 255 255 255 255 255 255 255 255 255 255 255 255 255 255 255 255 255 255 255 255 255 255 255 255 255 255 255 255 255 255 255 255 255 255 255 255 255 255 255 255 255 255 255 255 255 255 255 255 255 255 255 255 255 255 255 255 255 255 255 255 255 255 255 255 255 255 255 255 255 255 255 255 255 255 255 255 255 255 255 255 255 255 255 255 255 255 255 255 255 255 255 255 255 255 255 255 255 255 255 255 255 255 255 255 255 255 255 255 255 255 255 255 255 255 255 255 255 255 255 255 255 255 255 255 255 255 255 255 255 255 255 255 255 255 255 255 255 255 255 255 255 255 255 255 255 255 255 255 255 255 255 255 255 255 255 255 255 255 255 255 255 255 255 255 255 255 255 255 255 255 255 255 255 255 255 255 255 255 255 255 255 255 255 255 255 255 255 255 255 255 255 255 255 255 255 255 255 255 255 255 255 255 255 255 255 255 255 255 255 255 255 255 255 255 255 255 255 255 255 255 255 255 255 255 255 255 255 255 255 255 255 255 255 255 255 255 255 255 255 255 255 255 255 255 255 255 255 255 255 255 255 255 255 255 255 255 255 255 255 255 255 255 255 255 255 255 255 255 255 255 255 255 255 255 255 255 255 255 255 255 255 255 255 255 255 255 255 255 255 255 255 255 255 255 255 255 255 255 255 255 255 255 000 053 128 000 053 128 000 053 128 000 053 128 000 053 128 000 053 128 000 053 128 000 053 128 000 053 128 000 053 128 000 053 128 000 053 128 000 053 128 000 053 128 000 053 128 000 053 128 000 053 128 000 053 128 000 053 128 000 053 128 000 053 128 000 053 128 000 053 128 000 053 128 000 053 128 000 053 128 000 053 128 000 053 128 000 053 128 000 053 128 255 255 255 255 255 255 255 255 255 255 255 255 255 255 255 255 255 255 255 255 255 255 255 255 255 255 255 255 255 255 255 255 255 255 255 255 255 255 255 255 255 255 255 255 255 255 255 255 255 255 255 255 255 255 255 255 255 255 255 255 255 255 255 255 255 255 255 255 255 255 255 255 255 255 255 255 255 255 255 255 255 255 255 255 255 255 255 255 255 255 255 255 255 255 255 255 255 255 255 255 255 255 255 255 255 255 255 255 255 255 255 255 255 255 255 255 255 255 255 255 255 255 255 255 255 255 255 255 255 255 255 255 255 255 255 255 255 255 255 255 255 255 255 255 255 255 255 255 255 255 255 255 255 255 255 255 255 255 255 255 255 255 255 255 255 255 255 255 255 255 255 255 255 255 255 255 255 255 255 255 255 255 255 255 255 255 255 255 255 255 255 255 255 255 255 255 255 255 255 255 255 255 255 255 255 255 255 255 255 255 255 255 255 255 255 255 255 255 255 255 255 255 255 255 255 255 255 255 255 255 255 255 255 255 255 255 255 255 255 255 255 255 255 255 255 255 255 255 255 255 255 255 255 255 255 255 255 255 255 255 255 255 255 255 255 255 255 255 255 255 255 255 255 255 255 255 255 255 255 255 255 255 255 255 255 255 255 255 255 255 255 255 255 255 255 255 255 255 255 255 255 255 255 255 255 255 255 255 255 255 255 255 255 255 255 255 255 255 255 255 255 255 255 255 255 255 255 255 255 255 255 255 255 255 255 255 255 255 255 255 255 255 255 255 255 255 255 255 255 255 255 255 255 255 255 255 255 255 255 255 255 255 255 255 255 255 255 255 255 255 255 255 255 255 255 255 255 255 255 255 255 255 255 255 255 255 255 255 255 255 255 255 255 255 255 255 255 255 255 255 255 255 255 255 255 255 255 255 255 255 255 255 255 255 255 255 255 255 255 255 255 255 255 255 255 255 255 255 255 255 255 255 255 255 255 255 255 255 255 255 255 255 255 255 255 255 255 255 255 255 000 053 128 000 053 128 000 053 128 000 053 128 000 053 128 000 053 128 000 053 128 000 053 128 000 053 128 000 053 128 000 053 128 000 053 128 000 053 128 000 053 128 000 053 128 000 053 128 000 053 128 000 053 128 000 053 128 000 053 128 000 053 128 000 053 128 000 053 128 000 053 128 000 053 128 000 053 128 000 053 128 000 053 128 000 053 128 000 053 128 255 255 255 255 255 255 255 255 255 255 255 255 255 255 255 255 255 255 255 255 255 255 255 255 255 255 255 255 255 255 255 255 255 255 255 255 255 255 255 255 255 255 255 255 255 255 255 255 255 255 255 255 255 255 255 255 255 255 255 255 255 255 255 255 255 255 255 255 255 255 255 255 255 255 255 255 255 255 255 255 255 255 255 255 255 255 255 255 255 255 255 255 255 255 255 255 255 255 255 255 255 255 255 255 255 255 255 255 255 255 255 255 255 255 255 255 255 255 255 255 255 255 255 255 255 255 255 255 255 255 255 255 255 255 255 255 255 255 255 255 255 255 255 255 255 255 255 255 255 255 255 255 255 255 255 255 255 255 255 255 255 255 255 255 255 255 255 255 255 255 255 255 255 255 255 255 255 255 255 255 255 255 255 255 255 255 255 255 255 255 255 255 255 255 255 255 255 255 255 255 255 255 255 255 255 255 255 255 255 255 255 255 255 255 255 255 255 255 255 255 255 255 255 255 255 255 255 255 255 255 255 255 255 255 255 255 255 255 255 255 255 255 255 255 255 255 255 255 255 255 255 255 255 255 255 255 255 255 255 255 255 255 255 255 255 255 255 255 255 255 255 255 255 255 255 255 255 255 255 255 255 255 255 255 255 255 255 255 255 255 255 255 255 255 255 255 255 255 255 255 255 255 255 255 255 255 255 255 255 255 255 255 255 255 255 255 255 255 255 255 255 255 255 255 255 255 255 255 255 255 255 255 255 255 255 255 255 255 255 255 255 255 255 255 255 255 255 255 255 255 255 255 255 255 255 255 255 255 255 255 255 255 255 255 255 255 255 255 255 255 255 255 255 255 255 255 255 255 255 255 255 255 255 255 255 255 255 255 255 255 255 255 255 255 255 255 255 255 255 255 255 255 255 255 255 255 255 255 255 255 255 255 255 255 255 255 255 255 255 255 255 255 255 255 255 255 255 255 255 255 255 255 255 255 255 255 255 255 255 255 255 255 255 255 255 255 255 255 255 255 000 053 128 000 053 128 000 053 128 000 053 128 000 053 128 000 053 128 000 053 128 000 053 128 000 053 128 000 053 128 000 053 128 000 053 128 000 053 128 000 053 128 000 053 128 000 053 128 000 053 128 000 053 128 000 053 128 000 053 128 000 053 128 000 053 128 000 053 128 000 053 128 000 053 128 000 053 128 000 053 128 000 053 128 000 053 128 000 053 128 255 255 255 255 255 255 255 255 255 255 255 255 255 255 255 255 255 255 255 255 255 255 255 255 255 255 255 255 255 255 255 255 255 255 255 255 255 255 255 255 255 255 255 255 255 255 255 255 255 255 255 255 255 255 255 255 255 255 255 255 255 255 255 255 255 255 255 255 255 255 255 255 255 255 255 255 255 255 255 255 255 255 255 255 255 255 255 255 255 255 255 255 255 255 255 255 255 255 255 255 255 255 255 255 255 255 255 255 255 255 255 255 255 255 255 255 255 255 255 255 255 255 255 255 255 255 255 255 255 255 255 255 255 255 255 255 255 255 255 255 255 255 255 255 255 255 255 255 255 255 255 255 255 255 255 255 255 255 255 255 255 255 255 255 255 255 255 255 255 255 255 255 255 255 255 255 255 255 255 255 255 255 255 255 255 255 255 255 255 255 255 255 255 255 255 255 255 255 255 255 255 255 255 255 255 255 255 255 255 255 255 255 255 255 255 255 255 255 255 255 255 255 255 255 255 255 255 255 255 255 255 255 255 255 255 255 255 255 255 255 255 255 255 255 255 255 255 255 255 255 255 255 255 255 255 255 255 255 255 255 255 255 255 255 255 255 255 255 255 255 255 255 255 255 255 255 255 255 255 255 255 255 255 255 255 255 255 255 255 255 255 255 255 255 255 255 255 255 255 255 255 255 255 255 255 255 255 255 255 255 255 255 255 255 255 255 255 255 255 255 255 255 255 255 255 255 255 255 255 255 255 255 255 255 255 255 255 255 255 255 255 255 255 255 255 255 255 255 255 255 255 255 255 255 255 255 255 255 255 255 255 255 255 255 255 255 255 255 255 255 255 255 255 255 255 255 255 255 255 255 255 255 255 255 255 255 255 255 255 255 255 255 255 255 255 255 255 255 255 255 255 255 255 255 255 255 255 255 255 255 255 255 255 255 255 255 255 255 255 255 255 255 255 255 255 255 255 255 255 255 255 255 255 255 255 255 255 255 255 255 255 255 255 255 255 255 255 255 255 255 000 053 128 000 053 128 000 053 128 000 053 128 000 053 128 000 053 128 000 053 128 000 053 128 000 053 128 000 053 128 000 053 128 000 053 128 000 053 128 000 053 128 000 053 128 000 053 128 000 053 128 000 053 128 000 053 128 000 053 128 000 053 128 000 053 128 000 053 128 000 053 128 000 053 128 000 053 128 000 053 128 000 053 128 000 053 128 000 053 128 255 255 255 255 255 255 255 255 255 255 255 255 255 255 255 255 255 255 255 255 255 255 255 255 255 255 255 255 255 255 255 255 255 255 255 255 255 255 255 255 255 255 255 255 255 255 255 255 255 255 255 255 255 255 255 255 255 255 255 255 255 255 255 255 255 255 255 255 255 255 255 255 255 255 255 255 255 255 255 255 255 255 255 255 255 255 255 255 255 255 255 255 255 255 255 255 255 255 255 255 255 255 255 255 255 255 255 255 255 255 255 255 255 255 255 255 255 255 255 255 255 255 255 255 255 255 255 255 255 255 255 255 255 255 255 255 255 255 255 255 255 255 255 255 255 255 255 255 255 255 255 255 255 255 255 255 255 255 255 255 255 255 255 255 255 255 255 255 255 255 255 255 255 255 255 255 255 255 255 255 255 255 255 255 255 255 255 255 255 255 255 255 255 255 255 255 255 255 255 255 255 255 255 255 255 255 255 255 255 255 255 255 255 255 255 255 255 255 255 255 255 255 255 255 255 255 255 255 255 255 255 255 255 255 255 255 255 255 255 255 255 255 255 255 255 255 255 255 255 255 255 255 255 255 255 255 255 255 255 255 255 255 255 255 255 255 255 255 255 255 255 255 255 255 255 255 255 255 255 255 255 255 255 255 255 255 255 255 255 255 255 255 255 255 255 255 255 255 255 255 255 255 255 255 255 255 255 255 255 255 255 255 255 255 255 255 255 255 255 255 255 255 255 255 255 255 255 255 255 255 255 255 255 255 255 255 255 255 255 255 255 255 255 255 255 255 255 255 255 255 255 255 255 255 255 255 255 255 255 255 255 255 255 255 255 255 255 255 255 255 255 255 255 255 255 255 255 255 255 255 255 255 255 255 255 255 255 255 255 255 255 255 255 255 255 255 255 255 255 255 255 255 255 255 255 255 255 255 255 255 255 255 255 255 255 255 255 255 255 255 255 255 255 255 255 255 255 255 255 255 255 255 255 255 255 255 255 255 255 255 255 255 255 255 255 255 255 255 255 255 000 053 128 000 053 128 000 053 128 000 053 128 000 053 128 000 053 128 000 053 128 000 053 128 000 053 128 000 053 128 000 053 128 000 053 128 000 053 128 000 053 128 000 053 128 000 053 128 000 053 128 000 053 128 000 053 128 000 053 128 000 053 128 000 053 128 000 053 128 000 053 128 000 053 128 000 053 128 000 053 128 000 053 128 000 053 128 000 053 128 255 255 255 255 255 255 255 255 255 255 255 255 255 255 255 255 255 255 255 255 255 255 255 255 255 255 255 255 255 255 255 255 255 255 255 255 255 255 255 255 255 255 255 255 255 255 255 255 255 255 255 255 255 255 255 255 255 255 255 255 255 255 255 255 255 255 255 255 255 255 255 255 255 255 255 255 255 255 255 255 255 255 255 255 255 255 255 255 255 255 255 255 255 255 255 255 255 255 255 255 255 255 255 255 255 255 255 255 255 255 255 255 255 255 255 255 255 255 255 255 255 255 255 255 255 255 255 255 255 255 255 255 255 255 255 255 255 255 255 255 255 255 255 255 255 255 255 255 255 255 255 255 255 255 255 255 255 255 255 255 255 255 255 255 255 255 255 255 255 255 255 255 255 255 255 255 255 255 255 255 255 255 255 255 255 255 255 255 255 255 255 255 255 255 255 255 255 255 255 255 255 255 255 255 255 255 255 255 255 255 255 255 255 255 255 255 255 255 255 255 255 255 255 255 255 255 255 255 255 255 255 255 255 255 255 255 255 255 255 255 255 255 255 255 255 255 255 255 255 255 255 255 255 255 255 255 255 255 255 255 255 255 255 255 255 255 255 255 255 255 255 255 255 255 255 255 255 255 255 255 255 255 255 255 255 255 255 255 255 255 255 255 255 255 255 255 255 255 255 255 255 255 255 255 255 255 255 255 255 255 255 255 255 255 255 255 255 255 255 255 255 255 255 255 255 255 255 255 255 255 255 255 255 255 255 255 255 255 255 255 255 255 255 255 255 255 255 255 255 255 255 255 255 255 255 255 255 255 255 255 255 255 255 255 255 255 255 255 255 255 255 255 255 255 255 255 255 255 255 255 255 255 255 255 255 255 255 255 255 255 255 255 255 255 255 255 255 255 255 255 255 255 255 255 255 255 255 255 255 255 255 255 255 255 255 255 255 255 255 255 255 255 255 255 255 255 255 255 255 255 255 255 255 255 255 255 255 255 255 255 255 255 255 255 255 255 255 255 255 255 000 053 128 000 053 128 000 053 128 000 053 128 000 053 128 000 053 128 000 053 128 000 053 128 000 053 128 000 053 128 000 053 128 000 053 128 000 053 128 000 053 128 000 053 128 000 053 128 000 053 128 000 053 128 000 053 128 000 053 128 000 053 128 000 053 128 000 053 128 000 053 128 000 053 128 000 053 128 000 053 128 000 053 128 000 053 128 000 053 128 255 255 255 255 255 255 255 255 255 255 255 255 255 255 255 255 255 255 255 255 255 255 255 255 255 255 255 255 255 255 255 255 255 255 255 255 255 255 255 255 255 255 255 255 255 255 255 255 255 255 255 255 255 255 255 255 255 255 255 255 255 255 255 255 255 255 255 255 255 255 255 255 255 255 255 255 255 255 255 255 255 255 255 255 255 255 255 255 255 255 255 255 255 255 255 255 255 255 255 255 255 255 255 255 255 255 255 255 255 255 255 255 255 255 255 255 255 255 255 255 255 255 255 255 255 255 255 255 255 255 255 255 255 255 255 255 255 255 255 255 255 255 255 255 255 255 255 255 255 255 255 255 255 255 255 255 255 255 255 255 255 255 255 255 255 255 255 255 255 255 255 255 255 255 255 255 255 255 255 255 255 255 255 255 255 255 255 255 255 255 255 255 255 255 255 255 255 255 255 255 255 255 255 255 255 255 255 255 255 255 255 255 255 255 255 255 255 255 255 255 255 255 255 255 255 255 255 255 255 255 255 255 255 255 255 255 255 255 255 255 255 255 255 255 255 255 255 255 255 255 255 255 255 255 255 255 255 255 255 255 255 255 255 255 255 255 255 255 255 255 255 255 255 255 255 255 255 255 255 255 255 255 255 255 255 255 255 255 255 255 255 255 255 255 255 255 255 255 255 255 255 255 255 255 255 255 255 255 255 255 255 255 255 255 255 255 255 255 255 255 255 255 255 255 255 255 255 255 255 255 255 255 255 255 255 255 255 255 255 255 255 255 255 255 255 255 255 255 255 255 255 255 255 255 255 255 255 255 255 255 255 255 255 255 255 255 255 255 255 255 255 255 255 255 255 255 255 255 255 255 255 255 255 255 255 255 255 255 255 255 255 255 255 255 255 255 255 255 255 255 255 255 255 255 255 255 255 255 255 255 255 255 255 255 255 255 255 255 255 255 255 255 255 255 255 255 255 255 255 255 255 255 255 255 255 255 255 255 255 255 255 255 255 255 255 255 255 255 255 255 000 053 128 000 053 128 000 053 128 000 053 128 000 053 128 000 053 128 000 053 128 000 053 128 000 053 128 000 053 128 000 053 128 000 053 128 000 053 128 000 053 128 000 053 128 000 053 128 000 053 128 000 053 128 000 053 128 000 053 128 000 053 128 000 053 128 000 053 128 000 053 128 000 053 128 000 053 128 000 053 128 000 053 128 000 053 128 000 053 128 255 255 255 255 255 255 255 255 255 255 255 255 255 255 255 255 255 255 255 255 255 255 255 255 255 255 255 255 255 255 255 255 255 255 255 255 255 255 255 255 255 255 255 255 255 255 255 255 255 255 255 255 255 255 255 255 255 255 255 255 255 255 255 255 255 255 255 255 255 255 255 255 255 255 255 255 255 255 255 255 255 255 255 255 255 255 255 255 255 255 255 255 255 255 255 255 255 255 255 255 255 255 255 255 255 255 255 255 255 255 255 255 255 255 255 255 255 255 255 255 255 255 255 255 255 255 255 255 255 255 255 255 255 255 255 255 255 255 255 255 255 255 255 255 255 255 255 255 255 255 255 255 255 255 255 255 255 255 255 255 255 255 255 255 255 255 255 255 255 255 255 255 255 255 255 255 255 255 255 255 255 255 255 255 255 255 255 255 255 255 255 255 255 255 255 255 255 255 255 255 255 255 255 255 255 255 255 255 255 255 255 255 255 255 255 255 255 255 255 255 255 255 255 255 255 255 255 255 255 255 255 255 255 255 255 255 255 255 255 255 255 255 255 255 255 255 255 255 255 255 255 255 255 255 255 255 255 255 255 255 255 255 255 255 255 255 255 255 255 255 255 255 255 255 255 255 255 255 255 255 255 255 255 255 255 255 255 255 255 255 255 255 255 255 255 255 255 255 255 255 255 255 255 255 255 255 255 255 255 255 255 255 255 255 255 255 255 255 255 255 255 255 255 255 255 255 255 255 255 255 255 255 255 255 255 255 255 255 255 255 255 255 255 255 255 255 255 255 255 255 255 255 255 255 255 255 255 255 255 255 255 255 255 255 255 255 255 255 255 255 255 255 255 255 255 255 255 255 255 255 255 255 255 255 255 255 255 255 255 255 255 255 255 255 255 255 255 255 255 255 255 255 255 255 255 255 255 255 255 255 255 255 255 255 255 255 255 255 255 255 255 255 255 255 255 255 255 255 255 255 255 255 255 255 255 255 255 255 255 255 255 255 255 255 255 255 255 255 255 255 000 053 128 000 053 128 000 053 128 000 053 128 000 053 128 000 053 128 000 053 128 000 053 128 000 053 128 000 053 128 000 053 128 000 053 128 000 053 128 000 053 128 000 053 128 000 053 128 000 053 128 000 053 128 000 053 128 000 053 128 000 053 128 000 053 128 000 053 128 000 053 128 000 053 128 000 053 128 000 053 128 000 053 128 000 053 128 000 053 128 255 255 255 255 255 255 255 255 255 255 255 255 255 255 255 255 255 255 255 255 255 255 255 255 255 255 255 255 255 255 255 255 255 255 255 255 255 255 255 255 255 255 255 255 255 255 255 255 255 255 255 255 255 255 255 255 255 255 255 255 255 255 255 255 255 255 255 255 255 255 255 255 255 255 255 255 255 255 255 255 255 255 255 255 255 255 255 255 255 255 255 255 255 255 255 255 255 255 255 255 255 255 255 255 255 255 255 255 255 255 255 255 255 255 255 255 255 255 255 255 255 255 255 255 255 255 255 255 255 255 255 255 255 255 255 255 255 255 255 255 255 255 255 255 255 255 255 255 255 255 255 255 255 255 255 255 255 255 255 255 255 255 255 255 255 255 255 255 255 255 255 255 255 255 255 255 255 255 255 255 255 255 255 255 255 255 255 255 255 255 255 255 255 255 255 255 255 255 255 255 255 255 255 255 255 255 255 255 255 255 255 255 255 255 255 255 255 255 255 255 255 255 255 255 255 255 255 255 255 255 255 255 255 255 255 255 255 255 255 255 255 255 255 255 255 255 255 255 255 255 255 255 255 255 255 255 255 255 255 255 255 255 255 255 255 255 255 255 255 255 255 255 255 255 255 255 255 255 255 255 255 255 255 255 255 255 255 255 255 255 255 255 255 255 255 255 255 255 255 255 255 255 255 255 255 255 255 255 255 255 255 255 255 255 255 255 255 255 255 255 255 255 255 255 255 255 255 255 255 255 255 255 255 255 255 255 255 255 255 255 255 255 255 255 255 255 255 255 255 255 255 255 255 255 255 255 255 255 255 255 255 255 255 255 255 255 255 255 255 255 255 255 255 255 255 255 255 255 255 255 255 255 255 255 255 255 255 255 255 255 255 255 255 255 255 255 255 255 255 255 255 255 255 255 255 255 255 255 255 255 255 255 255 255 255 255 255 255 255 255 255 255 255 255 255 255 255 255 255 255 255 255 255 255 255 255 255 255 255 255 255 255 255 255 255 255 255 255 255 255 000 053 128 000 053 128 000 053 128 000 053 128 000 053 128 000 053 128 000 053 128 000 053 128 000 053 128 000 053 128 000 053 128 000 053 128 000 053 128 000 053 128 000 053 128 000 053 128 000 053 128 000 053 128 000 053 128 000 053 128 000 053 128 000 053 128 000 053 128 000 053 128 000 053 128 000 053 128 000 053 128 000 053 128 000 053 128 000 053 128 255 255 255 255 255 255 255 255 255 255 255 255 255 255 255 255 255 255 255 255 255 255 255 255 255 255 255 255 255 255 255 255 255 255 255 255 255 255 255 255 255 255 255 255 255 255 255 255 255 255 255 255 255 255 255 255 255 255 255 255 255 255 255 255 255 255 255 255 255 255 255 255 255 255 255 255 255 255 255 255 255 255 255 255 255 255 255 255 255 255 255 255 255 255 255 255 255 255 255 255 255 255 255 255 255 255 255 255 255 255 255 255 255 255 255 255 255 255 255 255 255 255 255 255 255 255 255 255 255 255 255 255 255 255 255 255 255 255 255 255 255 255 255 255 255 255 255 255 255 255 255 255 255 255 255 255 255 255 255 255 255 255 255 255 255 255 255 255 255 255 255 255 255 255 255 255 255 255 255 255 255 255 255 255 255 255 255 255 255 255 255 255 255 255 255 255 255 255 255 255 255 255 255 255 255 255 255 255 255 255 255 255 255 255 255 255 255 255 255 255 255 255 255 255 255 255 255 255 255 255 255 255 255 255 255 255 255 255 255 255 255 255 255 255 255 255 255 255 255 255 255 255 255 255 255 255 255 255 255 255 255 255 255 255 255 255 255 255 255 255 255 255 255 255 255 255 255 255 255 255 255 255 255 255 255 255 255 255 255 255 255 255 255 255 255 255 255 255 255 255 255 255 255 255 255 255 255 255 255 255 255 255 255 255 255 255 255 255 255 255 255 255 255 255 255 255 255 255 255 255 255 255 255 255 255 255 255 255 255 255 255 255 255 255 255 255 255 255 255 255 255 255 255 255 255 255 255 255 255 255 255 255 255 255 255 255 255 255 255 255 255 255 255 255 255 255 255 255 255 255 255 255 255 255 255 255 255 255 255 255 255 255 255 255 255 255 255 255 255 255 255 255 255 255 255 255 255 255 255 255 255 255 255 255 255 255 255 255 255 255 255 255 255 255 255 255 255 255 255 255 255 255 255 255 255 255 255 255 255 255 255 255 255 255 255 255 255 255 255 255 000 053 128 000 053 128 000 053 128 000 053 128 000 053 128 000 053 128 000 053 128 000 053 128 000 053 128 000 053 128 000 053 128 000 053 128 000 053 128 000 053 128 000 053 128 000 053 128 000 053 128 000 053 128 000 053 128 000 053 128 000 053 128 000 053 128 000 053 128 000 053 128 000 053 128 000 053 128 000 053 128 000 053 128 000 053 128 000 053 128 255 255 255 255 255 255 255 255 255 255 255 255 255 255 255 255 255 255 255 255 255 255 255 255 255 255 255 255 255 255 255 255 255 255 255 255 255 255 255 255 255 255 255 255 255 255 255 255 255 255 255 255 255 255 255 255 255 255 255 255 255 255 255 255 255 255 255 255 255 255 255 255 255 255 255 255 255 255 255 255 255 255 255 255 255 255 255 255 255 255 255 255 255 255 255 255 255 255 255 255 255 255 255 255 255 255 255 255 255 255 255 255 255 255 255 255 255 255 255 255 255 255 255 255 255 255 255 255 255 255 255 255 255 255 255 255 255 255 255 255 255 255 255 255 255 255 255 255 255 255 255 255 255 255 255 255 255 255 255 255 255 255 255 255 255 255 255 255 255 255 255 255 255 255 255 255 255 255 255 255 255 255 255 255 255 255 255 255 255 255 255 255 255 255 255 255 255 255 255 255 255 255 255 255 255 255 255 255 255 255 255 255 255 255 255 255 255 255 255 255 255 255 255 255 255 255 255 255 255 255 255 255 255 255 255 255 255 255 255 255 255 255 255 255 255 255 255 255 255 255 255 255 255 255 255 255 255 255 255 255 255 255 255 255 255 255 255 255 255 255 255 255 255 255 255 255 255 255 255 255 255 255 255 255 255 255 255 255 255 255 255 255 255 255 255 255 255 255 255 255 255 255 255 255 255 255 255 255 255 255 255 255 255 255 255 255 255 255 255 255 255 255 255 255 255 255 255 255 255 255 255 255 255 255 255 255 255 255 255 255 255 255 255 255 255 255 255 255 255 255 255 255 255 255 255 255 255 255 255 255 255 255 255 255 255 255 255 255 255 255 255 255 255 255 255 255 255 255 255 255 255 255 255 255 255 255 255 255 255 255 255 255 255 255 255 255 255 255 255 255 255 255 255 255 255 255 255 255 255 255 255 255 255 255 255 255 255 255 255 255 255 255 255 255 255 255 255 255 255 255 255 255 255 255 255 255 255 255 255 255 255 255 255 255 255 255 255 255 255 255 000 053 128 000 053 128 000 053 128 000 053 128 000 053 128 000 053 128 000 053 128 000 053 128 000 053 128 000 053 128 000 053 128 000 053 128 000 053 128 000 053 128 000 053 128 000 053 128 000 053 128 000 053 128 000 053 128 000 053 128 000 053 128 000 053 128 000 053 128 000 053 128 000 053 128 000 053 128 000 053 128 000 053 128 000 053 128 000 053 128 255 255 255 255 255 255 255 255 255 255 255 255 255 255 255 255 255 255 255 255 255 255 255 255 255 255 255 255 255 255 255 255 255 255 255 255 255 255 255 255 255 255 255 255 255 255 255 255 255 255 255 255 255 255 255 255 255 255 255 255 255 255 255 255 255 255 255 255 255 255 255 255 255 255 255 255 255 255 255 255 255 255 255 255 255 255 255 255 255 255 255 255 255 255 255 255 255 255 255 255 255 255 255 255 255 255 255 255 255 255 255 255 255 255 255 255 255 255 255 255 255 255 255 255 255 255 255 255 255 255 255 255 255 255 255 255 255 255 255 255 255 255 255 255 255 255 255 255 255 255 255 255 255 255 255 255 255 255 255 255 255 255 255 255 255 255 255 255 255 255 255 255 255 255 255 255 255 255 255 255 255 255 255 255 255 255 255 255 255 255 255 255 255 255 255 255 255 255 255 255 255 255 255 255 255 255 255 255 255 255 255 255 255 255 255 255 255 255 255 255 255 255 255 255 255 255 255 255 255 255 255 255 255 255 255 255 255 255 255 255 255 255 255 255 255 255 255 255 255 255 255 255 255 255 255 255 255 255 255 255 255 255 255 255 255 255 255 255 255 255 255 255 255 255 255 255 255 255 255 255 255 255 255 255 255 255 255 255 255 255 255 255 255 255 255 255 255 255 255 255 255 255 255 255 255 255 255 255 255 255 255 255 255 255 255 255 255 255 255 255 255 255 255 255 255 255 255 255 255 255 255 255 255 255 255 255 255 255 255 255 255 255 255 255 255 255 255 255 255 255 255 255 255 255 255 255 255 255 255 255 255 255 255 255 255 255 255 255 255 255 255 255 255 255 255 255 255 255 255 255 255 255 255 255 255 255 255 255 255 255 255 255 255 255 255 255 255 255 255 255 255 255 255 255 255 255 255 255 255 255 255 255 255 255 255 255 255 255 255 255 255 255 255 255 255 255 255 255 255 255 255 255 255 255 255 255 255 255 255 255 255 255 255 255 255 255 255 255 255 255 000 053 128 000 053 128 000 053 128 000 053 128 000 053 128 000 053 128 000 053 128 000 053 128 000 053 128 000 053 128 000 053 128 000 053 128 000 053 128 000 053 128 000 053 128 000 053 128 000 053 128 000 053 128 000 053 128 000 053 128 000 053 128 000 053 128 000 053 128 000 053 128 000 053 128 000 053 128 000 053 128 000 053 128 000 053 128 000 053 128 255 255 255 255 255 255 255 255 255 255 255 255 255 255 255 255 255 255 255 255 255 255 255 255 255 255 255 255 255 255 255 255 255 255 255 255 255 255 255 255 255 255 255 255 255 255 255 255 255 255 255 255 255 255 255 255 255 255 255 255 255 255 255 255 255 255 255 255 255 255 255 255 255 255 255 255 255 255 255 255 255 255 255 255 255 255 255 255 255 255 255 255 255 255 255 255 255 255 255 255 255 255 255 255 255 255 255 255 255 255 255 255 255 255 255 255 255 255 255 255 255 255 255 255 255 255 255 255 255 255 255 255 255 255 255 255 255 255 255 255 255 255 255 255 255 255 255 255 255 255 255 255 255 255 255 255 255 255 255 255 255 255 255 255 255 255 255 255 255 255 255 255 255 255 255 255 255 255 255 255 255 255 255 255 255 255 255 255 255 255 255 255 255 255 255 255 255 255 255 255 255 255 255 255 255 255 255 255 255 255 255 255 255 255 255 255 255 255 255 255 255 255 255 255 255 255 255 255 255 255 255 255 255 255 255 255 255 255 255 255 255 255 255 255 255 255 255 255 255 255 255 255 255 255 255 255 255 255 255 255 255 255 255 255 255 255 255 255 255 255 255 255 255 255 255 255 255 255 255 255 255 255 255 255 255 255 255 255 255 255 255 255 255 255 255 255 255 255 255 255 255 255 255 255 255 255 255 255 255 255 255 255 255 255 255 255 255 255 255 255 255 255 255 255 255 255 255 255 255 255 255 255 255 255 255 255 255 255 255 255 255 255 255 255 255 255 255 255 255 255 255 255 255 255 255 255 255 255 255 255 255 255 255 255 255 255 255 255 255 255 255 255 255 255 255 255 255 255 255 255 255 255 255 255 255 255 255 255 255 255 255 255 255 255 255 255 255 255 255 255 255 255 255 255 255 255 255 255 255 255 255 255 255 255 255 255 255 255 255 255 255 255 255 255 255 255 255 255 255 255 255 255 255 255 255 255 255 255 255 255 255 255 255 255 255 255 255 255 255 255 000 053 128 000 053 128 000 053 128 000 053 128 000 053 128 000 053 128 000 053 128 000 053 128 000 053 128 000 053 128 000 053 128 000 053 128 000 053 128 000 053 128 000 053 128 000 053 128 000 053 128 000 053 128 000 053 128 000 053 128 000 053 128 000 053 128 000 053 128 000 053 128 000 053 128 000 053 128 000 053 128 000 053 128 000 053 128 000 053 128 255 255 255 255 255 255 255 255 255 255 255 255 255 255 255 255 255 255 255 255 255 255 255 255 255 255 255 255 255 255 255 255 255 255 255 255 255 255 255 255 255 255 255 255 255 255 255 255 255 255 255 255 255 255 255 255 255 255 255 255 255 255 255 255 255 255 255 255 255 255 255 255 255 255 255 255 255 255 255 255 255 255 255 255 255 255 255 255 255 255 255 255 255 255 255 255 255 255 255 255 255 255 255 255 255 255 255 255 255 255 255 255 255 255 255 255 255 255 255 255 255 255 255 255 255 255 255 255 255 255 255 255 255 255 255 255 255 255 255 255 255 255 255 255 255 255 255 255 255 255 255 255 255 255 255 255 255 255 255 255 255 255 255 255 255 255 255 255 255 255 255 255 255 255 255 255 255 255 255 255 255 255 255 255 255 255 255 255 255 255 255 255 255 255 255 255 255 255 255 255 255 255 255 255 255 255 255 255 255 255 255 255 255 255 255 255 255 255 255 255 255 255 255 255 255 255 255 255 255 255 255 255 255 255 255 255 255 255 255 255 255 255 255 255 255 255 255 255 255 255 255 255 255 255 255 255 255 255 255 255 255 255 255 255 255 255 255 255 255 255 255 255 255 255 255 255 255 255 255 255 255 255 255 255 255 255 255 255 255 255 255 255 255 255 255 255 255 255 255 255 000 053 128 000 053 128 000 053 128 000 053 128 000 053 128 000 053 128 000 053 128 000 053 128 000 053 128 000 053 128 000 053 128 000 053 128 000 053 128 000 053 128 000 053 128 000 053 128 000 053 128 000 053 128 000 053 128 000 053 128 000 053 128 000 053 128 000 053 128 000 053 128 000 053 128 000 053 128 000 053 128 000 053 128 000 053 128 000 053 128 000 053 128 000 053 128 000 053 128 000 053 128 000 053 128 000 053 128 000 053 128 000 053 128 000 053 128 000 053 128 000 053 128 000 053 128 000 053 128 000 053 128 000 053 128 000 053 128 000 053 128 000 053 128 000 053 128 000 053 128 000 053 128 000 053 128 000 053 128 000 053 128 000 053 128 000 053 128 000 053 128 000 053 128 000 053 128 000 053 128 000 053 128 000 053 128 000 053 128 000 053 128 000 053 128 000 053 128 000 053 128 000 053 128 000 053 128 000 053 128 000 053 128 000 053 128 000 053 128 000 053 128 000 053 128 000 053 128 000 053 128 000 053 128 000 053 128 000 053 128 000 053 128 000 053 128 000 053 128 000 053 128 000 053 128 000 053 128 000 053 128 000 053 128 000 053 128 000 053 128 000 053 128 000 053 128 000 053 128 000 053 128 000 053 128 000 053 128 000 053 128 000 053 128 000 053 128 000 053 128 000 053 128 000 053 128 000 053 128 000 053 128 000 053 128 000 053 128 000 053 128 000 053 128 000 053 128 000 053 128 000 053 128 000 053 128 000 053 128 000 053 128 000 053 128 000 053 128 000 053 128 000 053 128 000 053 128 000 053 128 000 053 128 000 053 128 000 053 128 000 053 128 000 053 128 000 053 128 000 053 128 000 053 128 000 053 128 000 053 128 000 053 128 000 053 128 000 053 128 000 053 128 000 053 128 000 053 128 000 053 128 000 053 128 000 053 128 000 053 128 000 053 128 000 053 128 000 053 128 000 053 128 000 053 128 000 053 128 000 053 128 000 053 128 000 053 128 000 053 128 000 053 128 000 053 128 000 053 128 000 053 128 000 053 128 000 053 128 000 053 128 000 053 128 000 053 128 000 053 128 000 053 128 000 053 128 000 053 128 000 053 128 000 053 128 000 053 128 000 053 128 000 053 128 000 053 128 000 053 128 000 053 128 000 053 128 000 053 128 000 053 128 000 053 128 000 053 128 000 053 128 000 053 128 000 053 128 000 053 128 000 053 128 000 053 128 000 053 128 000 053 128 000 053 128 000 053 128 000 053 128 000 053 128 000 053 128 000 053 128 000 053 128 000 053 128 000 053 128 000 053 128 000 053 128 000 053 128 000 053 128 000 053 128 000 053 128 000 053 128 000 053 128 000 053 128 000 053 128 000 053 128 000 053 128 000 053 128 000 053 128 000 053 128 000 053 128 000 053 128 000 053 128 000 053 128 000 053 128 000 053 128 000 053 128 000 053 128 000 053 128 000 053 128 000 053 128 000 053 128 000 053 128 000 053 128 000 053 128 000 053 128 000 053 128 000 053 128 000 053 128 000 053 128 000 053 128 000 053 128 000 053 128 000 053 128 000 053 128 000 053 128 000 053 128 000 053 128 000 053 128 000 053 128 000 053 128 000 053 128 000 053 128 000 053 128 000 053 128 000 053 128 000 053 128 000 053 128 000 053 128 000 053 128 000 053 128 000 053 128 000 053 128 000 053 128 000 053 128 000 053 128 000 053 128 000 053 128 000 053 128 000 053 128 000 053 128 000 053 128 000 053 128 000 053 128 000 053 128 000 053 128 000 053 128 000 053 128 000 053 128 000 053 128 000 053 128 000 053 128 000 053 128 000 053 128 000 053 128 000 053 128 000 053 128 000 053 128 000 053 128 000 053 128 000 053 128 000 053 128 000 053 128 000 053 128 000 053 128 000 053 128 000 053 128 000 053 128 000 053 128 000 053 128 000 053 128 000 053 128 000 053 128 000 053 128 000 053 128 000 053 128 000 053 128 000 053 128 000 053 128 000 053 128 000 053 128 000 053 128 000 053 128 000 053 128 000 053 128 000 053 128 000 053 128 000 053 128 000 053 128 000 053 128 000 053 128 000 053 128 000 053 128 000 053 128 000 053 128 000 053 128 000 053 128 000 053 128 000 053 128 000 053 128 000 053 128 000 053 128 000 053 128 000 053 128 000 053 128 000 053 128 000 053 128 000 053 128 000 053 128 000 053 128 000 053 128 000 053 128 000 053 128 000 053 128 000 053 128 000 053 128 000 053 128 000 053 128 000 053 128 000 053 128 000 053 128 000 053 128 000 053 128 000 053 128 000 053 128 000 053 128 000 053 128 000 053 128 000 053 128 000 053 128 000 053 128 000 053 128 000 053 128 000 053 128 000 053 128 000 053 128 000 053 128 000 053 128 000 053 128 000 053 128 000 053 128 000 053 128 000 053 128 000 053 128 000 053 128 000 053 128 000 053 128 000 053 128 000 053 128 000 053 128 000 053 128 000 053 128 000 053 128 000 053 128 000 053 128 000 053 128 000 053 128 000 053 128 000 053 128 000 053 128 000 053 128 000 053 128 000 053 128 000 053 128 000 053 128 000 053 128 000 053 128 000 053 128 000 053 128 000 053 128 000 053 128 000 053 128 000 053 128 000 053 128 000 053 128 000 053 128 000 053 128 000 053 128 000 053 128 000 053 128 000 053 128 000 053 128 000 053 128 000 053 128 000 053 128 000 053 128 000 053 128 000 053 128 000 053 128 000 053 128 000 053 128 000 053 128 000 053 128 000 053 128 000 053 128 000 053 128 000 053 128 000 053 128 000 053 128 000 053 128 000 053 128 000 053 128 000 053 128 000 053 128 000 053 128 000 053 128 000 053 128 000 053 128 000 053 128 000 053 128 000 053 128 000 053 128 000 053 128 000 053 128 000 053 128 000 053 128 000 053 128 000 053 128 000 053 128 000 053 128 000 053 128 000 053 128 000 053 128 000 053 128 000 053 128 000 053 128 000 053 128 000 053 128 000 053 128 000 053 128 000 053 128 000 053 128 000 053 128 000 053 128 000 053 128 000 053 128 000 053 128 000 053 128 000 053 128 000 053 128 000 053 128 000 053 128 000 053 128 000 053 128 000 053 128 000 053 128 000 053 128 000 053 128 000 053 128 000 053 128 000 053 128 000 053 128 000 053 128 000 053 128 000 053 128 000 053 128 000 053 128 000 053 128 000 053 128 000 053 128 000 053 128 000 053 128 000 053 128 000 053 128 000 053 128 000 053 128 000 053 128 000 053 128 000 053 128 000 053 128 000 053 128 000 053 128 000 053 128 000 053 128 000 053 128 000 053 128 000 053 128 000 053 128 000 053 128 000 053 128 000 053 128 000 053 128 000 053 128 000 053 128 000 053 128 000 053 128 000 053 128 000 053 128 000 053 128 000 053 128 000 053 128 000 053 128 000 053 128 000 053 128 000 053 128 000 053 128 000 053 128 000 053 128 000 053 128 000 053 128 000 053 128 000 053 128 000 053 128 000 053 128 000 053 128 000 053 128 000 053 128 000 053 128 000 053 128 000 053 128 000 053 128 000 053 128 000 053 128 000 053 128 000 053 128 000 053 128 000 053 128 000 053 128 000 053 128 000 053 128 000 053 128 000 053 128 000 053 128 000 053 128 000 053 128 000 053 128 000 053 128 000 053 128 000 053 128 000 053 128 000 053 128 000 053 128 000 053 128 000 053 128 000 053 128 000 053 128 000 053 128 000 053 128 000 053 128 000 053 128 000 053 128 000 053 128 000 053 128 000 053 128 000 053 128 000 053 128 000 053 128 000 053 128 000 053 128 000 053 128 000 053 128 000 053 128 000 053 128 000 053 128 000 053 128 000 053 128 000 053 128 000 053 128 000 053 128 000 053 128 000 053 128 000 053 128 000 053 128 000 053 128 000 053 128 000 053 128 000 053 128 000 053 128 000 053 128 000 053 128 000 053 128 000 053 128 000 053 128 000 053 128 000 053 128 000 053 128 000 053 128 000 053 128 000 053 128 000 053 128 000 053 128 000 053 128 000 053 128 000 053 128 000 053 128 000 053 128 000 053 128 000 053 128 000 053 128 000 053 128 000 053 128 000 053 128 000 053 128 000 053 128 000 053 128 000 053 128 000 053 128 000 053 128 000 053 128 000 053 128 000 053 128 000 053 128 000 053 128 000 053 128 000 053 128 000 053 128 000 053 128 000 053 128 000 053 128 000 053 128 000 053 128 000 053 128 000 053 128 000 053 128 000 053 128 000 053 128 000 053 128 000 053 128 000 053 128 000 053 128 000 053 128 000 053 128 000 053 128 000 053 128 000 053 128 000 053 128 000 053 128 000 053 128 000 053 128 000 053 128 000 053 128 000 053 128 000 053 128 000 053 128 000 053 128 000 053 128 000 053 128 000 053 128 000 053 128 000 053 128 000 053 128 000 053 128 000 053 128 000 053 128 000 053 128 000 053 128 000 053 128 000 053 128 000 053 128 000 053 128 000 053 128 000 053 128 000 053 128 000 053 128 000 053 128 000 053 128 000 053 128 000 053 128 000 053 128 000 053 128 000 053 128 000 053 128 000 053 128 000 053 128 000 053 128 000 053 128 000 053 128 000 053 128 000 053 128 000 053 128 000 053 128 000 053 128 000 053 128 000 053 128 000 053 128 000 053 128 000 053 128 000 053 128 000 053 128 000 053 128 000 053 128 000 053 128 000 053 128 000 053 128 000 053 128 000 053 128 000 053 128 000 053 128 000 053 128 000 053 128 000 053 128 000 053 128 000 053 128 000 053 128 000 053 128 000 053 128 000 053 128 000 053 128 000 053 128 000 053 128 000 053 128 000 053 128 000 053 128 000 053 128 000 053 128 000 053 128 000 053 128 000 053 128 000 053 128 000 053 128 000 053 128 000 053 128 000 053 128 000 053 128 000 053 128 000 053 128 000 053 128 000 053 128 000 053 128 000 053 128 000 053 128 000 053 128 000 053 128 000 053 128 000 053 128 000 053 128 000 053 128 000 053 128 000 053 128 000 053 128 000 053 128 000 053 128 000 053 128 000 053 128 000 053 128 000 053 128 000 053 128 000 053 128 000 053 128 000 053 128 000 053 128 000 053 128 000 053 128 000 053 128 000 053 128 000 053 128 000 053 128 000 053 128 000 053 128 000 053 128 000 053 128 000 053 128 000 053 128 000 053 128 000 053 128 000 053 128 000 053 128 000 053 128 000 053 128 000 053 128 000 053 128 000 053 128 000 053 128 000 053 128 000 053 128 000 053 128 000 053 128 000 053 128 000 053 128 000 053 128 000 053 128 000 053 128 000 053 128 000 053 128 000 053 128 000 053 128 000 053 128 000 053 128 000 053 128 000 053 128 000 053 128 000 053 128 000 053 128 000 053 128 000 053 128 000 053 128 000 053 128 000 053 128 000 053 128 000 053 128 000 053 128 000 053 128 000 053 128 000 053 128 000 053 128 000 053 128 000 053 128 000 053 128 000 053 128 000 053 128 000 053 128 000 053 128 000 053 128 000 053 128 000 053 128 000 053 128 000 053 128 000 053 128 000 053 128 000 053 128 000 053 128 000 053 128 000 053 128 000 053 128 000 053 128 000 053 128 000 053 128 000 053 128 000 053 128 000 053 128 000 053 128 000 053 128 000 053 128 000 053 128 000 053 128 000 053 128 000 053 128 000 053 128 000 053 128 000 053 128 000 053 128 000 053 128 000 053 128 000 053 128 000 053 128 000 053 128 000 053 128 000 053 128 000 053 128 000 053 128 000 053 128 000 053 128 000 053 128 000 053 128 000 053 128 000 053 128 000 053 128 000 053 128 000 053 128 000 053 128 000 053 128 000 053 128 000 053 128 000 053 128 000 053 128 000 053 128 000 053 128 000 053 128 000 053 128 000 053 128 000 053 128 000 053 128 000 053 128 000 053 128 000 053 128 000 053 128 000 053 128 000 053 128 000 053 128 000 053 128 000 053 128 000 053 128 000 053 128 000 053 128 000 053 128 000 053 128 000 053 128 000 053 128 000 053 128 000 053 128 000 053 128 000 053 128 000 053 128 000 053 128 000 053 128 000 053 128 000 053 128 000 053 128 000 053 128 000 053 128 000 053 128 000 053 128 000 053 128 000 053 128 000 053 128 000 053 128 000 053 128 000 053 128 000 053 128 000 053 128 000 053 128 000 053 128 000 053 128 000 053 128 000 053 128 000 053 128 000 053 128 000 053 128 000 053 128 000 053 128 000 053 128 000 053 128 000 053 128 000 053 128 000 053 128 000 053 128 000 053 128 000 053 128 000 053 128 000 053 128 000 053 128 000 053 128 000 053 128 000 053 128 000 053 128 000 053 128 000 053 128 000 053 128 000 053 128 000 053 128 000 053 128 000 053 128 000 053 128 000 053 128 000 053 128 000 053 128 000 053 128 000 053 128 000 053 128 000 053 128 000 053 128 000 053 128 000 053 128 000 053 128 000 053 128 000 053 128 000 053 128 000 053 128 000 053 128 000 053 128 000 053 128 000 053 128 000 053 128 000 053 128 000 053 128 000 053 128 000 053 128 000 053 128 000 053 128 000 053 128 000 053 128 000 053 128 000 053 128 000 053 128 000 053 128 000 053 128 000 053 128 000 053 128 000 053 128 000 053 128 000 053 128 000 053 128 000 053 128 000 053 128 000 053 128 000 053 128 000 053 128 000 053 128 000 053 128 000 053 128 000 053 128 000 053 128 000 053 128 000 053 128 000 053 128 000 053 128 000 053 128 000 053 128 000 053 128 000 053 128 000 053 128 000 053 128 000 053 128 000 053 128 000 053 128 000 053 128 000 053 128 000 053 128 000 053 128 000 053 128 000 053 128 000 053 128 000 053 128 000 053 128 000 053 128 000 053 128 000 053 128 000 053 128 000 053 128 000 053 128 000 053 128 000 053 128 000 053 128 000 053 128 000 053 128 000 053 128 000 053 128 000 053 128 000 053 128 000 053 128 000 053 128 000 053 128 000 053 128 000 053 128 000 053 128 000 053 128 000 053 128 000 053 128 000 053 128 000 053 128 000 053 128 000 053 128 000 053 128 000 053 128 000 053 128 000 053 128 000 053 128 000 053 128 000 053 128 000 053 128 000 053 128 000 053 128 000 053 128 000 053 128 000 053 128 000 053 128 000 053 128 000 053 128 000 053 128 000 053 128 000 053 128 000 053 128 000 053 128 000 053 128 000 053 128 000 053 128 000 053 128 000 053 128 000 053 128 000 053 128 000 053 128 000 053 128 000 053 128 000 053 128 000 053 128 000 053 128 000 053 128 000 053 128 000 053 128 000 053 128 000 053 128 000 053 128 000 053 128 000 053 128 000 053 128 000 053 128 000 053 128 000 053 128 000 053 128 000 053 128 000 053 128 000 053 128 000 053 128 000 053 128 000 053 128 000 053 128 000 053 128 000 053 128 000 053 128 000 053 128 000 053 128 000 053 128 000 053 128 000 053 128 000 053 128 000 053 128 000 053 128 000 053 128 000 053 128 000 053 128 000 053 128 000 053 128 000 053 128 000 053 128 000 053 128 000 053 128 000 053 128 000 053 128 000 053 128 000 053 128 000 053 128 000 053 128 000 053 128 000 053 128 000 053 128 000 053 128 000 053 128 000 053 128 000 053 128 000 053 128 000 053 128 000 053 128 000 053 128 000 053 128 000 053 128 000 053 128 000 053 128 000 053 128 000 053 128 000 053 128 000 053 128 000 053 128 000 053 128 000 053 128 000 053 128 000 053 128 000 053 128 000 053 128 000 053 128 000 053 128 000 053 128 000 053 128 000 053 128 000 053 128 000 053 128 000 053 128 000 053 128 000 053 128 000 053 128 000 053 128 000 053 128 000 053 128 000 053 128 000 053 128 000 053 128 000 053 128 000 053 128 000 053 128 000 053 128 000 053 128 000 053 128 000 053 128 000 053 128 000 053 128 000 053 128 000 053 128 000 053 128 000 053 128 000 053 128 000 053 128 000 053 128 000 053 128 000 053 128 000 053 128 000 053 128 000 053 128 000 053 128 000 053 128 000 053 128 000 053 128 000 053 128 000 053 128 000 053 128 000 053 128 000 053 128 000 053 128 000 053 128 000 053 128 000 053 128 000 053 128 000 053 128 000 053 128 000 053 128 000 053 128 000 053 128 000 053 128 000 053 128 000 053 128 000 053 128 000 053 128 000 053 128 000 053 128 000 053 128 000 053 128 000 053 128 000 053 128 000 053 128 000 053 128 000 053 128 000 053 128 000 053 128 000 053 128 000 053 128 000 053 128 000 053 128 000 053 128 000 053 128 000 053 128 000 053 128 000 053 128 000 053 128 000 053 128 000 053 128 000 053 128 000 053 128 000 053 128 000 053 128 000 053 128 000 053 128 000 053 128 000 053 128 000 053 128 000 053 128 000 053 128 000 053 128 000 053 128 000 053 128 000 053 128 000 053 128 000 053 128 000 053 128 000 053 128 000 053 128 000 053 128 000 053 128 000 053 128 000 053 128 000 053 128 000 053 128 000 053 128 000 053 128 000 053 128 000 053 128 000 053 128 000 053 128 000 053 128 000 053 128 000 053 128 000 053 128 000 053 128 000 053 128 000 053 128 000 053 128 000 053 128 000 053 128 000 053 128 000 053 128 000 053 128 000 053 128 000 053 128 000 053 128 000 053 128 000 053 128 000 053 128 000 053 128 000 053 128 000 053 128 000 053 128 000 053 128 000 053 128 000 053 128 000 053 128 000 053 128 000 053 128 000 053 128 000 053 128 000 053 128 000 053 128 000 053 128 000 053 128 000 053 128 000 053 128 000 053 128 000 053 128 000 053 128 000 053 128 000 053 128 000 053 128 000 053 128 000 053 128 000 053 128 000 053 128 000 053 128 000 053 128 000 053 128 000 053 128 000 053 128 000 053 128 000 053 128 000 053 128 000 053 128 000 053 128 000 053 128 000 053 128 000 053 128 000 053 128 000 053 128 000 053 128 000 053 128 000 053 128 000 053 128 000 053 128 000 053 128 000 053 128 000 053 128 000 053 128 000 053 128 000 053 128 000 053 128 000 053 128 000 053 128 000 053 128 000 053 128 000 053 128 000 053 128 000 053 128 000 053 128 000 053 128 000 053 128 000 053 128 000 053 128 000 053 128 000 053 128 000 053 128 000 053 128 000 053 128 000 053 128 000 053 128 000 053 128 000 053 128 000 053 128 000 053 128 000 053 128 000 053 128 000 053 128 000 053 128 000 053 128 000 053 128 000 053 128 000 053 128 000 053 128 000 053 128 000 053 128 000 053 128 000 053 128 000 053 128 000 053 128 000 053 128 000 053 128 000 053 128 000 053 128 000 053 128 000 053 128 000 053 128 000 053 128 000 053 128 000 053 128 000 053 128 000 053 128 000 053 128 000 053 128 000 053 128 000 053 128 000 053 128 000 053 128 000 053 128 000 053 128 000 053 128 000 053 128 000 053 128 000 053 128 000 053 128 000 053 128 000 053 128 000 053 128 000 053 128 000 053 128 000 053 128 000 053 128 000 053 128 000 053 128 000 053 128 000 053 128 000 053 128 000 053 128 000 053 128 000 053 128 000 053 128 000 053 128 000 053 128 000 053 128 000 053 128 000 053 128 000 053 128 000 053 128 000 053 128 000 053 128 000 053 128 000 053 128 000 053 128 000 053 128 000 053 128 000 053 128 000 053 128 000 053 128 000 053 128 000 053 128 000 053 128 000 053 128 000 053 128 000 053 128 000 053 128 000 053 128 000 053 128 000 053 128 000 053 128 000 053 128 000 053 128 000 053 128 000 053 128 000 053 128 000 053 128 000 053 128 000 053 128 000 053 128 000 053 128 000 053 128 000 053 128 000 053 128 000 053 128 000 053 128 000 053 128 000 053 128 000 053 128 000 053 128 000 053 128 000 053 128 000 053 128 000 053 128 000 053 128 000 053 128 000 053 128 000 053 128 000 053 128 000 053 128 000 053 128 000 053 128 000 053 128 000 053 128 000 053 128 000 053 128 000 053 128 000 053 128 000 053 128 000 053 128 000 053 128 000 053 128 000 053 128 000 053 128 000 053 128 000 053 128 000 053 128 000 053 128 000 053 128 000 053 128 000 053 128 000 053 128 000 053 128 000 053 128 000 053 128 000 053 128 000 053 128 000 053 128 000 053 128 000 053 128 000 053 128 000 053 128 000 053 128 000 053 128 000 053 128 000 053 128 000 053 128 000 053 128 000 053 128 000 053 128 000 053 128 000 053 128 000 053 128 000 053 128 000 053 128 000 053 128 000 053 128 000 053 128 000 053 128 000 053 128 000 053 128 000 053 128 000 053 128 000 053 128 000 053 128 000 053 128 000 053 128 000 053 128 000 053 128 000 053 128 000 053 128 000 053 128 000 053 128 000 053 128 000 053 128 000 053 128 000 053 128 000 053 128 000 053 128 000 053 128 000 053 128 000 053 128 000 053 128 000 053 128 000 053 128 000 053 128 000 053 128 000 053 128 000 053 128 000 053 128 000 053 128 000 053 128 000 053 128 000 053 128 000 053 128 000 053 128 000 053 128 000 053 128 000 053 128 000 053 128 000 053 128 000 053 128 000 053 128 000 053 128 000 053 128 000 053 128 000 053 128 000 053 128 000 053 128 000 053 128 000 053 128 000 053 128 000 053 128 000 053 128 000 053 128 000 053 128 000 053 128 000 053 128 000 053 128 000 053 128 000 053 128 000 053 128 000 053 128 000 053 128 000 053 128 000 053 128 000 053 128 000 053 128 000 053 128 000 053 128 000 053 128 000 053 128 000 053 128 000 053 128 000 053 128 000 053 128 000 053 128 000 053 128 000 053 128 000 053 128 000 053 128 000 053 128 000 053 128 000 053 128 000 053 128 000 053 128 000 053 128 000 053 128 000 053 128 000 053 128 000 053 128 000 053 128 000 053 128 000 053 128 000 053 128 000 053 128 000 053 128 000 053 128 000 053 128 000 053 128 000 053 128 000 053 128 000 053 128 000 053 128 000 053 128 000 053 128 000 053 128 000 053 128 000 053 128 000 053 128 000 053 128 000 053 128 000 053 128 000 053 128 000 053 128 000 053 128 000 053 128 000 053 128 000 053 128 000 053 128 000 053 128 000 053 128 000 053 128 000 053 128 000 053 128 000 053 128 000 053 128 000 053 128 000 053 128 000 053 128 000 053 128 000 053 128 000 053 128 000 053 128 000 053 128 000 053 128 000 053 128 000 053 128 000 053 128 000 053 128 000 053 128 000 053 128 000 053 128 000 053 128 000 053 128 000 053 128 000 053 128 000 053 128 000 053 128 000 053 128 000 053 128 000 053 128 000 053 128 000 053 128 000 053 128 000 053 128 000 053 128 000 053 128 000 053 128 000 053 128 000 053 128 000 053 128 000 053 128 000 053 128 000 053 128 000 053 128 000 053 128 000 053 128 000 053 128 000 053 128 000 053 128 000 053 128 000 053 128 000 053 128 000 053 128 000 053 128 000 053 128 000 053 128 000 053 128 000 053 128 000 053 128 000 053 128 000 053 128 000 053 128 000 053 128 000 053 128 000 053 128 000 053 128 000 053 128 000 053 128 000 053 128 000 053 128 000 053 128 000 053 128 000 053 128 000 053 128 000 053 128 000 053 128 000 053 128 000 053 128 000 053 128 000 053 128 000 053 128 000 053 128 000 053 128 000 053 128 000 053 128 000 053 128 000 053 128 000 053 128 000 053 128 000 053 128 000 053 128 000 053 128 000 053 128 000 053 128 000 053 128 000 053 128 000 053 128 000 053 128 000 053 128 000 053 128 000 053 128 000 053 128 000 053 128 000 053 128 000 053 128 000 053 128 000 053 128 000 053 128 000 053 128 000 053 128 000 053 128 000 053 128 000 053 128 000 053 128 000 053 128 000 053 128 000 053 128 000 053 128 000 053 128 000 053 128 000 053 128 000 053 128 000 053 128 000 053 128 000 053 128 000 053 128 000 053 128 000 053 128 000 053 128 000 053 128 000 053 128 000 053 128 000 053 128 000 053 128 000 053 128 000 053 128 000 053 128 000 053 128 000 053 128 000 053 128 000 053 128 000 053 128 000 053 128 000 053 128 000 053 128 000 053 128 000 053 128 000 053 128 000 053 128 000 053 128 000 053 128 000 053 128 000 053 128 000 053 128 000 053 128 000 053 128 000 053 128 000 053 128 000 053 128 000 053 128 000 053 128 000 053 128 000 053 128 000 053 128 000 053 128 000 053 128 000 053 128 000 053 128 000 053 128 000 053 128 000 053 128 000 053 128 000 053 128 000 053 128 000 053 128 000 053 128 000 053 128 000 053 128 000 053 128 000 053 128 000 053 128 000 053 128 000 053 128 000 053 128 000 053 128 000 053 128 000 053 128 000 053 128 000 053 128 000 053 128 000 053 128 000 053 128 000 053 128 000 053 128 000 053 128 000 053 128 000 053 128 000 053 128 000 053 128 000 053 128 000 053 128 000 053 128 000 053 128 000 053 128 000 053 128 000 053 128 000 053 128 000 053 128 000 053 128 000 053 128 000 053 128 000 053 128 000 053 128 000 053 128 000 053 128 000 053 128 000 053 128 000 053 128 000 053 128 000 053 128 000 053 128 000 053 128 000 053 128 000 053 128 000 053 128 000 053 128 000 053 128 000 053 128 000 053 128 000 053 128 000 053 128 000 053 128 000 053 128 000 053 128 000 053 128 000 053 128 000 053 128 000 053 128 000 053 128 000 053 128 000 053 128 000 053 128 000 053 128 000 053 128 000 053 128 000 053 128 000 053 128 000 053 128 000 053 128 000 053 128 000 053 128 000 053 128 000 053 128 000 053 128 000 053 128 000 053 128 000 053 128 000 053 128 000 053 128 000 053 128 000 053 128 000 053 128 000 053 128 000 053 128 000 053 128 000 053 128 000 053 128 000 053 128 000 053 128 000 053 128 000 053 128 000 053 128 000 053 128 000 053 128 000 053 128 000 053 128 000 053 128 000 053 128 000 053 128 000 053 128 000 053 128 000 053 128 000 053 128 000 053 128 000 053 128 000 053 128 000 053 128 000 053 128 000 053 128 000 053 128 000 053 128 000 053 128 000 053 128 000 053 128 000 053 128 000 053 128 000 053 128 000 053 128 000 053 128 000 053 128 000 053 128 000 053 128 000 053 128 000 053 128 000 053 128 000 053 128 000 053 128 000 053 128 000 053 128 000 053 128 000 053 128 000 053 128 000 053 128 000 053 128 000 053 128 000 053 128 000 053 128 000 053 128 000 053 128 000 053 128 000 053 128 000 053 128 000 053 128 000 053 128 000 053 128 000 053 128 000 053 128 000 053 128 000 053 128 000 053 128 000 053 128 000 053 128 000 053 128 000 053 128 000 053 128 000 053 128 000 053 128 000 053 128 000 053 128 000 053 128 000 053 128 000 053 128 000 053 128 000 053 128 000 053 128 000 053 128 000 053 128 000 053 128 000 053 128 000 053 128 000 053 128 000 053 128 000 053 128 000 053 128 000 053 128 000 053 128 000 053 128 000 053 128 000 053 128 000 053 128 000 053 128 000 053 128 000 053 128 000 053 128 000 053 128 000 053 128 000 053 128 000 053 128 000 053 128 000 053 128 000 053 128 000 053 128 000 053 128 000 053 128 000 053 128 000 053 128 000 053 128 000 053 128 000 053 128 000 053 128 000 053 128 000 053 128 000 053 128 000 053 128 000 053 128 000 053 128 000 053 128 000 053 128 000 053 128 000 053 128 000 053 128 000 053 128 000 053 128 000 053 128 000 053 128 000 053 128 000 053 128 000 053 128 000 053 128 000 053 128 000 053 128 000 053 128 000 053 128 000 053 128 000 053 128 000 053 128 000 053 128 000 053 128 000 053 128 000 053 128 000 053 128 000 053 128 000 053 128 000 053 128 000 053 128 000 053 128 000 053 128 000 053 128 000 053 128 000 053 128 000 053 128 000 053 128 000 053 128 000 053 128 000 053 128 000 053 128 000 053 128 000 053 128 000 053 128 000 053 128 000 053 128 000 053 128 000 053 128 000 053 128 000 053 128 000 053 128 000 053 128 000 053 128 000 053 128 000 053 128 000 053 128 000 053 128 000 053 128 000 053 128 000 053 128 000 053 128 000 053 128 000 053 128 000 053 128 000 053 128 000 053 128 000 053 128 000 053 128 000 053 128 000 053 128 000 053 128 000 053 128 000 053 128 000 053 128 000 053 128 000 053 128 000 053 128 000 053 128 000 053 128 000 053 128 000 053 128 000 053 128 000 053 128 000 053 128 000 053 128 000 053 128 000 053 128 000 053 128 000 053 128 000 053 128 000 053 128 000 053 128 000 053 128 000 053 128 000 053 128 000 053 128 000 053 128 000 053 128 000 053 128 000 053 128 000 053 128 000 053 128 000 053 128 000 053 128 000 053 128 000 053 128 000 053 128 000 053 128 000 053 128 000 053 128 000 053 128 000 053 128 000 053 128 000 053 128 000 053 128 000 053 128 000 053 128 000 053 128 000 053 128 000 053 128 000 053 128 000 053 128 000 053 128 000 053 128 000 053 128 000 053 128 000 053 128 000 053 128 000 053 128 000 053 128 000 053 128 000 053 128 000 053 128 000 053 128 000 053 128 000 053 128 000 053 128 000 053 128 000 053 128 000 053 128 000 053 128 000 053 128 000 053 128 000 053 128 000 053 128 000 053 128 000 053 128 000 053 128 000 053 128 000 053 128 000 053 128 000 053 128 000 053 128 000 053 128 000 053 128 000 053 128 000 053 128 000 053 128 000 053 128 000 053 128 000 053 128 000 053 128 000 053 128 000 053 128 000 053 128 000 053 128 000 053 128 000 053 128 000 053 128 000 053 128 000 053 128 000 053 128 000 053 128 000 053 128 000 053 128 000 053 128 000 053 128 000 053 128 000 053 128 000 053 128 000 053 128 000 053 128 000 053 128 000 053 128 000 053 128 000 053 128 000 053 128 000 053 128 000 053 128 000 053 128 000 053 128 000 053 128 000 053 128 000 053 128 000 053 128 000 053 128 000 053 128 000 053 128 000 053 128 000 053 128 000 053 128 000 053 128 000 053 128 000 053 128 000 053 128 000 053 128 000 053 128 000 053 128 000 053 128 000 053 128 000 053 128 000 053 128 000 053 128 000 053 128 000 053 128 000 053 128 000 053 128 000 053 128 000 053 128 000 053 128 000 053 128 000 053 128 000 053 128 000 053 128 000 053 128 000 053 128 000 053 128 000 053 128 000 053 128 000 053 128 000 053 128 000 053 128 000 053 128 000 053 128 000 053 128 000 053 128 000 053 128 000 053 128 000 053 128 000 053 128 000 053 128 000 053 128 000 053 128 000 053 128 000 053 128 000 053 128 000 053 128 000 053 128 000 053 128 000 053 128 000 053 128 000 053 128 000 053 128 000 053 128 000 053 128 000 053 128 000 053 128 000 053 128 000 053 128 000 053 128 000 053 128 000 053 128 000 053 128 000 053 128 000 053 128 000 053 128 000 053 128 000 053 128 000 053 128 000 053 128 000 053 128 000 053 128 000 053 128 000 053 128 000 053 128 000 053 128 000 053 128 000 053 128 000 053 128 000 053 128 000 053 128 000 053 128 000 053 128 000 053 128 000 053 128 000 053 128 000 053 128 000 053 128 000 053 128 000 053 128 000 053 128 000 053 128 000 053 128 000 053 128 000 053 128 000 053 128 000 053 128 000 053 128 000 053 128 000 053 128 000 053 128 000 053 128 000 053 128 000 053 128 000 053 128 000 053 128 000 053 128 000 053 128 000 053 128 000 053 128 000 053 128 000 053 128 000 053 128 000 053 128 000 053 128 000 053 128 000 053 128 000 053 128 000 053 128 000 053 128 000 053 128 000 053 128 000 053 128 000 053 128 000 053 128 000 053 128 000 053 128 000 053 128 000 053 128 000 053 128 000 053 128 000 053 128 000 053 128 000 053 128 000 053 128 000 053 128 000 053 128 000 053 128 000 053 128 000 053 128 000 053 128 000 053 128 000 053 128 000 053 128 000 053 128 000 053 128 000 053 128 000 053 128 000 053 128 000 053 128 000 053 128 000 053 128 000 053 128 000 053 128 000 053 128 000 053 128 000 053 128 000 053 128 000 053 128 000 053 128 000 053 128 000 053 128 000 053 128 000 053 128 000 053 128 000 053 128 000 053 128 000 053 128 000 053 128 000 053 128 000 053 128 000 053 128 000 053 128 000 053 128 000 053 128 000 053 128 000 053 128 000 053 128 000 053 128 000 053 128 000 053 128 000 053 128 000 053 128 000 053 128 000 053 128 000 053 128 000 053 128 000 053 128 000 053 128 000 053 128 000 053 128 000 053 128 000 053 128 000 053 128 000 053 128 000 053 128 000 053 128 000 053 128 000 053 128 000 053 128 000 053 128 000 053 128 000 053 128 000 053 128 000 053 128 000 053 128 000 053 128 000 053 128 000 053 128 000 053 128 000 053 128 000 053 128 000 053 128 000 053 128 000 053 128 000 053 128 000 053 128 000 053 128 000 053 128 000 053 128 000 053 128 000 053 128 000 053 128 000 053 128 000 053 128 000 053 128 000 053 128 000 053 128 000 053 128 000 053 128 000 053 128 000 053 128 000 053 128 000 053 128 000 053 128 000 053 128 000 053 128 000 053 128 000 053 128 000 053 128 000 053 128 000 053 128 000 053 128 000 053 128 000 053 128 000 053 128 000 053 128 000 053 128 000 053 128 000 053 128 000 053 128 000 053 128 000 053 128 000 053 128 000 053 128 000 053 128 000 053 128 000 053 128 000 053 128 000 053 128 000 053 128 000 053 128 000 053 128 000 053 128 000 053 128 000 053 128 000 053 128 000 053 128 000 053 128 000 053 128 000 053 128 000 053 128 000 053 128 000 053 128 000 053 128 000 053 128 000 053 128 000 053 128 000 053 128 000 053 128 000 053 128 000 053 128 000 053 128 000 053 128 000 053 128 000 053 128 000 053 128 000 053 128 000 053 128 000 053 128 000 053 128 000 053 128 000 053 128 000 053 128 000 053 128 000 053 128 000 053 128 000 053 128 000 053 128 000 053 128 000 053 128 000 053 128 000 053 128 000 053 128 000 053 128 000 053 128 000 053 128 000 053 128 000 053 128 000 053 128 000 053 128 000 053 128 000 053 128 000 053 128 000 053 128 000 053 128 000 053 128 000 053 128 000 053 128 000 053 128 000 053 128 000 053 128 000 053 128 000 053 128 000 053 128 000 053 128 000 053 128 000 053 128 000 053 128 000 053 128 000 053 128 000 053 128 000 053 128 000 053 128 000 053 128 000 053 128 000 053 128 000 053 128 000 053 128 000 053 128 000 053 128 000 053 128 000 053 128 000 053 128 000 053 128 000 053 128 000 053 128 000 053 128 000 053 128 000 053 128 000 053 128 000 053 128 000 053 128 000 053 128 000 053 128 000 053 128 000 053 128 000 053 128 000 053 128 000 053 128 000 053 128 000 053 128 000 053 128 000 053 128 000 053 128 000 053 128 000 053 128 000 053 128 000 053 128 000 053 128 000 053 128 000 053 128 000 053 128 000 053 128 000 053 128 000 053 128 000 053 128 000 053 128 000 053 128 000 053 128 000 053 128 000 053 128 000 053 128 000 053 128 000 053 128 000 053 128 000 053 128 000 053 128 000 053 128 000 053 128 000 053 128 000 053 128 000 053 128 000 053 128 000 053 128 000 053 128 000 053 128 000 053 128 000 053 128 000 053 128 000 053 128 000 053 128 000 053 128 000 053 128 000 053 128 000 053 128 000 053 128 000 053 128 000 053 128 000 053 128 000 053 128 000 053 128 000 053 128 000 053 128 000 053 128 000 053 128 000 053 128 000 053 128 000 053 128 000 053 128 000 053 128 000 053 128 000 053 128 000 053 128 000 053 128 000 053 128 000 053 128 000 053 128 000 053 128 000 053 128 000 053 128 000 053 128 000 053 128 000 053 128 000 053 128 000 053 128 000 053 128 000 053 128 000 053 128 000 053 128 000 053 128 000 053 128 000 053 128 000 053 128 000 053 128 000 053 128 000 053 128 000 053 128 000 053 128 000 053 128 000 053 128 000 053 128 000 053 128 000 053 128 000 053 128 000 053 128 000 053 128 000 053 128 000 053 128 000 053 128 000 053 128 000 053 128 000 053 128 000 053 128 000 053 128 000 053 128 000 053 128 000 053 128 000 053 128 000 053 128 000 053 128 000 053 128 000 053 128 000 053 128 000 053 128 000 053 128 000 053 128 000 053 128 000 053 128 000 053 128 000 053 128 000 053 128 000 053 128 000 053 128 000 053 128 000 053 128 000 053 128 000 053 128 000 053 128 000 053 128 000 053 128 000 053 128 000 053 128 000 053 128 000 053 128 000 053 128 000 053 128 000 053 128 000 053 128 000 053 128 000 053 128 000 053 128 000 053 128 000 053 128 000 053 128 000 053 128 000 053 128 000 053 128 000 053 128 000 053 128 000 053 128 000 053 128 000 053 128 000 053 128 000 053 128 000 053 128 000 053 128 000 053 128 000 053 128 000 053 128 000 053 128 000 053 128 000 053 128 000 053 128 000 053 128 000 053 128 000 053 128 000 053 128 000 053 128 000 053 128 000 053 128 000 053 128 000 053 128 000 053 128 000 053 128 000 053 128 000 053 128 000 053 128 000 053 128 000 053 128 000 053 128 000 053 128 000 053 128 000 053 128 000 053 128 000 053 128 000 053 128 000 053 128 000 053 128 000 053 128 000 053 128 000 053 128 000 053 128 000 053 128 000 053 128 000 053 128 000 053 128 000 053 128 000 053 128 000 053 128 000 053 128 000 053 128 000 053 128 000 053 128 000 053 128 000 053 128 000 053 128 000 053 128 000 053 128 000 053 128 000 053 128 000 053 128 000 053 128 000 053 128 000 053 128 000 053 128 000 053 128 000 053 128 000 053 128 000 053 128 000 053 128 000 053 128 000 053 128 000 053 128 000 053 128 000 053 128 000 053 128 000 053 128 000 053 128 000 053 128 000 053 128 000 053 128 000 053 128 000 053 128 000 053 128 000 053 128 000 053 128 000 053 128 000 053 128 000 053 128 000 053 128 000 053 128 000 053 128 000 053 128 000 053 128 000 053 128 000 053 128 000 053 128 000 053 128 000 053 128 000 053 128 000 053 128 000 053 128 000 053 128 000 053 128 000 053 128 000 053 128 000 053 128 000 053 128 000 053 128 000 053 128 000 053 128 000 053 128 000 053 128 000 053 128 000 053 128 000 053 128 000 053 128 000 053 128 000 053 128 000 053 128 000 053 128 000 053 128 000 053 128 000 053 128 000 053 128 000 053 128 000 053 128 000 053 128 000 053 128 000 053 128 000 053 128 000 053 128 000 053 128 000 053 128 000 053 128 000 053 128 000 053 128 000 053 128 000 053 128 000 053 128 000 053 128 000 053 128 000 053 128 000 053 128 000 053 128 000 053 128 000 053 128 000 053 128 000 053 128 000 053 128 000 053 128 000 053 128 000 053 128 000 053 128 000 053 128 000 053 128 000 053 128 000 053 128 000 053 128 000 053 128 000 053 128 000 053 128 000 053 128 000 053 128 000 053 128 000 053 128 000 053 128 000 053 128 000 053 128 000 053 128 000 053 128 000 053 128 000 053 128 000 053 128 000 053 128 000 053 128 000 053 128 000 053 128 000 053 128 000 053 128 000 053 128 000 053 128 000 053 128 000 053 128 000 053 128 000 053 128 000 053 128 000 053 128 000 053 128 000 053 128 000 053 128 000 053 128 000 053 128 000 053 128 000 053 128 000 053 128 000 053 128 000 053 128 000 053 128 000 053 128 000 053 128 000 053 128 000 053 128 000 053 128 000 053 128 000 053 128 000 053 128 000 053 128 000 053 128 000 053 128 000 053 128 000 053 128 000 053 128 000 053 128 000 053 128 000 053 128 000 053 128 000 053 128 000 053 128 000 053 128 000 053 128 000 053 128 000 053 128 000 053 128 000 053 128 000 053 128 000 053 128 000 053 128 000 053 128 000 053 128 000 053 128 000 053 128 000 053 128 000 053 128 000 053 128 000 053 128 000 053 128 000 053 128 000 053 128 000 053 128 000 053 128 000 053 128 000 053 128 000 053 128 000 053 128 000 053 128 000 053 128 000 053 128 000 053 128 000 053 128 000 053 128 000 053 128 000 053 128 000 053 128 000 053 128 000 053 128 000 053 128 000 053 128 000 053 128 000 053 128 000 053 128 000 053 128 000 053 128 000 053 128 000 053 128 000 053 128 000 053 128 000 053 128 000 053 128 000 053 128 000 053 128 000 053 128 000 053 128 000 053 128 000 053 128 000 053 128 000 053 128 000 053 128 000 053 128 000 053 128 000 053 128 000 053 128 000 053 128 000 053 128 000 053 128 000 053 128 000 053 128 000 053 128 000 053 128 000 053 128 000 053 128 000 053 128 000 053 128 000 053 128 000 053 128 000 053 128 000 053 128 000 053 128 000 053 128 000 053 128 000 053 128 000 053 128 000 053 128 000 053 128 000 053 128 000 053 128 000 053 128 000 053 128 000 053 128 000 053 128 000 053 128 000 053 128 000 053 128 000 053 128 000 053 128 000 053 128 000 053 128 000 053 128 000 053 128 000 053 128 000 053 128 000 053 128 000 053 128 000 053 128 000 053 128 000 053 128 000 053 128 000 053 128 000 053 128 000 053 128 000 053 128 000 053 128 000 053 128 000 053 128 000 053 128 000 053 128 000 053 128 000 053 128 000 053 128 000 053 128 000 053 128 000 053 128 000 053 128 000 053 128 000 053 128 000 053 128 000 053 128 000 053 128 000 053 128 000 053 128 000 053 128 000 053 128 000 053 128 000 053 128 000 053 128 000 053 128 000 053 128 000 053 128 000 053 128 000 053 128 000 053 128 000 053 128 000 053 128 000 053 128 000 053 128 000 053 128 000 053 128 000 053 128 000 053 128 000 053 128 000 053 128 000 053 128 000 053 128 000 053 128 000 053 128 000 053 128 000 053 128 000 053 128 000 053 128 000 053 128 000 053 128 000 053 128 000 053 128 000 053 128 000 053 128 000 053 128 000 053 128 000 053 128 000 053 128 000 053 128 000 053 128 000 053 128 000 053 128 000 053 128 000 053 128 000 053 128 000 053 128 000 053 128 000 053 128 000 053 128 000 053 128 000 053 128 000 053 128 000 053 128 000 053 128 000 053 128 000 053 128 000 053 128 000 053 128 000 053 128 000 053 128 000 053 128 000 053 128 000 053 128 000 053 128 000 053 128 000 053 128 000 053 128 000 053 128 000 053 128 000 053 128 000 053 128 000 053 128 000 053 128 000 053 128 000 053 128 000 053 128 000 053 128 000 053 128 000 053 128 000 053 128 000 053 128 000 053 128 000 053 128 000 053 128 000 053 128 000 053 128 000 053 128 000 053 128 000 053 128 000 053 128 000 053 128 000 053 128 000 053 128 000 053 128 000 053 128 000 053 128 000 053 128 000 053 128 000 053 128 000 053 128 000 053 128 000 053 128 000 053 128 000 053 128 000 053 128 000 053 128 000 053 128 000 053 128 000 053 128 000 053 128 000 053 128 000 053 128 000 053 128 000 053 128 000 053 128 000 053 128 000 053 128 000 053 128 000 053 128 000 053 128 000 053 128 000 053 128 000 053 128 000 053 128 000 053 128 000 053 128 000 053 128 000 053 128 000 053 128 000 053 128 000 053 128 000 053 128 000 053 128 000 053 128 000 053 128 000 053 128 000 053 128 000 053 128 000 053 128 000 053 128 000 053 128 000 053 128 000 053 128 000 053 128 000 053 128 000 053 128 000 053 128 000 053 128 000 053 128 000 053 128 000 053 128 000 053 128 000 053 128 000 053 128 000 053 128 000 053 128 000 053 128 000 053 128 000 053 128 000 053 128 000 053 128 000 053 128 000 053 128 000 053 128 000 053 128 000 053 128 000 053 128 000 053 128 000 053 128 000 053 128 000 053 128 000 053 128 000 053 128 000 053 128 000 053 128 000 053 128 000 053 128 000 053 128 000 053 128 000 053 128 000 053 128 000 053 128 000 053 128 000 053 128 000 053 128 000 053 128 000 053 128 000 053 128 000 053 128 000 053 128 000 053 128 000 053 128 000 053 128 000 053 128 000 053 128 000 053 128 000 053 128 000 053 128 000 053 128 000 053 128 000 053 128 000 053 128 000 053 128 000 053 128 000 053 128 000 053 128 000 053 128 000 053 128 000 053 128 000 053 128 000 053 128 000 053 128 000 053 128 000 053 128 000 053 128 000 053 128 000 053 128 000 053 128 000 053 128 000 053 128 000 053 128 000 053 128 000 053 128 000 053 128 000 053 128 000 053 128 000 053 128 000 053 128 000 053 128 000 053 128 000 053 128 000 053 128 000 053 128 000 053 128 000 053 128 000 053 128 000 053 128 000 053 128 000 053 128 000 053 128 000 053 128 000 053 128 000 053 128 000 053 128 000 053 128 000 053 128 000 053 128 000 053 128 000 053 128 000 053 128 000 053 128 000 053 128 000 053 128 000 053 128 000 053 128 000 053 128 000 053 128 000 053 128 000 053 128 000 053 128 000 053 128 000 053 128 000 053 128 000 053 128 000 053 128 000 053 128 000 053 128 000 053 128 000 053 128 000 053 128 000 053 128 000 053 128 000 053 128 000 053 128 000 053 128 000 053 128 000 053 128 000 053 128 000 053 128 000 053 128 000 053 128 000 053 128 000 053 128 000 053 128 000 053 128 000 053 128 000 053 128 000 053 128 000 053 128 000 053 128 000 053 128 000 053 128 000 053 128 000 053 128 000 053 128 000 053 128 000 053 128 000 053 128 000 053 128 000 053 128 000 053 128 000 053 128 000 053 128 000 053 128 000 053 128 000 053 128 000 053 128 000 053 128 000 053 128 000 053 128 000 053 128 000 053 128 000 053 128 000 053 128 000 053 128 000 053 128 000 053 128 000 053 128 000 053 128 000 053 128 000 053 128 000 053 128 000 053 128 000 053 128 000 053 128 000 053 128 000 053 128 000 053 128 000 053 128 000 053 128 000 053 128 000 053 128 000 053 128 000 053 128 000 053 128 000 053 128 000 053 128 000 053 128 000 053 128 000 053 128 000 053 128 000 053 128 000 053 128 000 053 128 000 053 128 000 053 128 000 053 128 000 053 128 000 053 128 000 053 128 000 053 128 000 053 128 000 053 128 000 053 128 000 053 128 000 053 128 000 053 128 000 053 128 000 053 128 000 053 128 000 053 128 000 053 128 000 053 128 000 053 128 000 053 128 000 053 128 000 053 128 000 053 128 000 053 128 000 053 128 000 053 128 000 053 128 000 053 128 000 053 128 000 053 128 000 053 128 000 053 128 000 053 128 000 053 128 000 053 128 000 053 128 000 053 128 000 053 128 000 053 128 000 053 128 000 053 128 000 053 128 000 053 128 000 053 128 000 053 128 000 053 128 000 053 128 000 053 128 000 053 128 000 053 128 000 053 128 000 053 128 000 053 128 000 053 128 000 053 128 000 053 128 000 053 128 000 053 128 000 053 128 000 053 128 000 053 128 000 053 128 000 053 128 000 053 128 000 053 128 000 053 128 000 053 128 000 053 128 000 053 128 000 053 128 000 053 128 000 053 128 000 053 128 000 053 128 000 053 128 000 053 128 000 053 128 000 053 128 000 053 128 000 053 128 000 053 128 000 053 128 000 053 128 000 053 128 000 053 128 000 053 128 000 053 128 000 053 128 000 053 128 000 053 128 000 053 128 000 053 128 000 053 128 000 053 128 000 053 128 000 053 128 000 053 128 000 053 128 000 053 128 000 053 128 000 053 128 000 053 128 000 053 128 000 053 128 000 053 128 000 053 128 000 053 128 000 053 128 000 053 128 000 053 128 000 053 128 000 053 128 000 053 128 000 053 128 000 053 128 000 053 128 000 053 128 000 053 128 000 053 128 000 053 128 000 053 128 000 053 128 000 053 128 000 053 128 000 053 128 000 053 128 000 053 128 000 053 128 000 053 128 000 053 128 000 053 128 000 053 128 000 053 128 000 053 128 000 053 128 000 053 128 000 053 128 000 053 128 000 053 128 000 053 128 000 053 128 000 053 128 000 053 128 000 053 128 000 053 128 000 053 128 000 053 128 000 053 128 000 053 128 000 053 128 000 053 128 000 053 128 000 053 128 000 053 128 000 053 128 000 053 128 000 053 128 000 053 128 000 053 128 000 053 128 000 053 128 000 053 128 000 053 128 000 053 128 000 053 128 000 053 128 000 053 128 000 053 128 000 053 128 000 053 128 000 053 128 000 053 128 000 053 128 000 053 128 000 053 128 000 053 128 000 053 128 000 053 128 000 053 128 000 053 128 000 053 128 000 053 128 000 053 128 000 053 128 000 053 128 000 053 128 000 053 128 000 053 128 000 053 128 000 053 128 000 053 128 000 053 128 000 053 128 000 053 128 000 053 128 000 053 128 000 053 128 000 053 128 000 053 128 000 053 128 000 053 128 000 053 128 000 053 128 000 053 128 000 053 128 000 053 128 000 053 128 000 053 128 000 053 128 000 053 128 000 053 128 000 053 128 000 053 128 000 053 128 000 053 128 000 053 128 000 053 128 000 053 128 000 053 128 000 053 128 000 053 128 000 053 128 000 053 128 000 053 128 000 053 128 000 053 128 000 053 128 000 053 128 000 053 128 000 053 128 000 053 128 000 053 128 000 053 128 000 053 128 000 053 128 000 053 128 000 053 128 000 053 128 000 053 128 000 053 128 000 053 128 000 053 128 000 053 128 000 053 128 000 053 128 000 053 128 000 053 128 000 053 128 000 053 128 000 053 128 000 053 128 000 053 128 000 053 128 000 053 128 000 053 128 000 053 128 000 053 128 000 053 128 000 053 128 000 053 128 000 053 128 000 053 128 000 053 128 000 053 128 000 053 128 000 053 128 000 053 128 000 053 128 000 053 128 000 053 128 000 053 128 000 053 128 000 053 128 000 053 128 000 053 128 000 053 128 000 053 128 000 053 128 000 053 128 000 053 128 000 053 128 000 053 128 000 053 128 000 053 128 000 053 128 000 053 128 000 053 128 000 053 128 000 053 128 000 053 128 000 053 128 000 053 128 000 053 128 000 053 128 000 053 128 000 053 128 000 053 128 000 053 128 000 053 128 000 053 128 000 053 128 000 053 128 000 053 128 000 053 128 000 053 128 000 053 128 000 053 128 000 053 128 000 053 128 000 053 128 000 053 128 000 053 128 000 053 128 000 053 128 000 053 128 000 053 128 000 053 128 000 053 128 000 053 128 000 053 128 000 053 128 000 053 128 000 053 128 000 053 128 000 053 128 000 053 128 000 053 128 000 053 128 000 053 128 000 053 128 000 053 128 000 053 128 000 053 128 000 053 128 000 053 128 000 053 128 000 053 128 000 053 128 000 053 128 000 053 128 000 053 128 000 053 128 000 053 128 000 053 128 000 053 128 000 053 128 000 053 128 000 053 128 000 053 128 000 053 128 000 053 128 000 053 128 000 053 128 000 053 128 000 053 128 000 053 128 000 053 128 000 053 128 000 053 128 000 053 128 000 053 128 000 053 128 000 053 128 000 053 128 000 053 128 000 053 128 000 053 128 000 053 128 000 053 128 000 053 128 000 053 128 000 053 128 000 053 128 000 053 128 000 053 128 000 053 128 000 053 128 000 053 128 000 053 128 000 053 128 000 053 128 000 053 128 000 053 128 000 053 128 000 053 128 000 053 128 000 053 128 000 053 128 000 053 128 000 053 128 000 053 128 000 053 128 000 053 128 000 053 128 000 053 128 000 053 128 000 053 128 000 053 128 000 053 128 000 053 128 000 053 128 000 053 128 000 053 128 000 053 128 000 053 128 000 053 128 000 053 128 000 053 128 000 053 128 000 053 128 000 053 128 000 053 128 000 053 128 000 053 128 000 053 128 000 053 128 000 053 128 000 053 128 000 053 128 000 053 128 000 053 128 000 053 128 000 053 128 000 053 128 000 053 128 000 053 128 000 053 128 000 053 128 000 053 128 000 053 128 000 053 128 000 053 128 000 053 128 000 053 128 000 053 128 000 053 128 000 053 128 000 053 128 000 053 128 000 053 128 000 053 128 000 053 128 000 053 128 000 053 128 000 053 128 000 053 128 000 053 128 000 053 128 000 053 128 000 053 128 000 053 128 000 053 128 000 053 128 000 053 128 000 053 128 000 053 128 000 053 128 000 053 128 000 053 128 000 053 128 000 053 128 000 053 128 000 053 128 000 053 128 000 053 128 000 053 128 000 053 128 000 053 128 000 053 128 000 053 128 000 053 128 000 053 128 000 053 128 000 053 128 000 053 128 000 053 128 000 053 128 000 053 128 000 053 128 000 053 128 000 053 128 000 053 128 000 053 128 000 053 128 000 053 128 000 053 128 000 053 128 000 053 128 000 053 128 000 053 128 000 053 128 000 053 128 000 053 128 000 053 128 000 053 128 000 053 128 000 053 128 000 053 128 000 053 128 000 053 128 000 053 128 000 053 128 000 053 128 000 053 128 000 053 128 000 053 128 000 053 128 000 053 128 000 053 128 000 053 128 000 053 128 000 053 128 000 053 128 000 053 128 000 053 128 000 053 128 000 053 128 000 053 128 000 053 128 000 053 128 000 053 128 000 053 128 000 053 128 000 053 128 000 053 128 000 053 128 000 053 128 000 053 128 000 053 128 000 053 128 000 053 128 000 053 128 000 053 128 000 053 128 000 053 128 000 053 128 000 053 128 000 053 128 000 053 128 000 053 128 000 053 128 000 053 128 000 053 128 000 053 128 000 053 128 000 053 128 000 053 128 000 053 128 000 053 128 000 053 128 000 053 128 000 053 128 000 053 128 000 053 128 000 053 128 000 053 128 000 053 128 000 053 128 000 053 128 000 053 128 000 053 128 000 053 128 000 053 128 000 053 128 000 053 128 000 053 128 000 053 128 000 053 128 000 053 128 000 053 128 000 053 128 000 053 128 000 053 128 000 053 128 000 053 128 000 053 128 000 053 128 000 053 128 000 053 128 000 053 128 000 053 128 000 053 128 000 053 128 000 053 128 000 053 128 000 053 128 000 053 128 000 053 128 000 053 128 000 053 128 000 053 128 000 053 128 000 053 128 000 053 128 000 053 128 000 053 128 000 053 128 000 053 128 000 053 128 000 053 128 000 053 128 000 053 128 000 053 128 000 053 128 000 053 128 000 053 128 000 053 128 000 053 128 000 053 128 000 053 128 000 053 128 000 053 128 000 053 128 000 053 128 000 053 128 000 053 128 000 053 128 000 053 128 000 053 128 000 053 128 000 053 128 000 053 128 000 053 128 000 053 128 000 053 128 000 053 128 000 053 128 000 053 128 000 053 128 000 053 128 000 053 128 000 053 128 000 053 128 000 053 128 000 053 128 000 053 128 000 053 128 000 053 128 000 053 128 000 053 128 000 053 128 000 053 128 000 053 128 000 053 128 000 053 128 000 053 128 000 053 128 000 053 128 000 053 128 000 053 128 000 053 128 000 053 128 000 053 128 000 053 128 000 053 128 000 053 128 000 053 128 000 053 128 000 053 128 000 053 128 000 053 128 000 053 128 000 053 128 000 053 128 000 053 128 000 053 128 000 053 128 000 053 128 000 053 128 000 053 128 000 053 128 000 053 128 000 053 128 000 053 128 000 053 128 000 053 128 000 053 128 000 053 128 000 053 128 000 053 128 000 053 128 000 053 128 000 053 128 000 053 128 000 053 128 000 053 128 000 053 128 000 053 128 000 053 128 000 053 128 000 053 128 000 053 128 000 053 128 000 053 128 000 053 128 000 053 128 000 053 128 000 053 128 000 053 128 000 053 128 000 053 128 000 053 128 000 053 128 000 053 128 000 053 128 000 053 128 000 053 128 000 053 128 000 053 128 000 053 128 000 053 128 000 053 128 000 053 128 000 053 128 000 053 128 000 053 128 000 053 128 000 053 128 000 053 128 000 053 128 000 053 128 000 053 128 000 053 128 000 053 128 000 053 128 000 053 128 000 053 128 000 053 128 000 053 128 000 053 128 000 053 128 000 053 128 000 053 128 000 053 128 000 053 128 000 053 128 000 053 128 000 053 128 000 053 128 000 053 128 000 053 128 000 053 128 000 053 128 000 053 128 000 053 128 000 053 128 000 053 128 000 053 128 000 053 128 000 053 128 000 053 128 000 053 128 000 053 128 000 053 128 000 053 128 000 053 128 000 053 128 000 053 128 000 053 128 000 053 128 000 053 128 000 053 128 000 053 128 000 053 128 000 053 128 000 053 128 000 053 128 000 053 128 000 053 128 000 053 128 000 053 128 000 053 128 000 053 128 000 053 128 000 053 128 000 053 128 000 053 128 000 053 128 000 053 128 000 053 128 000 053 128 000 053 128 000 053 128 000 053 128 000 053 128 000 053 128 000 053 128 000 053 128 000 053 128 000 053 128 000 053 128 000 053 128 000 053 128 000 053 128 000 053 128 000 053 128 000 053 128 000 053 128 000 053 128 000 053 128 000 053 128 000 053 128 000 053 128 000 053 128 000 053 128 000 053 128 000 053 128 000 053 128 000 053 128 000 053 128 000 053 128 000 053 128 000 053 128 000 053 128 000 053 128 000 053 128 000 053 128 000 053 128 000 053 128 000 053 128 000 053 128 000 053 128 000 053 128 000 053 128 000 053 128 000 053 128 000 053 128 000 053 128 000 053 128 000 053 128 000 053 128 000 053 128 000 053 128 000 053 128 000 053 128 000 053 128 000 053 128 000 053 128 000 053 128 000 053 128 000 053 128 000 053 128 000 053 128 000 053 128 000 053 128 000 053 128 000 053 128 000 053 128 000 053 128 000 053 128 000 053 128 000 053 128 000 053 128 000 053 128 000 053 128 000 053 128 000 053 128 000 053 128 000 053 128 000 053 128 000 053 128 000 053 128 000 053 128 000 053 128 000 053 128 000 053 128 000 053 128 000 053 128 000 053 128 000 053 128 000 053 128 000 053 128 000 053 128 000 053 128 000 053 128 000 053 128 000 053 128 000 053 128 000 053 128 000 053 128 000 053 128 000 053 128 000 053 128 000 053 128 000 053 128 000 053 128 000 053 128 000 053 128 000 053 128 000 053 128 000 053 128 000 053 128 000 053 128 000 053 128 000 053 128 000 053 128 000 053 128 000 053 128 000 053 128 000 053 128 000 053 128 000 053 128 000 053 128 000 053 128 000 053 128 000 053 128 000 053 128 000 053 128 000 053 128 000 053 128 000 053 128 000 053 128 000 053 128 000 053 128 000 053 128 000 053 128 000 053 128 000 053 128 000 053 128 000 053 128 000 053 128 000 053 128 000 053 128 000 053 128 000 053 128 000 053 128 000 053 128 000 053 128 000 053 128 000 053 128 000 053 128 000 053 128 000 053 128 000 053 128 000 053 128 000 053 128 000 053 128 000 053 128 000 053 128 000 053 128 000 053 128 000 053 128 000 053 128 000 053 128 000 053 128 000 053 128 000 053 128 000 053 128 000 053 128 000 053 128 000 053 128 000 053 128 000 053 128 000 053 128 000 053 128 000 053 128 000 053 128 000 053 128 000 053 128 000 053 128 000 053 128 000 053 128 000 053 128 000 053 128 000 053 128 000 053 128 000 053 128 000 053 128 000 053 128 000 053 128 000 053 128 000 053 128 000 053 128 000 053 128 000 053 128 000 053 128 000 053 128 000 053 128 000 053 128 000 053 128 000 053 128 000 053 128 000 053 128 000 053 128 000 053 128 000 053 128 000 053 128 000 053 128 000 053 128 000 053 128 000 053 128 000 053 128 000 053 128 000 053 128 000 053 128 000 053 128 000 053 128 000 053 128 000 053 128 000 053 128 000 053 128 000 053 128 000 053 128 000 053 128 000 053 128 000 053 128 000 053 128 000 053 128 000 053 128 000 053 128 000 053 128 000 053 128 000 053 128 000 053 128 000 053 128 000 053 128 000 053 128 000 053 128 000 053 128 000 053 128 000 053 128 000 053 128 000 053 128 000 053 128 000 053 128 000 053 128 000 053 128 000 053 128 000 053 128 000 053 128 000 053 128 000 053 128 000 053 128 000 053 128 000 053 128 000 053 128 000 053 128 000 053 128 000 053 128 000 053 128 000 053 128 000 053 128 000 053 128 000 053 128 000 053 128 000 053 128 000 053 128 000 053 128 000 053 128 000 053 128 000 053 128 000 053 128 000 053 128 000 053 128 000 053 128 000 053 128 000 053 128 000 053 128 000 053 128 000 053 128 000 053 128 000 053 128 000 053 128 000 053 128 000 053 128 000 053 128 000 053 128 000 053 128 000 053 128 000 053 128 000 053 128 000 053 128 000 053 128 000 053 128 000 053 128 000 053 128 000 053 128 000 053 128 000 053 128 000 053 128 000 053 128 000 053 128 000 053 128 000 053 128 000 053 128 000 053 128 000 053 128 000 053 128 000 053 128 000 053 128 000 053 128 000 053 128 000 053 128 000 053 128 000 053 128 000 053 128 000 053 128 000 053 128 000 053 128 000 053 128 000 053 128 000 053 128 000 053 128 000 053 128 000 053 128 000 053 128 000 053 128 000 053 128 000 053 128 000 053 128 000 053 128 000 053 128 000 053 128 000 053 128 000 053 128 000 053 128 000 053 128 000 053 128 000 053 128 000 053 128 000 053 128 000 053 128 000 053 128 000 053 128 000 053 128 000 053 128 000 053 128 000 053 128 000 053 128 000 053 128 000 053 128 000 053 128 000 053 128 000 053 128 000 053 128 000 053 128 000 053 128 000 053 128 000 053 128 000 053 128 000 053 128 000 053 128 000 053 128 000 053 128 000 053 128 000 053 128 000 053 128 000 053 128 000 053 128 000 053 128 000 053 128 000 053 128 000 053 128 000 053 128 000 053 128 000 053 128 000 053 128 000 053 128 000 053 128 000 053 128 000 053 128 000 053 128 000 053 128 000 053 128 000 053 128 000 053 128 000 053 128 000 053 128 000 053 128 000 053 128 000 053 128 000 053 128 000 053 128 000 053 128 000 053 128 000 053 128 000 053 128 000 053 128 000 053 128 000 053 128 000 053 128 000 053 128 000 053 128 000 053 128 000 053 128 000 053 128 000 053 128 000 053 128 000 053 128 000 053 128 000 053 128 000 053 128 000 053 128 000 053 128 000 053 128 000 053 128 000 053 128 000 053 128 000 053 128 000 053 128 000 053 128 000 053 128 000 053 128 000 053 128 000 053 128 000 053 128 000 053 128 000 053 128 000 053 128 000 053 128 000 053 128 000 053 128 000 053 128 000 053 128 000 053 128 000 053 128 000 053 128 000 053 128 000 053 128 000 053 128 000 053 128 000 053 128 000 053 128 000 053 128 000 053 128 000 053 128 000 053 128 000 053 128 000 053 128 000 053 128 000 053 128 000 053 128 000 053 128 000 053 128 000 053 128 000 053 128 000 053 128 000 053 128 000 053 128 000 053 128 000 053 128 000 053 128 000 053 128 000 053 128 000 053 128 000 053 128 000 053 128 000 053 128 000 053 128 000 053 128 000 053 128 000 053 128 000 053 128 000 053 128 000 053 128 000 053 128 000 053 128 000 053 128 000 053 128 000 053 128 000 053 128 000 053 128 000 053 128 000 053 128 000 053 128 000 053 128 000 053 128 000 053 128 000 053 128 000 053 128 000 053 128 000 053 128 000 053 128 000 053 128 000 053 128 000 053 128 000 053 128 000 053 128 000 053 128 000 053 128 000 053 128 000 053 128 000 053 128 000 053 128 000 053 128 000 053 128 000 053 128 000 053 128 000 053 128 000 053 128 000 053 128 000 053 128 000 053 128 000 053 128 000 053 128 000 053 128 000 053 128 000 053 128 000 053 128 000 053 128 000 053 128 000 053 128 000 053 128 000 053 128 000 053 128 000 053 128 000 053 128 000 053 128 000 053 128 000 053 128 000 053 128 000 053 128 000 053 128 000 053 128 000 053 128 000 053 128 000 053 128 000 053 128 000 053 128 000 053 128 000 053 128 000 053 128 000 053 128 000 053 128 000 053 128 000 053 128 000 053 128 000 053 128 000 053 128 000 053 128 000 053 128 000 053 128 000 053 128 000 053 128 000 053 128 000 053 128 000 053 128 000 053 128 000 053 128 000 053 128 000 053 128 000 053 128 000 053 128 000 053 128 000 053 128 000 053 128 000 053 128 000 053 128 000 053 128 000 053 128 000 053 128 000 053 128 000 053 128 000 053 128 000 053 128 000 053 128 000 053 128 000 053 128 000 053 128 000 053 128 000 053 128 000 053 128 000 053 128 000 053 128 000 053 128 000 053 128 000 053 128 000 053 128 000 053 128 000 053 128 000 053 128 000 053 128 000 053 128 000 053 128 000 053 128 000 053 128 000 053 128 000 053 128 000 053 128 000 053 128 000 053 128 000 053 128 000 053 128 000 053 128 000 053 128 000 053 128 000 053 128 000 053 128 000 053 128 000 053 128 000 053 128 000 053 128 000 053 128 000 053 128 000 053 128 000 053 128 000 053 128 000 053 128 000 053 128 000 053 128 000 053 128 000 053 128 000 053 128 000 053 128 000 053 128 000 053 128 000 053 128 000 053 128 000 053 128 000 053 128 000 053 128 000 053 128 000 053 128 000 053 128 000 053 128 000 053 128 000 053 128 000 053 128 000 053 128 000 053 128 000 053 128 000 053 128 000 053 128 000 053 128 000 053 128 000 053 128 000 053 128 000 053 128 000 053 128 000 053 128 000 053 128 000 053 128 000 053 128 000 053 128 000 053 128 000 053 128 000 053 128 000 053 128 000 053 128 000 053 128 000 053 128 000 053 128 000 053 128 000 053 128 000 053 128 000 053 128 000 053 128 000 053 128 000 053 128 000 053 128 000 053 128 000 053 128 000 053 128 000 053 128 000 053 128 000 053 128 000 053 128 000 053 128 000 053 128 000 053 128 000 053 128 000 053 128 000 053 128 000 053 128 000 053 128 000 053 128 000 053 128 000 053 128 000 053 128 000 053 128 000 053 128 000 053 128 000 053 128 000 053 128 000 053 128 000 053 128 000 053 128 000 053 128 000 053 128 000 053 128 000 053 128 000 053 128 000 053 128 000 053 128 000 053 128 000 053 128 000 053 128 000 053 128 000 053 128 000 053 128 000 053 128 000 053 128 000 053 128 000 053 128 000 053 128 000 053 128 000 053 128 000 053 128 000 053 128 000 053 128 000 053 128 000 053 128 000 053 128 000 053 128 000 053 128 000 053 128 000 053 128 000 053 128 000 053 128 000 053 128 000 053 128 000 053 128 000 053 128 000 053 128 000 053 128 000 053 128 000 053 128 000 053 128 000 053 128 000 053 128 000 053 128 000 053 128 000 053 128 000 053 128 000 053 128 000 053 128 000 053 128 000 053 128 000 053 128 000 053 128 000 053 128 000 053 128 000 053 128 000 053 128 000 053 128 000 053 128 000 053 128 000 053 128 000 053 128 000 053 128 000 053 128 000 053 128 000 053 128 000 053 128 000 053 128 000 053 128 000 053 128 000 053 128 000 053 128 000 053 128 000 053 128 000 053 128 000 053 128 000 053 128 000 053 128 000 053 128 000 053 128 000 053 128 000 053 128 000 053 128 000 053 128 000 053 128 000 053 128 000 053 128 000 053 128 000 053 128 000 053 128 000 053 128 000 053 128 000 053 128 000 053 128 000 053 128 000 053 128 000 053 128 000 053 128 000 053 128 000 053 128 000 053 128 000 053 128 000 053 128 000 053 128 000 053 128 000 053 128 000 053 128 000 053 128 000 053 128 000 053 128 000 053 128 000 053 128 000 053 128 000 053 128 000 053 128 000 053 128 000 053 128 000 053 128 000 053 128 000 053 128 000 053 128 000 053 128 000 053 128 000 053 128 000 053 128 000 053 128 000 053 128 000 053 128 000 053 128 000 053 128 000 053 128 000 053 128 000 053 128 000 053 128 000 053 128 000 053 128 000 053 128 000 053 128 000 053 128 000 053 128 000 053 128 000 053 128 000 053 128 000 053 128 000 053 128 000 053 128 000 053 128 000 053 128 000 053 128 000 053 128 000 053 128 000 053 128 000 053 128 000 053 128 000 053 128 000 053 128 000 053 128 000 053 128 000 053 128 000 053 128 000 053 128 000 053 128 000 053 128 000 053 128 000 053 128 000 053 128 000 053 128 000 053 128 000 053 128 000 053 128 000 053 128 000 053 128 000 053 128 000 053 128 000 053 128 000 053 128 000 053 128 000 053 128 000 053 128 000 053 128 000 053 128 000 053 128 000 053 128 000 053 128 000 053 128 000 053 128 000 053 128 000 053 128 000 053 128 000 053 128 000 053 128 000 053 128 000 053 128 000 053 128 000 053 128 000 053 128 000 053 128 000 053 128 000 053 128 000 053 128 000 053 128 000 053 128 000 053 128 000 053 128 000 053 128 000 053 128 000 053 128 000 053 128 000 053 128 000 053 128 000 053 128 000 053 128 000 053 128 000 053 128 000 053 128 000 053 128 000 053 128 000 053 128 000 053 128 000 053 128 000 053 128 000 053 128 000 053 128 000 053 128 000 053 128 000 053 128 000 053 128 000 053 128 000 053 128 000 053 128 000 053 128 000 053 128 000 053 128 000 053 128 000 053 128 000 053 128 000 053 128 000 053 128 000 053 128 000 053 128 000 053 128 000 053 128 000 053 128 000 053 128 000 053 128 000 053 128 000 053 128 000 053 128 000 053 128 000 053 128 000 053 128 000 053 128 000 053 128 000 053 128 000 053 128 000 053 128 000 053 128 000 053 128 000 053 128 000 053 128 000 053 128 000 053 128 000 053 128 000 053 128 000 053 128 000 053 128 000 053 128 000 053 128 000 053 128 000 053 128 000 053 128 000 053 128 000 053 128 000 053 128 000 053 128 000 053 128 000 053 128 000 053 128 000 053 128 000 053 128 000 053 128 000 053 128 000 053 128 000 053 128 000 053 128 000 053 128 000 053 128 000 053 128 000 053 128 000 053 128 000 053 128 000 053 128 000 053 128 000 053 128 000 053 128 000 053 128 000 053 128 000 053 128 000 053 128 000 053 128 000 053 128 000 053 128 000 053 128 000 053 128 000 053 128 000 053 128 000 053 128 000 053 128 000 053 128 000 053 128 000 053 128 000 053 128 000 053 128 000 053 128 000 053 128 000 053 128 000 053 128 000 053 128 000 053 128 000 053 128 000 053 128 000 053 128 000 053 128 000 053 128 000 053 128 000 053 128 000 053 128 000 053 128 000 053 128 000 053 128 000 053 128 000 053 128 000 053 128 000 053 128 000 053 128 000 053 128 000 053 128 000 053 128 000 053 128 000 053 128 000 053 128 000 053 128 000 053 128 000 053 128 000 053 128 000 053 128 000 053 128 000 053 128 000 053 128 000 053 128 000 053 128 000 053 128 000 053 128 000 053 128 000 053 128 000 053 128 000 053 128 000 053 128 000 053 128 000 053 128 000 053 128 000 053 128 000 053 128 000 053 128 000 053 128 000 053 128 000 053 128 000 053 128 000 053 128 000 053 128 000 053 128 000 053 128 000 053 128 000 053 128 000 053 128 000 053 128 000 053 128 000 053 128 000 053 128 000 053 128 000 053 128 000 053 128 000 053 128 000 053 128 000 053 128 000 053 128 000 053 128 000 053 128 000 053 128 000 053 128 000 053 128 000 053 128 000 053 128 000 053 128 000 053 128 000 053 128 000 053 128 000 053 128 000 053 128 000 053 128 000 053 128 000 053 128 000 053 128 000 053 128 000 053 128 000 053 128 000 053 128 000 053 128 000 053 128 000 053 128 000 053 128 000 053 128 000 053 128 000 053 128 000 053 128 000 053 128 000 053 128 000 053 128 000 053 128 000 053 128 000 053 128 000 053 128 000 053 128 000 053 128 000 053 128 000 053 128 000 053 128 000 053 128 000 053 128 000 053 128 000 053 128 000 053 128 000 053 128 000 053 128 000 053 128 000 053 128 000 053 128 000 053 128 000 053 128 000 053 128 000 053 128 000 053 128 000 053 128 000 053 128 000 053 128 000 053 128 000 053 128 000 053 128 000 053 128 000 053 128 000 053 128 000 053 128 000 053 128 000 053 128 000 053 128 000 053 128 000 053 128 000 053 128 000 053 128 000 053 128 000 053 128 000 053 128 000 053 128 000 053 128 000 053 128 000 053 128 000 053 128 000 053 128 000 053 128 000 053 128 000 053 128 000 053 128 000 053 128 000 053 128 000 053 128 000 053 128 255 255 255 255 255 255 255 255 255 255 255 255 255 255 255 255 255 255 255 255 255 255 255 255 255 255 255 255 255 255 255 255 255 255 255 255 255 255 255 255 255 255 255 255 255 255 255 255 255 255 255 255 255 255 255 255 255 255 255 255 255 255 255 255 255 255 255 255 255 255 255 255 255 255 255 255 255 255 255 255 255 255 255 255 255 255 255 255 255 255 255 255 255 255 255 255 255 255 255 255 255 255 255 255 255 255 255 255 255 255 255 255 255 255 255 255 255 255 255 255 255 255 255 255 255 255 255 255 255 255 255 255 255 255 255 255 255 255 255 255 255 255 255 255 255 255 255 255 255 255 000 053 128 000 053 128 000 053 128 000 053 128 000 053 128 000 053 128 000 053 128 000 053 128 000 053 128 000 053 128 000 053 128 000 053 128 000 053 128 000 053 128 000 053 128 000 053 128 000 053 128 000 053 128 000 053 128 000 053 128 000 053 128 000 053 128 000 053 128 000 053 128 000 053 128 000 053 128 000 053 128 000 053 128 000 053 128 000 053 128 255 255 255 255 255 255 255 255 255 255 255 255 255 255 255 255 255 255 255 255 255 255 255 255 255 255 255 255 255 255 255 255 255 255 255 255 255 255 255 255 255 255 255 255 255 255 255 255 255 255 255 255 255 255 255 255 255 255 255 255 255 255 255 255 255 255 255 255 255 255 255 255 255 255 255 255 255 255 255 255 255 255 255 255 255 255 255 255 255 255 255 255 255 255 255 255 255 255 255 255 255 255 255 255 255 255 255 255 255 255 255 255 255 255 255 255 255 255 255 255 255 255 255 255 255 255 255 255 255 255 255 255 255 255 255 255 255 255 255 255 255 255 255 255 255 255 255 255 255 255 255 255 255 255 255 255 255 255 255 255 255 255 255 255 255 255 255 255 255 255 255 255 255 255 255 255 255 255 255 255 255 255 255 255 255 255 255 255 255 255 255 255 255 255 255 255 255 255 255 255 255 255 255 255 255 255 255 255 255 255 255 255 255 255 255 255 255 255 255 255 255 255 255 255 255 255 255 255 255 255 255 255 255 255 255 255 255 255 255 255 255 255 255 255 255 255 255 255 255 255 255 255 255 255 255 255 255 255 255 255 255 255 255 255 255 255 255 255 255 255 255 255 255 255 255 255 255 255 255 255 255 255 255 255 255 255 255 255 255 255 255 255 255 255 255 255 255 255 255 255 255 255 255 255 255 255 255 255 255 255 255 255 255 255 255 255 255 255 255 255 255 255 255 255 255 255 255 255 255 255 255 255 255 255 255 255 255 255 255 255 255 255 255 255 255 255 255 255 255 255 255 255 255 255 255 255 255 255 255 255 255 255 255 255 255 255 255 255 255 255 255 255 255 255 255 255 255 255 255 255 255 255 255 255 255 255 255 255 255 255 255 255 255 255 255 255 255 255 255 255 255 255 255 255 255 255 255 255 255 255 255 255 255 255 255 255 255 255 255 255 255 255 255 255 255 255 255 255 255 255 255 255 255 255 255 255 255 255 255 255 255 255 255 255 255 255 255 255 255 255 000 053 128 000 053 128 000 053 128 000 053 128 000 053 128 000 053 128 000 053 128 000 053 128 000 053 128 000 053 128 000 053 128 000 053 128 000 053 128 000 053 128 000 053 128 000 053 128 000 053 128 000 053 128 000 053 128 000 053 128 000 053 128 000 053 128 000 053 128 000 053 128 000 053 128 000 053 128 000 053 128 000 053 128 000 053 128 000 053 128 255 255 255 255 255 255 255 255 255 255 255 255 255 255 255 255 255 255 255 255 255 255 255 255 255 255 255 255 255 255 255 255 255 255 255 255 255 255 255 255 255 255 255 255 255 255 255 255 255 255 255 255 255 255 255 255 255 255 255 255 255 255 255 255 255 255 255 255 255 255 255 255 255 255 255 255 255 255 255 255 255 255 255 255 255 255 255 255 255 255 255 255 255 255 255 255 255 255 255 255 255 255 255 255 255 255 255 255 255 255 255 255 255 255 255 255 255 255 255 255 255 255 255 255 255 255 255 255 255 255 255 255 255 255 255 255 255 255 255 255 255 255 255 255 255 255 255 255 255 255 255 255 255 255 255 255 255 255 255 255 255 255 255 255 255 255 255 255 255 255 255 255 255 255 255 255 255 255 255 255 255 255 255 255 255 255 255 255 255 255 255 255 255 255 255 255 255 255 255 255 255 255 255 255 255 255 255 255 255 255 255 255 255 255 255 255 255 255 255 255 255 255 255 255 255 255 255 255 255 255 255 255 255 255 255 255 255 255 255 255 255 255 255 255 255 255 255 255 255 255 255 255 255 255 255 255 255 255 255 255 255 255 255 255 255 255 255 255 255 255 255 255 255 255 255 255 255 255 255 255 255 255 255 255 255 255 255 255 255 255 255 255 255 255 255 255 255 255 255 255 255 255 255 255 255 255 255 255 255 255 255 255 255 255 255 255 255 255 255 255 255 255 255 255 255 255 255 255 255 255 255 255 255 255 255 255 255 255 255 255 255 255 255 255 255 255 255 255 255 255 255 255 255 255 255 255 255 255 255 255 255 255 255 255 255 255 255 255 255 255 255 255 255 255 255 255 255 255 255 255 255 255 255 255 255 255 255 255 255 255 255 255 255 255 255 255 255 255 255 255 255 255 255 255 255 255 255 255 255 255 255 255 255 255 255 255 255 255 255 255 255 255 255 255 255 255 255 255 255 255 255 255 255 255 255 255 255 255 255 255 255 255 255 255 255 255 255 255 255 255 000 053 128 000 053 128 000 053 128 000 053 128 000 053 128 000 053 128 000 053 128 000 053 128 000 053 128 000 053 128 000 053 128 000 053 128 000 053 128 000 053 128 000 053 128 000 053 128 000 053 128 000 053 128 000 053 128 000 053 128 000 053 128 000 053 128 000 053 128 000 053 128 000 053 128 000 053 128 000 053 128 000 053 128 000 053 128 000 053 128 255 255 255 255 255 255 255 255 255 255 255 255 255 255 255 255 255 255 255 255 255 255 255 255 255 255 255 255 255 255 255 255 255 255 255 255 255 255 255 255 255 255 255 255 255 255 255 255 255 255 255 255 255 255 255 255 255 255 255 255 255 255 255 255 255 255 255 255 255 255 255 255 255 255 255 255 255 255 255 255 255 255 255 255 255 255 255 255 255 255 255 255 255 255 255 255 255 255 255 255 255 255 255 255 255 255 255 255 255 255 255 255 255 255 255 255 255 255 255 255 255 255 255 255 255 255 255 255 255 255 255 255 255 255 255 255 255 255 255 255 255 255 255 255 255 255 255 255 255 255 255 255 255 255 255 255 255 255 255 255 255 255 255 255 255 255 255 255 255 255 255 255 255 255 255 255 255 255 255 255 255 255 255 255 255 255 255 255 255 255 255 255 255 255 255 255 255 255 255 255 255 255 255 255 255 255 255 255 255 255 255 255 255 255 255 255 255 255 255 255 255 255 255 255 255 255 255 255 255 255 255 255 255 255 255 255 255 255 255 255 255 255 255 255 255 255 255 255 255 255 255 255 255 255 255 255 255 255 255 255 255 255 255 255 255 255 255 255 255 255 255 255 255 255 255 255 255 255 255 255 255 255 255 255 255 255 255 255 255 255 255 255 255 255 255 255 255 255 255 255 255 255 255 255 255 255 255 255 255 255 255 255 255 255 255 255 255 255 255 255 255 255 255 255 255 255 255 255 255 255 255 255 255 255 255 255 255 255 255 255 255 255 255 255 255 255 255 255 255 255 255 255 255 255 255 255 255 255 255 255 255 255 255 255 255 255 255 255 255 255 255 255 255 255 255 255 255 255 255 255 255 255 255 255 255 255 255 255 255 255 255 255 255 255 255 255 255 255 255 255 255 255 255 255 255 255 255 255 255 255 255 255 255 255 255 255 255 255 255 255 255 255 255 255 255 255 255 255 255 255 255 255 255 255 255 255 255 255 255 255 255 255 255 255 255 255 255 255 255 255 000 053 128 000 053 128 000 053 128 000 053 128 000 053 128 000 053 128 000 053 128 000 053 128 000 053 128 000 053 128 000 053 128 000 053 128 000 053 128 000 053 128 000 053 128 000 053 128 000 053 128 000 053 128 000 053 128 000 053 128 000 053 128 000 053 128 000 053 128 000 053 128 000 053 128 000 053 128 000 053 128 000 053 128 000 053 128 000 053 128 255 255 255 255 255 255 255 255 255 255 255 255 255 255 255 255 255 255 255 255 255 255 255 255 255 255 255 255 255 255 255 255 255 255 255 255 255 255 255 255 255 255 255 255 255 255 255 255 255 255 255 255 255 255 255 255 255 255 255 255 255 255 255 255 255 255 255 255 255 255 255 255 255 255 255 255 255 255 255 255 255 255 255 255 255 255 255 255 255 255 255 255 255 255 255 255 255 255 255 255 255 255 255 255 255 255 255 255 255 255 255 255 255 255 255 255 255 255 255 255 255 255 255 255 255 255 255 255 255 255 255 255 255 255 255 255 255 255 255 255 255 255 255 255 255 255 255 255 255 255 255 255 255 255 255 255 255 255 255 255 255 255 255 255 255 255 255 255 255 255 255 255 255 255 255 255 255 255 255 255 255 255 255 255 255 255 255 255 255 255 255 255 255 255 255 255 255 255 255 255 255 255 255 255 255 255 255 255 255 255 255 255 255 255 255 255 255 255 255 255 255 255 255 255 255 255 255 255 255 255 255 255 255 255 255 255 255 255 255 255 255 255 255 255 255 255 255 255 255 255 255 255 255 255 255 255 255 255 255 255 255 255 255 255 255 255 255 255 255 255 255 255 255 255 255 255 255 255 255 255 255 255 255 255 255 255 255 255 255 255 255 255 255 255 255 255 255 255 255 255 255 255 255 255 255 255 255 255 255 255 255 255 255 255 255 255 255 255 255 255 255 255 255 255 255 255 255 255 255 255 255 255 255 255 255 255 255 255 255 255 255 255 255 255 255 255 255 255 255 255 255 255 255 255 255 255 255 255 255 255 255 255 255 255 255 255 255 255 255 255 255 255 255 255 255 255 255 255 255 255 255 255 255 255 255 255 255 255 255 255 255 255 255 255 255 255 255 255 255 255 255 255 255 255 255 255 255 255 255 255 255 255 255 255 255 255 255 255 255 255 255 255 255 255 255 255 255 255 255 255 255 255 255 255 255 255 255 255 255 255 255 255 255 255 255 255 255 255 255 255 000 053 128 000 053 128 000 053 128 000 053 128 000 053 128 000 053 128 000 053 128 000 053 128 000 053 128 000 053 128 000 053 128 000 053 128 000 053 128 000 053 128 000 053 128 000 053 128 000 053 128 000 053 128 000 053 128 000 053 128 000 053 128 000 053 128 000 053 128 000 053 128 000 053 128 000 053 128 000 053 128 000 053 128 000 053 128 000 053 128 255 255 255 255 255 255 255 255 255 255 255 255 255 255 255 255 255 255 255 255 255 255 255 255 255 255 255 255 255 255 255 255 255 255 255 255 255 255 255 255 255 255 255 255 255 255 255 255 255 255 255 255 255 255 255 255 255 255 255 255 255 255 255 255 255 255 255 255 255 255 255 255 255 255 255 255 255 255 255 255 255 255 255 255 255 255 255 255 255 255 255 255 255 255 255 255 255 255 255 255 255 255 255 255 255 255 255 255 255 255 255 255 255 255 255 255 255 255 255 255 255 255 255 255 255 255 255 255 255 255 255 255 255 255 255 255 255 255 255 255 255 255 255 255 255 255 255 255 255 255 255 255 255 255 255 255 255 255 255 255 255 255 255 255 255 255 255 255 255 255 255 255 255 255 255 255 255 255 255 255 255 255 255 255 255 255 255 255 255 255 255 255 255 255 255 255 255 255 255 255 255 255 255 255 255 255 255 255 255 255 255 255 255 255 255 255 255 255 255 255 255 255 255 255 255 255 255 255 255 255 255 255 255 255 255 255 255 255 255 255 255 255 255 255 255 255 255 255 255 255 255 255 255 255 255 255 255 255 255 255 255 255 255 255 255 255 255 255 255 255 255 255 255 255 255 255 255 255 255 255 255 255 255 255 255 255 255 255 255 255 255 255 255 255 255 255 255 255 255 255 255 255 255 255 255 255 255 255 255 255 255 255 255 255 255 255 255 255 255 255 255 255 255 255 255 255 255 255 255 255 255 255 255 255 255 255 255 255 255 255 255 255 255 255 255 255 255 255 255 255 255 255 255 255 255 255 255 255 255 255 255 255 255 255 255 255 255 255 255 255 255 255 255 255 255 255 255 255 255 255 255 255 255 255 255 255 255 255 255 255 255 255 255 255 255 255 255 255 255 255 255 255 255 255 255 255 255 255 255 255 255 255 255 255 255 255 255 255 255 255 255 255 255 255 255 255 255 255 255 255 255 255 255 255 255 255 255 255 255 255 255 255 255 255 255 255 255 255 255 255 000 053 128 000 053 128 000 053 128 000 053 128 000 053 128 000 053 128 000 053 128 000 053 128 000 053 128 000 053 128 000 053 128 000 053 128 000 053 128 000 053 128 000 053 128 000 053 128 000 053 128 000 053 128 000 053 128 000 053 128 000 053 128 000 053 128 000 053 128 000 053 128 000 053 128 000 053 128 000 053 128 000 053 128 000 053 128 000 053 128 255 255 255 255 255 255 255 255 255 255 255 255 255 255 255 255 255 255 255 255 255 255 255 255 255 255 255 255 255 255 255 255 255 255 255 255 255 255 255 255 255 255 255 255 255 255 255 255 255 255 255 255 255 255 255 255 255 255 255 255 255 255 255 255 255 255 255 255 255 255 255 255 255 255 255 255 255 255 255 255 255 255 255 255 255 255 255 255 255 255 255 255 255 255 255 255 255 255 255 255 255 255 255 255 255 255 255 255 255 255 255 255 255 255 255 255 255 255 255 255 255 255 255 255 255 255 255 255 255 255 255 255 255 255 255 255 255 255 255 255 255 255 255 255 255 255 255 255 255 255 255 255 255 255 255 255 255 255 255 255 255 255 255 255 255 255 255 255 255 255 255 255 255 255 255 255 255 255 255 255 255 255 255 255 255 255 255 255 255 255 255 255 255 255 255 255 255 255 255 255 255 255 255 255 255 255 255 255 255 255 255 255 255 255 255 255 255 255 255 255 255 255 255 255 255 255 255 255 255 255 255 255 255 255 255 255 255 255 255 255 255 255 255 255 255 255 255 255 255 255 255 255 255 255 255 255 255 255 255 255 255 255 255 255 255 255 255 255 255 255 255 255 255 255 255 255 255 255 255 255 255 255 255 255 255 255 255 255 255 255 255 255 255 255 255 255 255 255 255 255 255 255 255 255 255 255 255 255 255 255 255 255 255 255 255 255 255 255 255 255 255 255 255 255 255 255 255 255 255 255 255 255 255 255 255 255 255 255 255 255 255 255 255 255 255 255 255 255 255 255 255 255 255 255 255 255 255 255 255 255 255 255 255 255 255 255 255 255 255 255 255 255 255 255 255 255 255 255 255 255 255 255 255 255 255 255 255 255 255 255 255 255 255 255 255 255 255 255 255 255 255 255 255 255 255 255 255 255 255 255 255 255 255 255 255 255 255 255 255 255 255 255 255 255 255 255 255 255 255 255 255 255 255 255 255 255 255 255 255 255 255 255 255 255 255 255 255 255 255 255 000 053 128 000 053 128 000 053 128 000 053 128 000 053 128 000 053 128 000 053 128 000 053 128 000 053 128 000 053 128 000 053 128 000 053 128 000 053 128 000 053 128 000 053 128 000 053 128 000 053 128 000 053 128 000 053 128 000 053 128 000 053 128 000 053 128 000 053 128 000 053 128 000 053 128 000 053 128 000 053 128 000 053 128 000 053 128 000 053 128 255 255 255 255 255 255 255 255 255 255 255 255 255 255 255 255 255 255 255 255 255 255 255 255 255 255 255 255 255 255 255 255 255 255 255 255 255 255 255 255 255 255 255 255 255 255 255 255 255 255 255 255 255 255 255 255 255 255 255 255 255 255 255 255 255 255 255 255 255 255 255 255 255 255 255 255 255 255 255 255 255 255 255 255 255 255 255 255 255 255 255 255 255 255 255 255 255 255 255 255 255 255 255 255 255 255 255 255 255 255 255 255 255 255 255 255 255 255 255 255 255 255 255 255 255 255 255 255 255 255 255 255 255 255 255 255 255 255 255 255 255 255 255 255 255 255 255 255 255 255 255 255 255 255 255 255 255 255 255 255 255 255 255 255 255 255 255 255 255 255 255 255 255 255 255 255 255 255 255 255 255 255 255 255 255 255 255 255 255 255 255 255 255 255 255 255 255 255 255 255 255 255 255 255 255 255 255 255 255 255 255 255 255 255 255 255 255 255 255 255 255 255 255 255 255 255 255 255 255 255 255 255 255 255 255 255 255 255 255 255 255 255 255 255 255 255 255 255 255 255 255 255 255 255 255 255 255 255 255 255 255 255 255 255 255 255 255 255 255 255 255 255 255 255 255 255 255 255 255 255 255 255 255 255 255 255 255 255 255 255 255 255 255 255 255 255 255 255 255 255 255 255 255 255 255 255 255 255 255 255 255 255 255 255 255 255 255 255 255 255 255 255 255 255 255 255 255 255 255 255 255 255 255 255 255 255 255 255 255 255 255 255 255 255 255 255 255 255 255 255 255 255 255 255 255 255 255 255 255 255 255 255 255 255 255 255 255 255 255 255 255 255 255 255 255 255 255 255 255 255 255 255 255 255 255 255 255 255 255 255 255 255 255 255 255 255 255 255 255 255 255 255 255 255 255 255 255 255 255 255 255 255 255 255 255 255 255 255 255 255 255 255 255 255 255 255 255 255 255 255 255 255 255 255 255 255 255 255 255 255 255 255 255 255 255 255 255 255 255 255 000 053 128 000 053 128 000 053 128 000 053 128 000 053 128 000 053 128 000 053 128 000 053 128 000 053 128 000 053 128 000 053 128 000 053 128 000 053 128 000 053 128 000 053 128 000 053 128 000 053 128 000 053 128 000 053 128 000 053 128 000 053 128 000 053 128 000 053 128 000 053 128 000 053 128 000 053 128 000 053 128 000 053 128 000 053 128 000 053 128 255 255 255 255 255 255 255 255 255 255 255 255 255 255 255 255 255 255 255 255 255 255 255 255 255 255 255 255 255 255 255 255 255 255 255 255 255 255 255 255 255 255 255 255 255 255 255 255 255 255 255 255 255 255 255 255 255 255 255 255 255 255 255 255 255 255 255 255 255 255 255 255 255 255 255 255 255 255 255 255 255 255 255 255 255 255 255 255 255 255 255 255 255 255 255 255 255 255 255 255 255 255 255 255 255 255 255 255 255 255 255 255 255 255 255 255 255 255 255 255 255 255 255 255 255 255 255 255 255 255 255 255 255 255 255 255 255 255 255 255 255 255 255 255 255 255 255 255 255 255 255 255 255 255 255 255 255 255 255 255 255 255 255 255 255 255 255 255 255 255 255 255 255 255 255 255 255 255 255 255 255 255 255 255 255 255 255 255 255 255 255 255 255 255 255 255 255 255 255 255 255 255 255 255 255 255 255 255 255 255 255 255 255 255 255 255 255 255 255 255 255 255 255 255 255 255 255 255 255 255 255 255 255 255 255 255 255 255 255 255 255 255 255 255 255 255 255 255 255 255 255 255 255 255 255 255 255 255 255 255 255 255 255 255 255 255 255 255 255 255 255 255 255 255 255 255 255 255 255 255 255 255 255 255 255 255 255 255 255 255 255 255 255 255 255 255 255 255 255 255 255 255 255 255 255 255 255 255 255 255 255 255 255 255 255 255 255 255 255 255 255 255 255 255 255 255 255 255 255 255 255 255 255 255 255 255 255 255 255 255 255 255 255 255 255 255 255 255 255 255 255 255 255 255 255 255 255 255 255 255 255 255 255 255 255 255 255 255 255 255 255 255 255 255 255 255 255 255 255 255 255 255 255 255 255 255 255 255 255 255 255 255 255 255 255 255 255 255 255 255 255 255 255 255 255 255 255 255 255 255 255 255 255 255 255 255 255 255 255 255 255 255 255 255 255 255 255 255 255 255 255 255 255 255 255 255 255 255 255 255 255 255 255 255 255 255 255 255 255 255 000 053 128 000 053 128 000 053 128 000 053 128 000 053 128 000 053 128 000 053 128 000 053 128 000 053 128 000 053 128 000 053 128 000 053 128 000 053 128 000 053 128 000 053 128 000 053 128 000 053 128 000 053 128 000 053 128 000 053 128 000 053 128 000 053 128 000 053 128 000 053 128 000 053 128 000 053 128 000 053 128 000 053 128 000 053 128 000 053 128 255 255 255 255 255 255 255 255 255 255 255 255 255 255 255 255 255 255 255 255 255 255 255 255 255 255 255 255 255 255 255 255 255 255 255 255 255 255 255 255 255 255 255 255 255 255 255 255 255 255 255 255 255 255 255 255 255 255 255 255 255 255 255 255 255 255 255 255 255 255 255 255 255 255 255 255 255 255 255 255 255 255 255 255 255 255 255 255 255 255 255 255 255 255 255 255 255 255 255 255 255 255 255 255 255 255 255 255 255 255 255 255 255 255 255 255 255 255 255 255 255 255 255 255 255 255 255 255 255 255 255 255 255 255 255 255 255 255 255 255 255 255 255 255 255 255 255 255 255 255 255 255 255 255 255 255 255 255 255 255 255 255 255 255 255 255 255 255 255 255 255 255 255 255 255 255 255 255 255 255 255 255 255 255 255 255 255 255 255 255 255 255 255 255 255 255 255 255 255 255 255 255 255 255 255 255 255 255 255 255 255 255 255 255 255 255 255 255 255 255 255 255 255 255 255 255 255 255 255 255 255 255 255 255 255 255 255 255 255 255 255 255 255 255 255 255 255 255 255 255 255 255 255 255 255 255 255 255 255 255 255 255 255 255 255 255 255 255 255 255 255 255 255 255 255 255 255 255 255 255 255 255 255 255 255 255 255 255 255 255 255 255 255 255 255 255 255 255 255 255 255 255 255 255 255 255 255 255 255 255 255 255 255 255 255 255 255 255 255 255 255 255 255 255 255 255 255 255 255 255 255 255 255 255 255 255 255 255 255 255 255 255 255 255 255 255 255 255 255 255 255 255 255 255 255 255 255 255 255 255 255 255 255 255 255 255 255 255 255 255 255 255 255 255 255 255 255 255 255 255 255 255 255 255 255 255 255 255 255 255 255 255 255 255 255 255 255 255 255 255 255 255 255 255 255 255 255 255 255 255 255 255 255 255 255 255 255 255 255 255 255 255 255 255 255 255 255 255 255 255 255 255 255 255 255 255 255 255 255 255 255 255 255 255 255 255 255 255 255 255 000 053 128 000 053 128 000 053 128 000 053 128 000 053 128 000 053 128 000 053 128 000 053 128 000 053 128 000 053 128 000 053 128 000 053 128 000 053 128 000 053 128 000 053 128 000 053 128 000 053 128 000 053 128 000 053 128 000 053 128 000 053 128 000 053 128 000 053 128 000 053 128 000 053 128 000 053 128 000 053 128 000 053 128 000 053 128 000 053 128 255 255 255 255 255 255 255 255 255 255 255 255 255 255 255 255 255 255 255 255 255 255 255 255 255 255 255 255 255 255 255 255 255 255 255 255 255 255 255 255 255 255 255 255 255 255 255 255 255 255 255 255 255 255 255 255 255 255 255 255 255 255 255 255 255 255 255 255 255 255 255 255 255 255 255 255 255 255 255 255 255 255 255 255 255 255 255 255 255 255 255 255 255 255 255 255 255 255 255 255 255 255 255 255 255 255 255 255 255 255 255 255 255 255 255 255 255 255 255 255 255 255 255 255 255 255 255 255 255 255 255 255 255 255 255 255 255 255 255 255 255 255 255 255 255 255 255 255 255 255 255 255 255 255 255 255 255 255 255 255 255 255 255 255 255 255 255 255 255 255 255 255 255 255 255 255 255 255 255 255 255 255 255 255 255 255 255 255 255 255 255 255 255 255 255 255 255 255 255 255 255 255 255 255 255 255 255 255 255 255 255 255 255 255 255 255 255 255 255 255 255 255 255 255 255 255 255 255 255 255 255 255 255 255 255 255 255 255 255 255 255 255 255 255 255 255 255 255 255 255 255 255 255 255 255 255 255 255 255 255 255 255 255 255 255 255 255 255 255 255 255 255 255 255 255 255 255 255 255 255 255 255 255 255 255 255 255 255 255 255 255 255 255 255 255 255 255 255 255 255 255 255 255 255 255 255 255 255 255 255 255 255 255 255 255 255 255 255 255 255 255 255 255 255 255 255 255 255 255 255 255 255 255 255 255 255 255 255 255 255 255 255 255 255 255 255 255 255 255 255 255 255 255 255 255 255 255 255 255 255 255 255 255 255 255 255 255 255 255 255 255 255 255 255 255 255 255 255 255 255 255 255 255 255 255 255 255 255 255 255 255 255 255 255 255 255 255 255 255 255 255 255 255 255 255 255 255 255 255 255 255 255 255 255 255 255 255 255 255 255 255 255 255 255 255 255 255 255 255 255 255 255 255 255 255 255 255 255 255 255 255 255 255 255 255 255 255 255 255 255 000 053 128 000 053 128 000 053 128 000 053 128 000 053 128 000 053 128 000 053 128 000 053 128 000 053 128 000 053 128 000 053 128 000 053 128 000 053 128 000 053 128 000 053 128 000 053 128 000 053 128 000 053 128 000 053 128 000 053 128 000 053 128 000 053 128 000 053 128 000 053 128 000 053 128 000 053 128 000 053 128 000 053 128 000 053 128 000 053 128 255 255 255 255 255 255 255 255 255 255 255 255 255 255 255 255 255 255 255 255 255 255 255 255 255 255 255 255 255 255 255 255 255 255 255 255 255 255 255 255 255 255 255 255 255 255 255 255 255 255 255 255 255 255 255 255 255 255 255 255 255 255 255 255 255 255 255 255 255 255 255 255 255 255 255 255 255 255 255 255 255 255 255 255 255 255 255 255 255 255 255 255 255 255 255 255 255 255 255 255 255 255 255 255 255 255 255 255 255 255 255 255 255 255 255 255 255 255 255 255 255 255 255 255 255 255 255 255 255 255 255 255 255 255 255 255 255 255 255 255 255 255 255 255 255 255 255 255 255 255 255 255 255 255 255 255 255 255 255 255 255 255 255 255 255 255 255 255 255 255 255 255 255 255 255 255 255 255 255 255 255 255 255 255 255 255 255 255 255 255 255 255 255 255 255 255 255 255 255 255 255 255 255 255 255 255 255 255 255 255 255 255 255 255 255 255 255 255 255 255 255 255 255 255 255 255 255 255 255 255 255 255 255 255 255 255 255 255 255 255 255 255 255 255 255 255 255 255 255 255 255 255 255 255 255 255 255 255 255 255 255 255 255 255 255 255 255 255 255 255 255 255 255 255 255 255 255 255 255 255 255 255 255 255 255 255 255 255 255 255 255 255 255 255 255 255 255 255 255 255 255 255 255 255 255 255 255 255 255 255 255 255 255 255 255 255 255 255 255 255 255 255 255 255 255 255 255 255 255 255 255 255 255 255 255 255 255 255 255 255 255 255 255 255 255 255 255 255 255 255 255 255 255 255 255 255 255 255 255 255 255 255 255 255 255 255 255 255 255 255 255 255 255 255 255 255 255 255 255 255 255 255 255 255 255 255 255 255 255 255 255 255 255 255 255 255 255 255 255 255 255 255 255 255 255 255 255 255 255 255 255 255 255 255 255 255 255 255 255 255 255 255 255 255 255 255 255 255 255 255 255 255 255 255 255 255 255 255 255 255 255 255 255 255 255 255 255 255 255 255 000 053 128 000 053 128 000 053 128 000 053 128 000 053 128 000 053 128 000 053 128 000 053 128 000 053 128 000 053 128 000 053 128 000 053 128 000 053 128 000 053 128 000 053 128 000 053 128 000 053 128 000 053 128 000 053 128 000 053 128 000 053 128 000 053 128 000 053 128 000 053 128 000 053 128 000 053 128 000 053 128 000 053 128 000 053 128 000 053 128 255 255 255 255 255 255 255 255 255 255 255 255 255 255 255 255 255 255 255 255 255 255 255 255 255 255 255 255 255 255 255 255 255 255 255 255 255 255 255 255 255 255 255 255 255 255 255 255 255 255 255 255 255 255 255 255 255 255 255 255 255 255 255 255 255 255 255 255 255 255 255 255 255 255 255 255 255 255 255 255 255 255 255 255 255 255 255 255 255 255 255 255 255 255 255 255 255 255 255 255 255 255 255 255 255 255 255 255 255 255 255 255 255 255 255 255 255 255 255 255 255 255 255 255 255 255 255 255 255 255 255 255 255 255 255 255 255 255 255 255 255 255 255 255 255 255 255 255 255 255 255 255 255 255 255 255 255 255 255 255 255 255 255 255 255 255 255 255 255 255 255 255 255 255 255 255 255 255 255 255 255 255 255 255 255 255 255 255 255 255 255 255 255 255 255 255 255 255 255 255 255 255 255 255 255 255 255 255 255 255 255 255 255 255 255 255 255 255 255 255 255 255 255 255 255 255 255 255 255 255 255 255 255 255 255 255 255 255 255 255 255 255 255 255 255 255 255 255 255 255 255 255 255 255 255 255 255 255 255 255 255 255 255 255 255 255 255 255 255 255 255 255 255 255 255 255 255 255 255 255 255 255 255 255 255 255 255 255 255 255 255 255 255 255 255 255 255 255 255 255 255 255 255 255 255 255 255 255 255 255 255 255 255 255 255 255 255 255 255 255 255 255 255 255 255 255 255 255 255 255 255 255 255 255 255 255 255 255 255 255 255 255 255 255 255 255 255 255 255 255 255 255 255 255 255 255 255 255 255 255 255 255 255 255 255 255 255 255 255 255 255 255 255 255 255 255 255 255 255 255 255 255 255 255 255 255 255 255 255 255 255 255 255 255 255 255 255 255 255 255 255 255 255 255 255 255 255 255 255 255 255 255 255 255 255 255 255 255 255 255 255 255 255 255 255 255 255 255 255 255 255 255 255 255 255 255 255 255 255 255 255 255 255 255 255 255 255 255 255 255 000 053 128 000 053 128 000 053 128 000 053 128 000 053 128 000 053 128 000 053 128 000 053 128 000 053 128 000 053 128 000 053 128 000 053 128 000 053 128 000 053 128 000 053 128 000 053 128 000 053 128 000 053 128 000 053 128 000 053 128 000 053 128 000 053 128 000 053 128 000 053 128 000 053 128 000 053 128 000 053 128 000 053 128 000 053 128 000 053 128 255 255 255 255 255 255 255 255 255 255 255 255 255 255 255 255 255 255 255 255 255 255 255 255 255 255 255 255 255 255 255 255 255 255 255 255 255 255 255 255 255 255 255 255 255 255 255 255 255 255 255 255 255 255 255 255 255 255 255 255 255 255 255 255 255 255 255 255 255 255 255 255 255 255 255 255 255 255 255 255 255 255 255 255 255 255 255 255 255 255 255 255 255 255 255 255 255 255 255 255 255 255 255 255 255 255 255 255 255 255 255 255 255 255 255 255 255 255 255 255 255 255 255 255 255 255 255 255 255 255 255 255 255 255 255 255 255 255 255 255 255 255 255 255 255 255 255 255 255 255 255 255 255 255 255 255 255 255 255 255 255 255 255 255 255 255 255 255 255 255 255 255 255 255 255 255 255 255 255 255 255 255 255 255 255 255 255 255 255 255 255 255 255 255 255 255 255 255 255 255 255 255 255 255 255 255 255 255 255 255 255 255 255 255 255 255 255 255 255 255 255 255 255 255 255 255 255 255 255 255 255 255 255 255 255 255 255 255 255 255 255 255 255 255 255 255 255 255 255 255 255 255 255 255 255 255 255 255 255 255 255 255 255 255 255 255 255 255 255 255 255 255 255 255 255 255 255 255 255 255 255 255 255 255 255 255 255 255 255 255 255 255 255 255 255 255 255 255 255 255 255 255 255 255 255 255 255 255 255 255 255 255 255 255 255 255 255 255 255 255 255 255 255 255 255 255 255 255 255 255 255 255 255 255 255 255 255 255 255 255 255 255 255 255 255 255 255 255 255 255 255 255 255 255 255 255 255 255 255 255 255 255 255 255 255 255 255 255 255 255 255 255 255 255 255 255 255 255 255 255 255 255 255 255 255 255 255 255 255 255 255 255 255 255 255 255 255 255 255 255 255 255 255 255 255 255 255 255 255 255 255 255 255 255 255 255 255 255 255 255 255 255 255 255 255 255 255 255 255 255 255 255 255 255 255 255 255 255 255 255 255 255 255 255 255 255 255 255 255 255 000 053 128 000 053 128 000 053 128 000 053 128 000 053 128 000 053 128 000 053 128 000 053 128 000 053 128 000 053 128 000 053 128 000 053 128 000 053 128 000 053 128 000 053 128 000 053 128 000 053 128 000 053 128 000 053 128 000 053 128 000 053 128 000 053 128 000 053 128 000 053 128 000 053 128 000 053 128 000 053 128 000 053 128 000 053 128 000 053 128 255 255 255 255 255 255 255 255 255 255 255 255 255 255 255 255 255 255 255 255 255 255 255 255 255 255 255 255 255 255 255 255 255 255 255 255 255 255 255 255 255 255 255 255 255 255 255 255 255 255 255 255 255 255 255 255 255 255 255 255 255 255 255 255 255 255 255 255 255 255 255 255 255 255 255 255 255 255 255 255 255 255 255 255 255 255 255 255 255 255 255 255 255 255 255 255 255 255 255 255 255 255 255 255 255 255 255 255 255 255 255 255 255 255 255 255 255 255 255 255 255 255 255 255 255 255 255 255 255 255 255 255 255 255 255 255 255 255 255 255 255 255 255 255 255 255 255 255 255 255 255 255 255 255 255 255 255 255 255 255 255 255 255 255 255 255 255 255 255 255 255 255 255 255 255 255 255 255 255 255 255 255 255 255 255 255 255 255 255 255 255 255 255 255 255 255 255 255 255 255 255 255 255 255 255 255 255 255 255 255 255 255 255 255 255 255 255 255 255 255 255 255 255 255 255 255 255 255 255 255 255 255 255 255 255 255 255 255 255 255 255 255 255 255 255 255 255 255 255 255 255 255 255 255 255 255 255 255 255 255 255 255 255 255 255 255 255 255 255 255 255 255 255 255 255 255 255 255 255 255 255 255 255 255 255 255 255 255 255 255 255 255 255 255 255 255 255 255 255 255 255 255 255 255 255 255 255 255 255 255 255 255 255 255 255 255 255 255 255 255 255 255 255 255 255 255 255 255 255 255 255 255 255 255 255 255 255 255 255 255 255 255 255 255 255 255 255 255 255 255 255 255 255 255 255 255 255 255 255 255 255 255 255 255 255 255 255 255 255 255 255 255 255 255 255 255 255 255 255 255 255 255 255 255 255 255 255 255 255 255 255 255 255 255 255 255 255 255 255 255 255 255 255 255 255 255 255 255 255 255 255 255 255 255 255 255 255 255 255 255 255 255 255 255 255 255 255 255 255 255 255 255 255 255 255 255 255 255 255 255 255 255 255 255 255 255 255 255 255 255 000 053 128 000 053 128 000 053 128 000 053 128 000 053 128 000 053 128 000 053 128 000 053 128 000 053 128 000 053 128 000 053 128 000 053 128 000 053 128 000 053 128 000 053 128 000 053 128 000 053 128 000 053 128 000 053 128 000 053 128 000 053 128 000 053 128 000 053 128 000 053 128 000 053 128 000 053 128 000 053 128 000 053 128 000 053 128 000 053 128 255 255 255 255 255 255 255 255 255 255 255 255 255 255 255 255 255 255 255 255 255 255 255 255 255 255 255 255 255 255 255 255 255 255 255 255 255 255 255 255 255 255 255 255 255 255 255 255 255 255 255 255 255 255 255 255 255 255 255 255 255 255 255 255 255 255 255 255 255 255 255 255 255 255 255 255 255 255 255 255 255 255 255 255 255 255 255 255 255 255 255 255 255 255 255 255 255 255 255 255 255 255 255 255 255 255 255 255 255 255 255 255 255 255 255 255 255 255 255 255 255 255 255 255 255 255 255 255 255 255 255 255 255 255 255 255 255 255 255 255 255 255 255 255 255 255 255 255 255 255 255 255 255 255 255 255 255 255 255 255 255 255 255 255 255 255 255 255 255 255 255 255 255 255 255 255 255 255 255 255 255 255 255 255 255 255 255 255 255 255 255 255 255 255 255 255 255 255 255 255 255 255 255 255 255 255 255 255 255 255 255 255 255 255 255 255 255 255 255 255 255 255 255 255 255 255 255 255 255 255 255 255 255 255 255 255 255 255 255 255 255 255 255 255 255 255 255 255 255 255 255 255 255 255 255 255 255 255 255 255 255 255 255 255 255 255 255 255 255 255 255 255 255 255 255 255 255 255 255 255 255 255 255 255 255 255 255 255 255 255 255 255 255 255 255 255 255 255 255 255 255 255 255 255 255 255 255 255 255 255 255 255 255 255 255 255 255 255 255 255 255 255 255 255 255 255 255 255 255 255 255 255 255 255 255 255 255 255 255 255 255 255 255 255 255 255 255 255 255 255 255 255 255 255 255 255 255 255 255 255 255 255 255 255 255 255 255 255 255 255 255 255 255 255 255 255 255 255 255 255 255 255 255 255 255 255 255 255 255 255 255 255 255 255 255 255 255 255 255 255 255 255 255 255 255 255 255 255 255 255 255 255 255 255 255 255 255 255 255 255 255 255 255 255 255 255 255 255 255 255 255 255 255 255 255 255 255 255 255 255 255 255 255 255 255 255 255 255 255 255 000 053 128 000 053 128 000 053 128 000 053 128 000 053 128 000 053 128 000 053 128 000 053 128 000 053 128 000 053 128 000 053 128 000 053 128 000 053 128 000 053 128 000 053 128 000 053 128 000 053 128 000 053 128 000 053 128 000 053 128 000 053 128 000 053 128 000 053 128 000 053 128 000 053 128 000 053 128 000 053 128 000 053 128 000 053 128 000 053 128 255 255 255 255 255 255 255 255 255 255 255 255 255 255 255 255 255 255 255 255 255 255 255 255 255 255 255 255 255 255 255 255 255 255 255 255 255 255 255 255 255 255 255 255 255 255 255 255 255 255 255 255 255 255 255 255 255 255 255 255 255 255 255 255 255 255 255 255 255 255 255 255 255 255 255 255 255 255 255 255 255 255 255 255 255 255 255 255 255 255 255 255 255 255 255 255 255 255 255 255 255 255 255 255 255 255 255 255 255 255 255 255 255 255 255 255 255 255 255 255 255 255 255 255 255 255 255 255 255 255 255 255 255 255 255 255 255 255 255 255 255 255 255 255 255 255 255 255 255 255 255 255 255 255 255 255 255 255 255 255 255 255 255 255 255 255 255 255 255 255 255 255 255 255 255 255 255 255 255 255 255 255 255 255 255 255 255 255 255 255 255 255 255 255 255 255 255 255 255 255 255 255 255 255 255 255 255 255 255 255 255 255 255 255 255 255 255 255 255 255 255 255 255 255 255 255 255 255 255 255 255 255 255 255 255 255 255 255 255 255 255 255 255 255 255 255 255 255 255 255 255 255 255 255 255 255 255 255 255 255 255 255 255 255 255 255 255 255 255 255 255 255 255 255 255 255 255 255 255 255 255 255 255 255 255 255 255 255 255 255 255 255 255 255 255 255 255 255 255 255 255 255 255 255 255 255 255 255 255 255 255 255 255 255 255 255 255 255 255 255 255 255 255 255 255 255 255 255 255 255 255 255 255 255 255 255 255 255 255 255 255 255 255 255 255 255 255 255 255 255 255 255 255 255 255 255 255 255 255 255 255 255 255 255 255 255 255 255 255 255 255 255 255 255 255 255 255 255 255 255 255 255 255 255 255 255 255 255 255 255 255 255 255 255 255 255 255 255 255 255 255 255 255 255 255 255 255 255 255 255 255 255 255 255 255 255 255 255 255 255 255 255 255 255 255 255 255 255 255 255 255 255 255 255 255 255 255 255 255 255 255 255 255 255 255 255 255 255 255 255 000 053 128 000 053 128 000 053 128 000 053 128 000 053 128 000 053 128 000 053 128 000 053 128 000 053 128 000 053 128 000 053 128 000 053 128 000 053 128 000 053 128 000 053 128 000 053 128 000 053 128 000 053 128 000 053 128 000 053 128 000 053 128 000 053 128 000 053 128 000 053 128 000 053 128 000 053 128 000 053 128 000 053 128 000 053 128 000 053 128 255 255 255 255 255 255 255 255 255 255 255 255 255 255 255 255 255 255 255 255 255 255 255 255 255 255 255 255 255 255 255 255 255 255 255 255 255 255 255 255 255 255 255 255 255 255 255 255 255 255 255 255 255 255 255 255 255 255 255 255 255 255 255 255 255 255 255 255 255 255 255 255 255 255 255 255 255 255 255 255 255 255 255 255 255 255 255 255 255 255 255 255 255 255 255 255 255 255 255 255 255 255 255 255 255 255 255 255 255 255 255 255 255 255 255 255 255 255 255 255 255 255 255 255 255 255 255 255 255 255 255 255 255 255 255 255 255 255 255 255 255 255 255 255 255 255 255 255 255 255 255 255 255 255 255 255 255 255 255 255 255 255 255 255 255 255 255 255 255 255 255 255 255 255 255 255 255 255 255 255 255 255 255 255 255 255 255 255 255 255 255 255 255 255 255 255 255 255 255 255 255 255 255 255 255 255 255 255 255 255 255 255 255 255 255 255 255 255 255 255 255 255 255 255 255 255 255 255 255 255 255 255 255 255 255 255 255 255 255 255 255 255 255 255 255 255 255 255 255 255 255 255 255 255 255 255 255 255 255 255 255 255 255 255 255 255 255 255 255 255 255 255 255 255 255 255 255 255 255 255 255 255 255 255 255 255 255 255 255 255 255 255 255 255 255 255 255 255 255 255 255 255 255 255 255 255 255 255 255 255 255 255 255 255 255 255 255 255 255 255 255 255 255 255 255 255 255 255 255 255 255 255 255 255 255 255 255 255 255 255 255 255 255 255 255 255 255 255 255 255 255 255 255 255 255 255 255 255 255 255 255 255 255 255 255 255 255 255 255 255 255 255 255 255 255 255 255 255 255 255 255 255 255 255 255 255 255 255 255 255 255 255 255 255 255 255 255 255 255 255 255 255 255 255 255 255 255 255 255 255 255 255 255 255 255 255 255 255 255 255 255 255 255 255 255 255 255 255 255 255 255 255 255 255 255 255 255 255 255 255 255 255 255 255 255 255 255 255 255 255 000 053 128 000 053 128 000 053 128 000 053 128 000 053 128 000 053 128 000 053 128 000 053 128 000 053 128 000 053 128 000 053 128 000 053 128 000 053 128 000 053 128 000 053 128 000 053 128 000 053 128 000 053 128 000 053 128 000 053 128 000 053 128 000 053 128 000 053 128 000 053 128 000 053 128 000 053 128 000 053 128 000 053 128 000 053 128 000 053 128 255 255 255 255 255 255 255 255 255 255 255 255 255 255 255 255 255 255 255 255 255 255 255 255 255 255 255 255 255 255 255 255 255 255 255 255 255 255 255 255 255 255 255 255 255 255 255 255 255 255 255 255 255 255 255 255 255 255 255 255 255 255 255 255 255 255 255 255 255 255 255 255 255 255 255 255 255 255 255 255 255 255 255 255 255 255 255 255 255 255 255 255 255 255 255 255 255 255 255 255 255 255 255 255 255 255 255 255 255 255 255 255 255 255 255 255 255 255 255 255 255 255 255 255 255 255 255 255 255 255 255 255 255 255 255 255 255 255 255 255 255 255 255 255 255 255 255 255 255 255 255 255 255 255 255 255 255 255 255 255 255 255 255 255 255 255 255 255 255 255 255 255 255 255 255 255 255 255 255 255 255 255 255 255 255 255 255 255 255 255 255 255 255 255 255 255 255 255 255 255 255 255 255 255 255 255 255 255 255 255 255 255 255 255 255 255 255 255 255 255 255 255 255 255 255 255 255 255 255 255 255 255 255 255 255 255 255 255 255 255 255 255 255 255 255 255 255 255 255 255 255 255 255 255 255 255 255 255 255 255 255 255 255 255 255 255 255 255 255 255 255 255 255 255 255 255 255 255 255 255 255 255 255 255 255 255 255 255 255 255 255 255 255 255 255 255 255 255 255 255 255 255 255 255 255 255 255 255 255 255 255 255 255 255 255 255 255 255 255 255 255 255 255 255 255 255 255 255 255 255 255 255 255 255 255 255 255 255 255 255 255 255 255 255 255 255 255 255 255 255 255 255 255 255 255 255 255 255 255 255 255 255 255 255 255 255 255 255 255 255 255 255 255 255 255 255 255 255 255 255 255 255 255 255 255 255 255 255 255 255 255 255 255 255 255 255 255 255 255 255 255 255 255 255 255 255 255 255 255 255 255 255 255 255 255 255 255 255 255 255 255 255 255 255 255 255 255 255 255 255 255 255 255 255 255 255 255 255 255 255 255 255 255 255 255 255 255 255 255 255 000 053 128 000 053 128 000 053 128 000 053 128 000 053 128 000 053 128 000 053 128 000 053 128 000 053 128 000 053 128 000 053 128 000 053 128 000 053 128 000 053 128 000 053 128 000 053 128 000 053 128 000 053 128 000 053 128 000 053 128 000 053 128 000 053 128 000 053 128 000 053 128 000 053 128 000 053 128 000 053 128 000 053 128 000 053 128 000 053 128 255 255 255 255 255 255 255 255 255 255 255 255 255 255 255 255 255 255 255 255 255 255 255 255 255 255 255 255 255 255 255 255 255 255 255 255 255 255 255 255 255 255 255 255 255 255 255 255 255 255 255 255 255 255 255 255 255 255 255 255 255 255 255 255 255 255 255 255 255 255 255 255 255 255 255 255 255 255 255 255 255 255 255 255 255 255 255 255 255 255 255 255 255 255 255 255 255 255 255 255 255 255 255 255 255 255 255 255 255 255 255 255 255 255 255 255 255 255 255 255 255 255 255 255 255 255 255 255 255 255 255 255 255 255 255 255 255 255 255 255 255 255 255 255 255 255 255 255 255 255 255 255 255 255 255 255 255 255 255 255 255 255 255 255 255 255 255 255 255 255 255 255 255 255 255 255 255 255 255 255 255 255 255 255 255 255 255 255 255 255 255 255 255 255 255 255 255 255 255 255 255 255 255 255 255 255 255 255 255 255 255 255 255 255 255 255 255 255 255 255 255 255 255 255 255 255 255 255 255 255 255 255 255 255 255 255 255 255 255 255 255 255 255 255 255 255 255 255 255 255 255 255 255 255 255 255 255 255 255 255 255 255 255 255 255 255 255 255 255 255 255 255 255 255 255 255 255 255 255 255 255 255 255 255 255 255 255 255 255 255 255 255 255 255 255 255 255 255 255 255 255 255 255 255 255 255 255 255 255 255 255 255 255 255 255 255 255 255 255 255 255 255 255 255 255 255 255 255 255 255 255 255 255 255 255 255 255 255 255 255 255 255 255 255 255 255 255 255 255 255 255 255 255 255 255 255 255 255 255 255 255 255 255 255 255 255 255 255 255 255 255 255 255 255 255 255 255 255 255 255 255 255 255 255 255 255 255 255 255 255 255 255 255 255 255 255 255 255 255 255 255 255 255 255 255 255 255 255 255 255 255 255 255 255 255 255 255 255 255 255 255 255 255 255 255 255 255 255 255 255 255 255 255 255 255 255 255 255 255 255 255 255 255 255 255 255 255 255 255 255 000 053 128 000 053 128 000 053 128 000 053 128 000 053 128 000 053 128 000 053 128 000 053 128 000 053 128 000 053 128 000 053 128 000 053 128 000 053 128 000 053 128 000 053 128 000 053 128 000 053 128 000 053 128 000 053 128 000 053 128 000 053 128 000 053 128 000 053 128 000 053 128 000 053 128 000 053 128 000 053 128 000 053 128 000 053 128 000 053 128 255 255 255 255 255 255 255 255 255 255 255 255 255 255 255 255 255 255 255 255 255 255 255 255 255 255 255 255 255 255 255 255 255 255 255 255 255 255 255 255 255 255 255 255 255 255 255 255 255 255 255 255 255 255 255 255 255 255 255 255 255 255 255 255 255 255 255 255 255 255 255 255 255 255 255 255 255 255 255 255 255 255 255 255 255 255 255 255 255 255 255 255 255 255 255 255 255 255 255 255 255 255 255 255 255 255 255 255 255 255 255 255 255 255 255 255 255 255 255 255 255 255 255 255 255 255 255 255 255 255 255 255 255 255 255 255 255 255 255 255 255 255 255 255 255 255 255 255 255 255 255 255 255 255 255 255 255 255 255 255 255 255 255 255 255 255 255 255 255 255 255 255 255 255 255 255 255 255 255 255 255 255 255 255 255 255 255 255 255 255 255 255 255 255 255 255 255 255 255 255 255 255 255 255 255 255 255 255 255 255 255 255 255 255 255 255 255 255 255 255 255 255 255 255 255 255 255 255 255 255 255 255 255 255 255 255 255 255 255 255 255 255 255 255 255 255 255 255 255 255 255 255 255 255 255 255 255 255 255 255 255 255 255 255 255 255 255 255 255 255 255 255 255 255 255 255 255 255 255 255 255 255 255 255 255 255 255 255 255 255 255 255 255 255 255 255 255 255 255 255 255 255 255 255 255 255 255 255 255 255 255 255 255 255 255 255 255 255 255 255 255 255 255 255 255 255 255 255 255 255 255 255 255 255 255 255 255 255 255 255 255 255 255 255 255 255 255 255 255 255 255 255 255 255 255 255 255 255 255 255 255 255 255 255 255 255 255 255 255 255 255 255 255 255 255 255 255 255 255 255 255 255 255 255 255 255 255 255 255 255 255 255 255 255 255 255 255 255 255 255 255 255 255 255 255 255 255 255 255 255 255 255 255 255 255 255 255 255 255 255 255 255 255 255 255 255 255 255 255 255 255 255 255 255 255 255 255 255 255 255 255 255 255 255 255 255 255 255 255 255 000 053 128 000 053 128 000 053 128 000 053 128 000 053 128 000 053 128 000 053 128 000 053 128 000 053 128 000 053 128 000 053 128 000 053 128 000 053 128 000 053 128 000 053 128 000 053 128 000 053 128 000 053 128 000 053 128 000 053 128 000 053 128 000 053 128 000 053 128 000 053 128 000 053 128 000 053 128 000 053 128 000 053 128 000 053 128 000 053 128 255 255 255 255 255 255 255 255 255 255 255 255 255 255 255 255 255 255 255 255 255 255 255 255 255 255 255 255 255 255 255 255 255 255 255 255 255 255 255 255 255 255 255 255 255 255 255 255 255 255 255 255 255 255 255 255 255 255 255 255 255 255 255 255 255 255 255 255 255 255 255 255 255 255 255 255 255 255 255 255 255 255 255 255 255 255 255 255 255 255 255 255 255 255 255 255 255 255 255 255 255 255 255 255 255 255 255 255 255 255 255 255 255 255 255 255 255 255 255 255 255 255 255 255 255 255 255 255 255 255 255 255 255 255 255 255 255 255 255 255 255 255 255 255 255 255 255 255 255 255 255 255 255 255 255 255 255 255 255 255 255 255 255 255 255 255 255 255 255 255 255 255 255 255 255 255 255 255 255 255 255 255 255 255 255 255 255 255 255 255 255 255 255 255 255 255 255 255 255 255 255 255 255 255 255 255 255 255 255 255 255 255 255 255 255 255 255 255 255 255 255 255 255 255 255 255 255 255 255 255 255 255 255 255 255 255 255 255 255 255 255 255 255 255 255 255 255 255 255 255 255 255 255 255 255 255 255 255 255 255 255 255 255 255 255 255 255 255 255 255 255 255 255 255 255 255 255 255 255 255 255 255 255 255 255 255 255 255 255 255 255 255 255 255 255 255 255 255 255 255 255 255 255 255 255 255 255 255 255 255 255 255 255 255 255 255 255 255 255 255 255 255 255 255 255 255 255 255 255 255 255 255 255 255 255 255 255 255 255 255 255 255 255 255 255 255 255 255 255 255 255 255 255 255 255 255 255 255 255 255 255 255 255 255 255 255 255 255 255 255 255 255 255 255 255 255 255 255 255 255 255 255 255 255 255 255 255 255 255 255 255 255 255 255 255 255 255 255 255 255 255 255 255 255 255 255 255 255 255 255 255 255 255 255 255 255 255 255 255 255 255 255 255 255 255 255 255 255 255 255 255 255 255 255 255 255 255 255 255 255 255 255 255 255 255 255 255 255 255 255 000 053 128 000 053 128 000 053 128 000 053 128 000 053 128 000 053 128 000 053 128 000 053 128 000 053 128 000 053 128 000 053 128 000 053 128 000 053 128 000 053 128 000 053 128 000 053 128 000 053 128 000 053 128 000 053 128 000 053 128 000 053 128 000 053 128 000 053 128 000 053 128 000 053 128 000 053 128 000 053 128 000 053 128 000 053 128 000 053 128 255 255 255 255 255 255 255 255 255 255 255 255 255 255 255 255 255 255 255 255 255 255 255 255 255 255 255 255 255 255 255 255 255 255 255 255 255 255 255 255 255 255 255 255 255 255 255 255 255 255 255 255 255 255 255 255 255 255 255 255 255 255 255 255 255 255 255 255 255 255 255 255 255 255 255 255 255 255 255 255 255 255 255 255 255 255 255 255 255 255 255 255 255 255 255 255 255 255 255 255 255 255 255 255 255 255 255 255 255 255 255 255 255 255 255 255 255 255 255 255 255 255 255 255 255 255 255 255 255 255 255 255 255 255 255 255 255 255 255 255 255 255 255 255 255 255 255 255 255 255 255 255 255 255 255 255 255 255 255 255 255 255 255 255 255 255 255 255 255 255 255 255 255 255 255 255 255 255 255 255 255 255 255 255 255 255 255 255 255 255 255 255 255 255 255 255 255 255 255 255 255 255 255 255 255 255 255 255 255 255 255 255 255 255 255 255 255 255 255 255 255 255 255 255 255 255 255 255 255 255 255 255 255 255 255 255 255 255 255 255 255 255 255 255 255 255 255 255 255 255 255 255 255 255 255 255 255 255 255 255 255 255 255 255 255 255 255 255 255 255 255 255 255 255 255 255 255 255 255 255 255 255 255 255 255 255 255 255 255 255 255 255 255 255 255 255 255 255 255 255 255 255 255 255 255 255 255 255 255 255 255 255 255 255 255 255 255 255 255 255 255 255 255 255 255 255 255 255 255 255 255 255 255 255 255 255 255 255 255 255 255 255 255 255 255 255 255 255 255 255 255 255 255 255 255 255 255 255 255 255 255 255 255 255 255 255 255 255 255 255 255 255 255 255 255 255 255 255 255 255 255 255 255 255 255 255 255 255 255 255 255 255 255 255 255 255 255 255 255 255 255 255 255 255 255 255 255 255 255 255 255 255 255 255 255 255 255 255 255 255 255 255 255 255 255 255 255 255 255 255 255 255 255 255 255 255 255 255 255 255 255 255 255 255 255 255 255 255 255 255 000 053 128 000 053 128 000 053 128 000 053 128 000 053 128 000 053 128 000 053 128 000 053 128 000 053 128 000 053 128 000 053 128 000 053 128 000 053 128 000 053 128 000 053 128 000 053 128 000 053 128 000 053 128 000 053 128 000 053 128 000 053 128 000 053 128 000 053 128 000 053 128 000 053 128 000 053 128 000 053 128 000 053 128 000 053 128 000 053 128 255 255 255 255 255 255 255 255 255 255 255 255 255 255 255 255 255 255 255 255 255 255 255 255 255 255 255 255 255 255 255 255 255 255 255 255 255 255 255 255 255 255 255 255 255 255 255 255 255 255 255 255 255 255 255 255 255 255 255 255 255 255 255 255 255 255 255 255 255 255 255 255 255 255 255 255 255 255 255 255 255 255 255 255 255 255 255 255 255 255 255 255 255 255 255 255 255 255 255 255 255 255 255 255 255 255 255 255 255 255 255 255 255 255 255 255 255 255 255 255 255 255 255 255 255 255 255 255 255 255 255 255 255 255 255 255 255 255 255 255 255 255 255 255 255 255 255 255 255 255 255 255 255 255 255 255 255 255 255 255 255 255 255 255 255 255 255 255 255 255 255 255 255 255 255 255 255 255 255 255 255 255 255 255 255 255 255 255 255 255 255 255 255 255 255 255 255 255 255 255 255 255 255 255 255 255 255 255 255 255 255 255 255 255 255 255 255 255 255 255 255 255 255 255 255 255 255 255 255 255 255 255 255 255 255 255 255 255 255 255 255 255 255 255 255 255 255 255 255 255 255 255 255 255 255 255 255 255 255 255 255 255 255 255 255 255 255 255 255 255 255 255 255 255 255 255 255 255 255 255 255 255 255 255 255 255 255 255 255 255 255 255 255 255 255 255 255 255 255 255 255 255 255 255 255 255 255 255 255 255 255 255 255 255 255 255 255 255 255 255 255 255 255 255 255 255 255 255 255 255 255 255 255 255 255 255 255 255 255 255 255 255 255 255 255 255 255 255 255 255 255 255 255 255 255 255 255 255 255 255 255 255 255 255 255 255 255 255 255 255 255 255 255 255 255 255 255 255 255 255 255 255 255 255 255 255 255 255 255 255 255 255 255 255 255 255 255 255 255 255 255 255 255 255 255 255 255 255 255 255 255 255 255 255 255 255 255 255 255 255 255 255 255 255 255 255 255 255 255 255 255 255 255 255 255 255 255 255 255 255 255 255 255 255 255 255 255 255 255 255 000 053 128 000 053 128 000 053 128 000 053 128 000 053 128 000 053 128 000 053 128 000 053 128 000 053 128 000 053 128 000 053 128 000 053 128 000 053 128 000 053 128 000 053 128 000 053 128 000 053 128 000 053 128 000 053 128 000 053 128 000 053 128 000 053 128 000 053 128 000 053 128 000 053 128 000 053 128 000 053 128 000 053 128 000 053 128 000 053 128 255 255 255 255 255 255 255 255 255 255 255 255 255 255 255 255 255 255 255 255 255 255 255 255 255 255 255 255 255 255 255 255 255 255 255 255 255 255 255 255 255 255 255 255 255 255 255 255 255 255 255 255 255 255 255 255 255 255 255 255 255 255 255 255 255 255 255 255 255 255 255 255 255 255 255 255 255 255 255 255 255 255 255 255 255 255 255 255 255 255 255 255 255 255 255 255 255 255 255 255 255 255 255 255 255 255 255 255 255 255 255 255 255 255 255 255 255 255 255 255 255 255 255 255 255 255 255 255 255 255 255 255 255 255 255 255 255 255 255 255 255 255 255 255 255 255 255 255 255 255 255 255 255 255 255 255 255 255 255 255 255 255 255 255 255 255 255 255 255 255 255 255 255 255 255 255 255 255 255 255 255 255 255 255 255 255 255 255 255 255 255 255 255 255 255 255 255 255 255 255 255 255 255 255 255 255 255 255 255 255 255 255 255 255 255 255 255 255 255 255 255 255 255 255 255 255 255 255 255 255 255 255 255 255 255 255 255 255 255 255 255 255 255 255 255 255 255 255 255 255 255 255 255 255 255 255 255 255 255 255 255 255 255 255 255 255 255 255 255 255 255 255 255 255 255 255 255 255 255 255 255 255 255 255 255 255 255 255 255 255 255 255 255 255 255 255 255 255 255 255 255 255 255 255 255 255 255 255 255 255 255 255 255 255 255 255 255 255 255 255 255 255 255 255 255 255 255 255 255 255 255 255 255 255 255 255 255 255 255 255 255 255 255 255 255 255 255 255 255 255 255 255 255 255 255 255 255 255 255 255 255 255 255 255 255 255 255 255 255 255 255 255 255 255 255 255 255 255 255 255 255 255 255 255 255 255 255 255 255 255 255 255 255 255 255 255 255 255 255 255 255 255 255 255 255 255 255 255 255 255 255 255 255 255 255 255 255 255 255 255 255 255 255 255 255 255 255 255 255 255 255 255 255 255 255 255 255 255 255 255 255 255 255 255 255 255 255 255 255 255 000 053 128 000 053 128 000 053 128 000 053 128 000 053 128 000 053 128 000 053 128 000 053 128 000 053 128 000 053 128 000 053 128 000 053 128 000 053 128 000 053 128 000 053 128 000 053 128 000 053 128 000 053 128 000 053 128 000 053 128 000 053 128 000 053 128 000 053 128 000 053 128 000 053 128 000 053 128 000 053 128 000 053 128 000 053 128 000 053 128 255 255 255 255 255 255 255 255 255 255 255 255 255 255 255 255 255 255 255 255 255 255 255 255 255 255 255 255 255 255 255 255 255 255 255 255 255 255 255 255 255 255 255 255 255 255 255 255 255 255 255 255 255 255 255 255 255 255 255 255 255 255 255 255 255 255 255 255 255 255 255 255 255 255 255 255 255 255 255 255 255 255 255 255 255 255 255 255 255 255 255 255 255 255 255 255 255 255 255 255 255 255 255 255 255 255 255 255 255 255 255 255 255 255 255 255 255 255 255 255 255 255 255 255 255 255 255 255 255 255 255 255 255 255 255 255 255 255 255 255 255 255 255 255 255 255 255 255 255 255 255 255 255 255 255 255 255 255 255 255 255 255 255 255 255 255 255 255 255 255 255 255 255 255 255 255 255 255 255 255 255 255 255 255 255 255 255 255 255 255 255 255 255 255 255 255 255 255 255 255 255 255 255 255 255 255 255 255 255 255 255 255 255 255 255 255 255 255 255 255 255 255 255 255 255 255 255 255 255 255 255 255 255 255 255 255 255 255 255 255 255 255 255 255 255 255 255 255 255 255 255 255 255 255 255 255 255 255 255 255 255 255 255 255 255 255 255 255 255 255 255 255 255 255 255 255 255 255 255 255 255 255 255 255 255 255 255 255 255 255 255 255 255 255 255 255 255 255 255 255 255 255 255 255 255 255 255 255 255 255 255 255 255 255 255 255 255 255 255 255 255 255 255 255 255 255 255 255 255 255 255 255 255 255 255 255 255 255 255 255 255 255 255 255 255 255 255 255 255 255 255 255 255 255 255 255 255 255 255 255 255 255 255 255 255 255 255 255 255 255 255 255 255 255 255 255 255 255 255 255 255 255 255 255 255 255 255 255 255 255 255 255 255 255 255 255 255 255 255 255 255 255 255 255 255 255 255 255 255 255 255 255 255 255 255 255 255 255 255 255 255 255 255 255 255 255 255 255 255 255 255 255 255 255 255 255 255 255 255 255 255 255 255 255 255 255 255 255 255 255 000 053 128 000 053 128 000 053 128 000 053 128 000 053 128 000 053 128 000 053 128 000 053 128 000 053 128 000 053 128 000 053 128 000 053 128 000 053 128 000 053 128 000 053 128 000 053 128 000 053 128 000 053 128 000 053 128 000 053 128 000 053 128 000 053 128 000 053 128 000 053 128 000 053 128 000 053 128 000 053 128 000 053 128 000 053 128 000 053 128 255 255 255 255 255 255 255 255 255 255 255 255 255 255 255 255 255 255 255 255 255 255 255 255 255 255 255 255 255 255 255 255 255 255 255 255 255 255 255 255 255 255 255 255 255 255 255 255 255 255 255 255 255 255 255 255 255 255 255 255 255 255 255 255 255 255 255 255 255 255 255 255 255 255 255 255 255 255 255 255 255 255 255 255 255 255 255 255 255 255 255 255 255 255 255 255 255 255 255 255 255 255 255 255 255 255 255 255 255 255 255 255 255 255 255 255 255 255 255 255 255 255 255 255 255 255 255 255 255 255 255 255 255 255 255 255 255 255 255 255 255 255 255 255 255 255 255 255 255 255 255 255 255 255 255 255 255 255 255 255 255 255 255 255 255 255 255 255 255 255 255 255 255 255 255 255 255 255 255 255 255 255 255 255 255 255 255 255 255 255 255 255 255 255 255 255 255 255 255 255 255 255 255 255 255 255 255 255 255 255 255 255 255 255 255 255 255 255 255 255 255 255 255 255 255 255 255 255 255 255 255 255 255 255 255 255 255 255 255 255 255 255 255 255 255 255 255 255 255 255 255 255 255 255 255 255 255 255 255 255 255 255 255 255 255 255 255 255 255 255 255 255 255 255 255 255 255 255 255 255 255 255 255 255 255 255 255 255 255 255 255 255 255 255 255 255 255 255 255 255 255 255 255 255 255 255 255 255 255 255 255 255 255 255 255 255 255 255 255 255 255 255 255 255 255 255 255 255 255 255 255 255 255 255 255 255 255 255 255 255 255 255 255 255 255 255 255 255 255 255 255 255 255 255 255 255 255 255 255 255 255 255 255 255 255 255 255 255 255 255 255 255 255 255 255 255 255 255 255 255 255 255 255 255 255 255 255 255 255 255 255 255 255 255 255 255 255 255 255 255 255 255 255 255 255 255 255 255 255 255 255 255 255 255 255 255 255 255 255 255 255 255 255 255 255 255 255 255 255 255 255 255 255 255 255 255 255 255 255 255 255 255 255 255 255 255 255 255 255 255 000 053 128 000 053 128 000 053 128 000 053 128 000 053 128 000 053 128 000 053 128 000 053 128 000 053 128 000 053 128 000 053 128 000 053 128 000 053 128 000 053 128 000 053 128 000 053 128 000 053 128 000 053 128 000 053 128 000 053 128 000 053 128 000 053 128 000 053 128 000 053 128 000 053 128 000 053 128 000 053 128 000 053 128 000 053 128 000 053 128 255 255 255 255 255 255 255 255 255 255 255 255 255 255 255 255 255 255 255 255 255 255 255 255 255 255 255 255 255 255 255 255 255 255 255 255 255 255 255 255 255 255 255 255 255 255 255 255 255 255 255 255 255 255 255 255 255 255 255 255 255 255 255 255 255 255 255 255 255 255 255 255 255 255 255 255 255 255 255 255 255 255 255 255 255 255 255 255 255 255 255 255 255 255 255 255 255 255 255 255 255 255 255 255 255 255 255 255 255 255 255 255 255 255 255 255 255 255 255 255 255 255 255 255 255 255 255 255 255 255 255 255 255 255 255 255 255 255 255 255 255 255 255 255 255 255 255 255 255 255 255 255 255 255 255 255 255 255 255 255 255 255 255 255 255 255 255 255 255 255 255 255 255 255 255 255 255 255 255 255 255 255 255 255 255 255 255 255 255 255 255 255 255 255 255 255 255 255 255 255 255 255 255 255 255 255 255 255 255 255 255 255 255 255 255 255 255 255 255 255 255 255 255 255 255 255 255 255 255 255 255 255 255 255 255 255 255 255 255 255 255 255 255 255 255 255 255 255 255 255 255 255 255 255 255 255 255 255 255 255 255 255 255 255 255 255 255 255 255 255 255 255 255 255 255 255 255 255 255 255 255 255 255 255 255 255 255 255 255 255 255 255 255 255 255 255 255 255 255 255 255 255 255 255 255 255 255 255 255 255 255 255 255 255 255 255 255 255 255 255 255 255 255 255 255 255 255 255 255 255 255 255 255 255 255 255 255 255 255 255 255 255 255 255 255 255 255 255 255 255 255 255 255 255 255 255 255 255 255 255 255 255 255 255 255 255 255 255 255 255 255 255 255 255 255 255 255 255 255 255 255 255 255 255 255 255 255 255 255 255 255 255 255 255 255 255 255 255 255 255 255 255 255 255 255 255 255 255 255 255 255 255 255 255 255 255 255 255 255 255 255 255 255 255 255 255 255 255 255 255 255 255 255 255 255 255 255 255 255 255 255 255 255 255 255 255 255 255 255 255 000 053 128 000 053 128 000 053 128 000 053 128 000 053 128 000 053 128 000 053 128 000 053 128 000 053 128 000 053 128 000 053 128 000 053 128 000 053 128 000 053 128 000 053 128 000 053 128 000 053 128 000 053 128 000 053 128 000 053 128 000 053 128 000 053 128 000 053 128 000 053 128 000 053 128 000 053 128 000 053 128 000 053 128 000 053 128 000 053 128 255 255 255 255 255 255 255 255 255 255 255 255 255 255 255 255 255 255 255 255 255 255 255 255 255 255 255 255 255 255 255 255 255 255 255 255 255 255 255 255 255 255 255 255 255 255 255 255 255 255 255 255 255 255 255 255 255 255 255 255 255 255 255 255 255 255 255 255 255 255 255 255 255 255 255 255 255 255 255 255 255 255 255 255 255 255 255 255 255 255 255 255 255 255 255 255 255 255 255 255 255 255 255 255 255 255 255 255 255 255 255 255 255 255 255 255 255 255 255 255 255 255 255 255 255 255 255 255 255 255 255 255 255 255 255 255 255 255 255 255 255 255 255 255 255 255 255 255 255 255 255 255 255 255 255 255 255 255 255 255 255 255 255 255 255 255 255 255 255 255 255 255 255 255 255 255 255 255 255 255 255 255 255 255 255 255 255 255 255 255 255 255 255 255 255 255 255 255 255 255 255 255 255 255 255 255 255 255 255 255 255 255 255 255 255 255 255 255 255 255 255 255 255 255 255 255 255 255 255 255 255 255 255 255 255 255 255 255 255 255 255 255 255 255 255 255 255 255 255 255 255 255 255 255 255 255 255 255 255 255 255 255 255 255 255 255 255 255 255 255 255 255 255 255 255 255 255 255 255 255 255 255 255 255 255 255 255 255 255 255 255 255 255 255 255 255 255 255 255 255 255 255 255 255 255 255 255 255 255 255 255 255 255 255 255 255 255 255 255 255 255 255 255 255 255 255 255 255 255 255 255 255 255 255 255 255 255 255 255 255 255 255 255 255 255 255 255 255 255 255 255 255 255 255 255 255 255 255 255 255 255 255 255 255 255 255 255 255 255 255 255 255 255 255 255 255 255 255 255 255 255 255 255 255 255 255 255 255 255 255 255 255 255 255 255 255 255 255 255 255 255 255 255 255 255 255 255 255 255 255 255 255 255 255 255 255 255 255 255 255 255 255 255 255 255 255 255 255 255 255 255 255 255 255 255 255 255 255 255 255 255 255 255 255 255 255 255 255 255 255 000 053 128 000 053 128 000 053 128 000 053 128 000 053 128 000 053 128 000 053 128 000 053 128 000 053 128 000 053 128 000 053 128 000 053 128 000 053 128 000 053 128 000 053 128 000 053 128 000 053 128 000 053 128 000 053 128 000 053 128 000 053 128 000 053 128 000 053 128 000 053 128 000 053 128 000 053 128 000 053 128 000 053 128 000 053 128 000 053 128 255 255 255 255 255 255 255 255 255 255 255 255 255 255 255 255 255 255 255 255 255 255 255 255 255 255 255 255 255 255 255 255 255 255 255 255 255 255 255 255 255 255 255 255 255 255 255 255 255 255 255 255 255 255 255 255 255 255 255 255 255 255 255 255 255 255 255 255 255 255 255 255 255 255 255 255 255 255 255 255 255 255 255 255 255 255 255 255 255 255 255 255 255 255 255 255 255 255 255 255 255 255 255 255 255 255 255 255 255 255 255 255 255 255 255 255 255 255 255 255 255 255 255 255 255 255 255 255 255 255 255 255 255 255 255 255 255 255 255 255 255 255 255 255 255 255 255 255 255 255 255 255 255 255 255 255 255 255 255 255 255 255 255 255 255 255 255 255 255 255 255 255 255 255 255 255 255 255 255 255 255 255 255 255 255 255 255 255 255 255 255 255 255 255 255 255 255 255 255 255 255 255 255 255 255 255 255 255 255 255 255 255 255 255 255 255 255 255 255 255 255 255 255 255 255 255 255 255 255 255 255 255 255 255 255 255 255 255 255 255 255 255 255 255 255 255 255 255 255 255 255 255 255 255 255 255 255 255 255 255 255 255 255 255 255 255 255 255 255 255 255 255 255 255 255 255 255 255 255 255 255 255 255 255 255 255 255 255 255 255 255 255 255 255 255 255 255 255 255 255 255 255 255 255 255 255 255 255 255 255 255 255 255 255 255 255 255 255 255 255 255 255 255 255 255 255 255 255 255 255 255 255 255 255 255 255 255 255 255 255 255 255 255 255 255 255 255 255 255 255 255 255 255 255 255 255 255 255 255 255 255 255 255 255 255 255 255 255 255 255 255 255 255 255 255 255 255 255 255 255 255 255 255 255 255 255 255 255 255 255 255 255 255 255 255 255 255 255 255 255 255 255 255 255 255 255 255 255 255 255 255 255 255 255 255 255 255 255 255 255 255 255 255 255 255 255 255 255 255 255 255 255 255 255 255 255 255 255 255 255 255 255 255 255 255 255 255 255 255 255 000 053 128 000 053 128 000 053 128 000 053 128 000 053 128 000 053 128 000 053 128 000 053 128 000 053 128 000 053 128 000 053 128 000 053 128 000 053 128 000 053 128 000 053 128 000 053 128 000 053 128 000 053 128 000 053 128 000 053 128 000 053 128 000 053 128 000 053 128 000 053 128 000 053 128 000 053 128 000 053 128 000 053 128 000 053 128 000 053 128 255 255 255 255 255 255 255 255 255 255 255 255 255 255 255 255 255 255 255 255 255 255 255 255 255 255 255 255 255 255 255 255 255 255 255 255 255 255 255 255 255 255 255 255 255 255 255 255 255 255 255 255 255 255 255 255 255 255 255 255 255 255 255 255 255 255 255 255 255 255 255 255 255 255 255 255 255 255 255 255 255 255 255 255 255 255 255 255 255 255 255 255 255 255 255 255 255 255 255 255 255 255 255 255 255 255 255 255 255 255 255 255 255 255 255 255 255 255 255 255 255 255 255 255 255 255 255 255 255 255 255 255 255 255 255 255 255 255 255 255 255 255 255 255 255 255 255 255 255 255 255 255 255 255 255 255 255 255 255 255 255 255 255 255 255 255 255 255 255 255 255 255 255 255 255 255 255 255 255 255 255 255 255 255 255 255 255 255 255 255 255 255 255 255 255 255 255 255 255 255 255 255 255 255 255 255 255 255 255 255 255 255 255 255 255 255 255 255 255 255 255 255 255 255 255 255 255 255 255 255 255 255 255 255 255 255 255 255 255 255 255 255 255 255 255 255 255 255 255 255 255 255 255 255 255 255 255 255 255 255 255 255 255 255 255 255 255 255 255 255 255 255 255 255 255 255 255 255 255 255 255 255 255 255 255 255 255 255 255 255 255 255 255 255 255 255 255 255 255 255 255 255 255 255 255 255 255 255 255 255 255 255 255 255 255 255 255 255 255 255 255 255 255 255 255 255 255 255 255 255 255 255 255 255 255 255 255 255 255 255 255 255 255 255 255 255 255 255 255 255 255 255 255 255 255 255 255 255 255 255 255 255 255 255 255 255 255 255 255 255 255 255 255 255 255 255 255 255 255 255 255 255 255 255 255 255 255 255 255 255 255 255 255 255 255 255 255 255 255 255 255 255 255 255 255 255 255 255 255 255 255 255 255 255 255 255 255 255 255 255 255 255 255 255 255 255 255 255 255 255 255 255 255 255 255 255 255 255 255 255 255 255 255 255 255 255 255 255 255 255 000 053 128 000 053 128 000 053 128 000 053 128 000 053 128 000 053 128 000 053 128 000 053 128 000 053 128 000 053 128 000 053 128 000 053 128 000 053 128 000 053 128 000 053 128 000 053 128 000 053 128 000 053 128 000 053 128 000 053 128 000 053 128 000 053 128 000 053 128 000 053 128 000 053 128 000 053 128 000 053 128 000 053 128 000 053 128 000 053 128 255 255 255 255 255 255 255 255 255 255 255 255 255 255 255 255 255 255 255 255 255 255 255 255 255 255 255 255 255 255 255 255 255 255 255 255 255 255 255 255 255 255 255 255 255 255 255 255 255 255 255 255 255 255 255 255 255 255 255 255 255 255 255 255 255 255 255 255 255 255 255 255 255 255 255 255 255 255 255 255 255 255 255 255 255 255 255 255 255 255 255 255 255 255 255 255 255 255 255 255 255 255 255 255 255 255 255 255 255 255 255 255 255 255 255 255 255 255 255 255 255 255 255 255 255 255 255 255 255 255 255 255 255 255 255 255 255 255 255 255 255 255 255 255 255 255 255 255 255 255 255 255 255 255 255 255 255 255 255 255 255 255 255 255 255 255 255 255 255 255 255 255 255 255 255 255 255 255 255 255 255 255 255 255 255 255 255 255 255 255 255 255 255 255 255 255 255 255 255 255 255 255 255 255 255 255 255 255 255 255 255 255 255 255 255 255 255 255 255 255 255 255 255 255 255 255 255 255 255 255 255 255 255 255 255 255 255 255 255 255 255 255 255 255 255 255 255 255 255 255 255 255 255 255 255 255 255 255 255 255 255 255 255 255 255 255 255 255 255 255 255 255 255 255 255 255 255 255 255 255 255 255 255 255 255 255 255 255 255 255 255 255 255 255 255 255 255 255 255 255 255 255 255 255 255 255 255 255 255 255 255 255 255 255 255 255 255 255 255 255 255 255 255 255 255 255 255 255 255 255 255 255 255 255 255 255 255 255 255 255 255 255 255 255 255 255 255 255 255 255 255 255 255 255 255 255 255 255 255 255 255 255 255 255 255 255 255 255 255 255 255 255 255 255 255 255 255 255 255 255 255 255 255 255 255 255 255 255 255 255 255 255 255 255 255 255 255 255 255 255 255 255 255 255 255 255 255 255 255 255 255 255 255 255 255 255 255 255 255 255 255 255 255 255 255 255 255 255 255 255 255 255 255 255 255 255 255 255 255 255 255 255 255 255 255 255 255 255 255 255 000 053 128 000 053 128 000 053 128 000 053 128 000 053 128 000 053 128 000 053 128 000 053 128 000 053 128 000 053 128 000 053 128 000 053 128 000 053 128 000 053 128 000 053 128 000 053 128 000 053 128 000 053 128 000 053 128 000 053 128 000 053 128 000 053 128 000 053 128 000 053 128 000 053 128 000 053 128 000 053 128 000 053 128 000 053 128 000 053 128 255 255 255 255 255 255 255 255 255 255 255 255 255 255 255 255 255 255 255 255 255 255 255 255 255 255 255 255 255 255 255 255 255 255 255 255 255 255 255 255 255 255 255 255 255 255 255 255 255 255 255 255 255 255 255 255 255 255 255 255 255 255 255 255 255 255 255 255 255 255 255 255 255 255 255 255 255 255 255 255 255 255 255 255 255 255 255 255 255 255 255 255 255 255 255 255 255 255 255 255 255 255 255 255 255 255 255 255 255 255 255 255 255 255 255 255 255 255 255 255 255 255 255 255 255 255 255 255 255 255 255 255 255 255 255 255 255 255 255 255 255 255 255 255 255 255 255 255 255 255 255 255 255 255 255 255 255 255 255 255 255 255 255 255 255 255 255 255 255 255 255 255 255 255 255 255 255 255 255 255 255 255 255 255 255 255 255 255 255 255 255 255 255 255 255 255 255 255 255 255 255 255 255 255 255 255 255 255 255 255 255 255 255 255 255 255 255 255 255 255 255 255 255 255 255 255 255 255 255 255 255 255 255 255 255 255 255 255 255 255 255 255 255 255 255 255 255 255 255 255 255 255 255 255 255 255 255 255 255 255 255 255 255 255 255 255 255 255 255 255 255 255 255 255 255 255 255 255 255 255 255 255 255 255 255 255 255 255 255 255 255 255 255 255 255 255 255 255 255 255 255 255 255 255 255 255 255 255 255 255 255 255 255 255 255 255 255 255 255 255 255 255 255 255 255 255 255 255 255 255 255 255 255 255 255 255 255 255 255 255 255 255 255 255 255 255 255 255 255 255 255 255 255 255 255 255 255 255 255 255 255 255 255 255 255 255 255 255 255 255 255 255 255 255 255 255 255 255 255 255 255 255 255 255 255 255 255 255 255 255 255 255 255 255 255 255 255 255 255 255 255 255 255 255 255 255 255 255 255 255 255 255 255 255 255 255 255 255 255 255 255 255 255 255 255 255 255 255 255 255 255 255 255 255 255 255 255 255 255 255 255 255 255 255 255 255 255 255 255 255 000 053 128 000 053 128 000 053 128 000 053 128 000 053 128 000 053 128 000 053 128 000 053 128 000 053 128 000 053 128 000 053 128 000 053 128 000 053 128 000 053 128 000 053 128 000 053 128 000 053 128 000 053 128 000 053 128 000 053 128 000 053 128 000 053 128 000 053 128 000 053 128 000 053 128 000 053 128 000 053 128 000 053 128 000 053 128 000 053 128 255 255 255 255 255 255 255 255 255 255 255 255 255 255 255 255 255 255 255 255 255 255 255 255 255 255 255 255 255 255 255 255 255 255 255 255 255 255 255 255 255 255 255 255 255 255 255 255 255 255 255 255 255 255 255 255 255 255 255 255 255 255 255 255 255 255 255 255 255 255 255 255 255 255 255 255 255 255 255 255 255 255 255 255 255 255 255 255 255 255 255 255 255 255 255 255 255 255 255 255 255 255 255 255 255 255 255 255 255 255 255 255 255 255 255 255 255 255 255 255 255 255 255 255 255 255 255 255 255 255 255 255 255 255 255 255 255 255 255 255 255 255 255 255 255 255 255 255 255 255 255 255 255 255 255 255 255 255 255 255 255 255 255 255 255 255 255 255 255 255 255 255 255 255 255 255 255 255 255 255 255 255 255 255 255 255 255 255 255 255 255 255 255 255 255 255 255 255 255 255 255 255 255 255 255 255 255 255 255 255 255 255 255 255 255 255 255 255 255 255 255 255 255 255 255 255 255 255 255 255 255 255 255 255 255 255 255 255 255 255 255 255 255 255 255 255 255 255 255 255 255 255 255 255 255 255 255 255 255 255 255 255 255 255 255 255 255 255 255 255 255 255 255 255 255 255 255 255 255 255 255 255 255 255 255 255 255 255 255 255 255 255 255 255 255 255 255 255 255 255 255 255 255 255 255 255 255 255 255 255 255 255 255 255 255 255 255 255 255 255 255 255 255 255 255 255 255 255 255 255 255 255 255 255 255 255 255 255 255 255 255 255 255 255 255 255 255 255 255 255 255 255 255 255 255 255 255 255 255 255 255 255 255 255 255 255 255 255 255 255 255 255 255 255 255 255 255 255 255 255 255 255 255 255 255 255 255 255 255 255 255 255 255 255 255 255 255 255 255 255 255 255 255 255 255 255 255 255 255 255 255 255 255 255 255 255 255 255 255 255 255 255 255 255 255 255 255 255 255 255 255 255 255 255 255 255 255 255 255 255 255 255 255 255 255 255 255 255 255 255 000 053 128 000 053 128 000 053 128 000 053 128 000 053 128 000 053 128 000 053 128 000 053 128 000 053 128 000 053 128 000 053 128 000 053 128 000 053 128 000 053 128 000 053 128 000 053 128 000 053 128 000 053 128 000 053 128 000 053 128 000 053 128 000 053 128 000 053 128 000 053 128 000 053 128 000 053 128 000 053 128 000 053 128 000 053 128 000 053 128 255 255 255 255 255 255 255 255 255 255 255 255 255 255 255 255 255 255 255 255 255 255 255 255 255 255 255 255 255 255 255 255 255 255 255 255 255 255 255 255 255 255 255 255 255 255 255 255 255 255 255 255 255 255 255 255 255 255 255 255 255 255 255 255 255 255 255 255 255 255 255 255 255 255 255 255 255 255 255 255 255 255 255 255 255 255 255 255 255 255 255 255 255 255 255 255 255 255 255 255 255 255 255 255 255 255 255 255 255 255 255 255 255 255 255 255 255 255 255 255 255 255 255 255 255 255 255 255 255 255 255 255 255 255 255 255 255 255 255 255 255 255 255 255 255 255 255 255 255 255 255 255 255 255 255 255 255 255 255 255 255 255 255 255 255 255 255 255 255 255 255 255 255 255 255 255 255 255 255 255 255 255 255 255 255 255 255 255 255 255 255 255 255 255 255 255 255 255 255 255 255 255 255 255 255 255 255 255 255 255 255 255 255 255 255 255 255 255 255 255 255 255 255 255 255 255 255 255 255 255 255 255 255 255 255 255 255 255 255 255 255 255 255 255 255 255 255 255 255 255 255 255 255 255 255 255 255 255 255 255 255 255 255 255 255 255 255 255 255 255 255 255 255 255 255 255 255 255 255 255 255 255 255 255 255 255 255 255 255 255 255 255 255 255 255 255 255 255 255 255 255 255 255 255 255 255 255 255 255 255 255 255 255 255 255 255 255 255 255 255 255 255 255 255 255 255 255 255 255 255 255 255 255 255 255 255 255 255 255 255 255 255 255 255 255 255 255 255 255 255 255 255 255 255 255 255 255 255 255 255 255 255 255 255 255 255 255 255 255 255 255 255 255 255 255 255 255 255 255 255 255 255 255 255 255 255 255 255 255 255 255 255 255 255 255 255 255 255 255 255 255 255 255 255 255 255 255 255 255 255 255 255 255 255 255 255 255 255 255 255 255 255 255 255 255 255 255 255 255 255 255 255 255 255 255 255 255 255 255 255 255 255 255 255 255 255 255 255 255 255 000 053 128 000 053 128 000 053 128 000 053 128 000 053 128 000 053 128 000 053 128 000 053 128 000 053 128 000 053 128 000 053 128 000 053 128 000 053 128 000 053 128 000 053 128 000 053 128 000 053 128 000 053 128 000 053 128 000 053 128 000 053 128 000 053 128 000 053 128 000 053 128 000 053 128 000 053 128 000 053 128 000 053 128 000 053 128 000 053 128 255 255 255 255 255 255 255 255 255 255 255 255 255 255 255 255 255 255 255 255 255 255 255 255 255 255 255 255 255 255 255 255 255 255 255 255 255 255 255 255 255 255 255 255 255 255 255 255 255 255 255 255 255 255 255 255 255 255 255 255 255 255 255 255 255 255 255 255 255 255 255 255 255 255 255 255 255 255 255 255 255 255 255 255 255 255 255 255 255 255 255 255 255 255 255 255 255 255 255 255 255 255 255 255 255 255 255 255 255 255 255 255 255 255 255 255 255 255 255 255 255 255 255 255 255 255 255 255 255 255 255 255 255 255 255 255 255 255 255 255 255 255 255 255 255 255 255 255 255 255 255 255 255 255 255 255 255 255 255 255 255 255 255 255 255 255 255 255 255 255 255 255 255 255 255 255 255 255 255 255 255 255 255 255 255 255 255 255 255 255 255 255 255 255 255 255 255 255 255 255 255 255 255 255 255 255 255 255 255 255 255 255 255 255 255 255 255 255 255 255 255 255 255 255 255 255 255 255 255 255 255 255 255 255 255 255 255 255 255 255 255 255 255 255 255 255 255 255 255 255 255 255 255 255 255 255 255 255 255 255 255 255 255 255 255 255 255 255 255 255 255 255 255 255 255 255 255 255 255 255 255 255 255 255 255 255 255 255 255 255 255 255 255 255 255 255 255 255 255 255 255 255 255 255 255 255 255 255 255 255 255 255 255 255 255 255 255 255 255 255 255 255 255 255 255 255 255 255 255 255 255 255 255 255 255 255 255 255 255 255 255 255 255 255 255 255 255 255 255 255 255 255 255 255 255 255 255 255 255 255 255 255 255 255 255 255 255 255 255 255 255 255 255 255 255 255 255 255 255 255 255 255 255 255 255 255 255 255 255 255 255 255 255 255 255 255 255 255 255 255 255 255 255 255 255 255 255 255 255 255 255 255 255 255 255 255 255 255 255 255 255 255 255 255 255 255 255 255 255 255 255 255 255 255 255 255 255 255 255 255 255 255 255 255 255 255 255 255 255 255 000 053 128 000 053 128 000 053 128 000 053 128 000 053 128 000 053 128 000 053 128 000 053 128 000 053 128 000 053 128 000 053 128 000 053 128 000 053 128 000 053 128 000 053 128 000 053 128 000 053 128 000 053 128 000 053 128 000 053 128 000 053 128 000 053 128 000 053 128 000 053 128 000 053 128 000 053 128 000 053 128 000 053 128 000 053 128 000 053 128 255 255 255 255 255 255 255 255 255 255 255 255 255 255 255 255 255 255 255 255 255 255 255 255 255 255 255 255 255 255 255 255 255 255 255 255 255 255 255 255 255 255 255 255 255 255 255 255 255 255 255 255 255 255 255 255 255 255 255 255 255 255 255 255 255 255 255 255 255 255 255 255 255 255 255 255 255 255 255 255 255 255 255 255 255 255 255 255 255 255 255 255 255 255 255 255 255 255 255 255 255 255 255 255 255 255 255 255 255 255 255 255 255 255 255 255 255 255 255 255 255 255 255 255 255 255 255 255 255 255 255 255 255 255 255 255 255 255 255 255 255 255 255 255 255 255 255 255 255 255 255 255 255 255 255 255 255 255 255 255 255 255 255 255 255 255 255 255 255 255 255 255 255 255 255 255 255 255 255 255 255 255 255 255 255 255 255 255 255 255 255 255 255 255 255 255 255 255 255 255 255 255 255 255 255 255 255 255 255 255 255 255 255 255 255 255 255 255 255 255 255 255 255 255 255 255 255 255 255 255 255 255 255 255 255 255 255 255 255 255 255 255 255 255 255 255 255 255 255 255 255 255 255 255 255 255 255 255 255 255 255 255 255 255 255 255 255 255 255 255 255 255 255 255 255 255 255 255 255 255 255 255 255 255 255 255 255 255 255 255 255 255 255 255 255 255 255 255 255 255 255 255 255 255 255 255 255 255 255 255 255 255 255 255 255 255 255 255 255 255 255 255 255 255 255 255 255 255 255 255 255 255 255 255 255 255 255 255 255 255 255 255 255 255 255 255 255 255 255 255 255 255 255 255 255 255 255 255 255 255 255 255 255 255 255 255 255 255 255 255 255 255 255 255 255 255 255 255 255 255 255 255 255 255 255 255 255 255 255 255 255 255 255 255 255 255 255 255 255 255 255 255 255 255 255 255 255 255 255 255 255 255 255 255 255 255 255 255 255 255 255 255 255 255 255 255 255 255 255 255 255 255 255 255 255 255 255 255 255 255 255 255 255 255 255 255 255 255 255 255 000 053 128 000 053 128 000 053 128 000 053 128 000 053 128 000 053 128 000 053 128 000 053 128 000 053 128 000 053 128 000 053 128 000 053 128 000 053 128 000 053 128 000 053 128 000 053 128 000 053 128 000 053 128 000 053 128 000 053 128 000 053 128 000 053 128 000 053 128 000 053 128 000 053 128 000 053 128 000 053 128 000 053 128 000 053 128 000 053 128 255 255 255 255 255 255 255 255 255 255 255 255 255 255 255 255 255 255 255 255 255 255 255 255 255 255 255 255 255 255 255 255 255 255 255 255 255 255 255 255 255 255 255 255 255 255 255 255 255 255 255 255 255 255 255 255 255 255 255 255 255 255 255 255 255 255 255 255 255 255 255 255 255 255 255 255 255 255 255 255 255 255 255 255 255 255 255 255 255 255 255 255 255 255 255 255 255 255 255 255 255 255 255 255 255 255 255 255 255 255 255 255 255 255 255 255 255 255 255 255 255 255 255 255 255 255 255 255 255 255 255 255 255 255 255 255 255 255 255 255 255 255 255 255 255 255 255 255 255 255 255 255 255 255 255 255 255 255 255 255 255 255 255 255 255 255 255 255 255 255 255 255 255 255 255 255 255 255 255 255 255 255 255 255 255 255 255 255 255 255 255 255 255 255 255 255 255 255 255 255 255 255 255 255 255 255 255 255 255 255 255 255 255 255 255 255 255 255 255 255 255 255 255 255 255 255 255 255 255 255 255 255 255 255 255 255 255 255 255 255 255 255 255 255 255 255 255 255 255 255 255 255 255 255 255 255 255 255 255 255 255 255 255 255 255 255 255 255 255 255 255 255 255 255 255 255 255 255 255 255 255 255 255 255 255 255 255 255 255 255 255 255 255 255 255 255 255 255 255 255 255 255 255 255 255 255 255 255 255 255 255 255 255 255 255 255 255 255 255 255 255 255 255 255 255 255 255 255 255 255 255 255 255 255 255 255 255 255 255 255 255 255 255 255 255 255 255 255 255 255 255 255 255 255 255 255 255 255 255 255 255 255 255 255 255 255 255 255 255 255 255 255 255 255 255 255 255 255 255 255 255 255 255 255 255 255 255 255 255 255 255 255 255 255 255 255 255 255 255 255 255 255 255 255 255 255 255 255 255 255 255 255 255 255 255 255 255 255 255 255 255 255 255 255 255 255 255 255 255 255 255 255 255 255 255 255 255 255 255 255 255 255 255 255 255 255 255 255 255 255 000 053 128 000 053 128 000 053 128 000 053 128 000 053 128 000 053 128 000 053 128 000 053 128 000 053 128 000 053 128 000 053 128 000 053 128 000 053 128 000 053 128 000 053 128 000 053 128 000 053 128 000 053 128 000 053 128 000 053 128 000 053 128 000 053 128 000 053 128 000 053 128 000 053 128 000 053 128 000 053 128 000 053 128 000 053 128 000 053 128 255 255 255 255 255 255 255 255 255 255 255 255 255 255 255 255 255 255 255 255 255 255 255 255 255 255 255 255 255 255 255 255 255 255 255 255 255 255 255 255 255 255 255 255 255 255 255 255 255 255 255 255 255 255 255 255 255 255 255 255 255 255 255 255 255 255 255 255 255 255 255 255 255 255 255 255 255 255 255 255 255 255 255 255 255 255 255 255 255 255 255 255 255 255 255 255 255 255 255 255 255 255 255 255 255 255 255 255 255 255 255 255 255 255 255 255 255 255 255 255 255 255 255 255 255 255 255 255 255 255 255 255 255 255 255 255 255 255 255 255 255 255 255 255 255 255 255 255 255 255 255 255 255 255 255 255 255 255 255 255 255 255 255 255 255 255 255 255 255 255 255 255 255 255 255 255 255 255 255 255 255 255 255 255 255 255 255 255 255 255 255 255 255 255 255 255 255 255 255 255 255 255 255 255 255 255 255 255 255 255 255 255 255 255 255 255 255 255 255 255 255 255 255 255 255 255 255 255 255 255 255 255 255 255 255 255 255 255 255 255 255 255 255 255 255 255 255 255 255 255 255 255 255 255 255 255 255 255 255 255 255 255 255 255 255 255 255 255 255 255 255 255 255 255 255 255 255 255 255 255 255 255 255 255 255 255 255 255 255 255 255 255 255 255 255 255 255 255 255 255 255 255 255 255 255 255 255 255 255 255 255 255 255 255 255 255 255 255 255 255 255 255 255 255 255 255 255 255 255 255 255 255 255 255 255 255 255 255 255 255 255 255 255 255 255 255 255 255 255 255 255 255 255 255 255 255 255 255 255 255 255 255 255 255 255 255 255 255 255 255 255 255 255 255 255 255 255 255 255 255 255 255 255 255 255 255 255 255 255 255 255 255 255 255 255 255 255 255 255 255 255 255 255 255 255 255 255 255 255 255 255 255 255 255 255 255 255 255 255 255 255 255 255 255 255 255 255 255 255 255 255 255 255 255 255 255 255 255 255 255 255 255 255 255 255 255 255 255 255 255 000 053 128 000 053 128 000 053 128 000 053 128 000 053 128 000 053 128 000 053 128 000 053 128 000 053 128 000 053 128 000 053 128 000 053 128 000 053 128 000 053 128 000 053 128 000 053 128 000 053 128 000 053 128 000 053 128 000 053 128 000 053 128 000 053 128 000 053 128 000 053 128 000 053 128 000 053 128 000 053 128 000 053 128 000 053 128 000 053 128 255 255 255 255 255 255 255 255 255 255 255 255 255 255 255 255 255 255 255 255 255 255 255 255 255 255 255 255 255 255 255 255 255 255 255 255 255 255 255 255 255 255 255 255 255 255 255 255 255 255 255 255 255 255 255 255 255 255 255 255 255 255 255 255 255 255 255 255 255 255 255 255 255 255 255 255 255 255 255 255 255 255 255 255 255 255 255 255 255 255 255 255 255 255 255 255 255 255 255 255 255 255 255 255 255 255 255 255 255 255 255 255 255 255 255 255 255 255 255 255 255 255 255 255 255 255 255 255 255 255 255 255 255 255 255 255 255 255 255 255 255 255 255 255 255 255 255 255 255 255 255 255 255 255 255 255 255 255 255 255 255 255 255 255 255 255 255 255 255 255 255 255 255 255 255 255 255 255 255 255 255 255 255 255 255 255 255 255 255 255 255 255 255 255 255 255 255 255 255 255 255 255 255 255 255 255 255 255 255 255 255 255 255 255 255 255 255 255 255 255 255 255 255 255 255 255 255 255 255 255 255 255 255 255 255 255 255 255 255 255 255 255 255 255 255 255 255 255 255 255 255 255 255 255 255 255 255 255 255 255 255 255 255 255 255 255 255 255 255 255 255 255 255 255 255 255 255 255 255 255 255 255 255 255 255 255 255 255 255 255 255 255 255 255 255 255 255 255 255 255 255 255 255 255 255 255 255 255 255 255 255 255 255 255 255 255 255 255 255 255 255 255 255 255 255 255 255 255 255 255 255 255 255 255 255 255 255 255 255 255 255 255 255 255 255 255 255 255 255 255 255 255 255 255 255 255 255 255 255 255 255 255 255 255 255 255 255 255 255 255 255 255 255 255 255 255 255 255 255 255 255 255 255 255 255 255 255 255 255 255 255 255 255 255 255 255 255 255 255 255 255 255 255 255 255 255 255 255 255 255 255 255 255 255 255 255 255 255 255 255 255 255 255 255 255 255 255 255 255 255 255 255 255 255 255 255 255 255 255 255 255 255 255 255 255 255 255 255 255 255 000 053 128 000 053 128 000 053 128 000 053 128 000 053 128 000 053 128 000 053 128 000 053 128 000 053 128 000 053 128 000 053 128 000 053 128 000 053 128 000 053 128 000 053 128 000 053 128 000 053 128 000 053 128 000 053 128 000 053 128 000 053 128 000 053 128 000 053 128 000 053 128 000 053 128 000 053 128 000 053 128 000 053 128 000 053 128 000 053 128 255 255 255 255 255 255 255 255 255 255 255 255 255 255 255 255 255 255 255 255 255 255 255 255 255 255 255 255 255 255 255 255 255 255 255 255 255 255 255 255 255 255 255 255 255 255 255 255 255 255 255 255 255 255 255 255 255 255 255 255 255 255 255 255 255 255 255 255 255 255 255 255 255 255 255 255 255 255 255 255 255 255 255 255 255 255 255 255 255 255 255 255 255 255 255 255 255 255 255 255 255 255 255 255 255 255 255 255 255 255 255 255 255 255 255 255 255 255 255 255 255 255 255 255 255 255 255 255 255 255 255 255 255 255 255 255 255 255 255 255 255 255 255 255 255 255 255 255 255 255 255 255 255 255 255 255 255 255 255 255 255 255 255 255 255 255 255 255 255 255 255 255 255 255 255 255 255 255 255 255 255 255 255 255 255 255 255 255 255 255 255 255 255 255 255 255 255 255 255 255 255 255 255 255 255 255 255 255 255 255 255 255 255 255 255 255 255 255 255 255 255 255 255 255 255 255 255 255 255 255 255 255 255 255 255 255 255 255 255 255 255 255 255 255 255 255 255 255 255 255 255 255 255 255 255 255 255 255 255 255 255 255 255 255 255 255 255 255 255 255 255 255 255 255 255 255 255 255 255 255 255 255 255 255 255 255 255 255 255 255 255 255 255 255 255 255 255 255 255 255 