P3
200 100
255
255 205 000 255 205 000 255 205 000 255 205 000 255 205 000 255 205 000 255 205 000 255 205 000 255 205 000 255 205 000 255 205 000 255 205 000 255 205 000 255 205 000 255 205 000 255 205 000 255 205 000 255 205 000 000 151 057 000 151 057 000 151 057 000 151 057 000 151 057 000 151 057 000 151 057 000 151 057 000 151 057 000 151 057 000 151 057 000 151 057 000 151 057 000 151 057 000 151 057 000 151 057 000 151 057 000 151 057 000 151 057 000 151 057 000 151 057 000 151 057 000 151 057 000 151 057 000 151 057 000 151 057 000 151 057 000 151 057 000 151 057 000 151 057 000 151 057 000 151 057 000 151 057 000 151 057 000 151 057 000 151 057 000 151 057 000 151 057 000 151 057 000 151 057 000 151 057 000 151 057 000 151 057 000 151 057 000 151 057 000 151 057 000 151 057 000 151 057 000 151 057 000 151 057 000 151 057 000 151 057 000 151 057 000 151 057 000 151 057 000 151 057 000 151 057 000 151 057 000 151 057 000 151 057 000 151 057 000 151 057 000 151 057 000 151 057 000 151 057 000 151 057 000 151 057 000 151 057 000 151 057 000 151 057 000 151 057 000 151 057 000 151 057 000 151 057 000 151 057 000 151 057 000 151 057 000 151 057 000 151 057 000 151 057 000 151 057 000 151 057 000 151 057 000 151 057 000 151 057 000 151 057 000 151 057 000 151 057 000 151 057 000 151 057 000 151 057 000 151 057 000 151 057 000 151 057 000 151 057 000 151 057 000 151 057 000 151 057 000 151 057 000 151 057 000 151 057 000 151 057 000 151 057 000 151 057 000 151 057 000 151 057 000 151 057 000 151 057 000 151 057 000 151 057 000 151 057 000 151 057 000 151 057 000 151 057 000 151 057 000 151 057 000 151 057 000 151 057 000 151 057 000 151 057 000 151 057 000 151 057 000 151 057 000 151 057 000 151 057 000 151 057 000 151 057 000 151 057 000 151 057 000 151 057 000 151 057 000 151 057 000 151 057 000 151 057 000 151 057 000 151 057 000 151 057 000 151 057 000 151 057 000 151 057 000 151 057 000 151 057 000 151 057 000 151 057 000 151 057 000 151 057 000 151 057 000 151 057 000 151 057 000 151 057 000 151 057 000 151 057 000 151 057 000 151 057 000 151 057 000 151 057 000 151 057 000 151 057 000 151 057 000 151 057 000 151 057 000 151 057 000 151 057 000 151 057 255 205 000 255 205 000 255 205 000 255 205 000 255 205 000 255 205 000 255 205 000 255 205 000 255 205 000 255 205 000 255 205 000 255 205 000 255 205 000 255 205 000 255 205 000 255 205 000 255 205 000 255 205 000 255 205 000 255 205 000 255 205 000 255 205 000 255 205 000 255 205 000 255 205 000 255 205 000 255 205 000 255 205 000 255 205 000 255 205 000 255 205 000 255 205 000 255 205 000 255 205 000 255 205 000 255 205 000 255 205 000 255 205 000 000 151 057 000 151 057 000 151 057 000 151 057 000 151 057 000 151 057 000 151 057 000 151 057 000 151 057 000 151 057 000 151 057 000 151 057 000 151 057 000 151 057 000 151 057 000 151 057 000 151 057 000 151 057 000 151 057 000 151 057 000 151 057 000 151 057 000 151 057 000 151 057 000 151 057 000 151 057 000 151 057 000 151 057 000 151 057 000 151 057 000 151 057 000 151 057 000 151 057 000 151 057 000 151 057 000 151 057 000 151 057 000 151 057 000 151 057 000 151 057 000 151 057 000 151 057 000 151 057 000 151 057 000 151 057 000 151 057 000 151 057 000 151 057 000 151 057 000 151 057 000 151 057 000 151 057 000 151 057 000 151 057 000 151 057 000 151 057 000 151 057 000 151 057 000 151 057 000 151 057 000 151 057 000 151 057 000 151 057 000 151 057 000 151 057 000 151 057 000 151 057 000 151 057 000 151 057 000 151 057 000 151 057 000 151 057 000 151 057 000 151 057 000 151 057 000 151 057 000 151 057 000 151 057 000 151 057 000 151 057 000 151 057 000 151 057 000 151 057 000 151 057 000 151 057 000 151 057 000 151 057 000 151 057 000 151 057 000 151 057 000 151 057 000 151 057 000 151 057 000 151 057 000 151 057 000 151 057 000 151 057 000 151 057 000 151 057 000 151 057 000 151 057 000 151 057 000 151 057 000 151 057 000 151 057 000 151 057 000 151 057 000 151 057 000 151 057 000 151 057 000 151 057 000 151 057 000 151 057 000 151 057 000 151 057 000 151 057 000 151 057 000 151 057 000 151 057 000 151 057 000 151 057 000 151 057 000 151 057 000 151 057 000 151 057 000 151 057 000 151 057 000 151 057 000 151 057 000 151 057 000 151 057 000 151 057 000 151 057 000 151 057 000 151 057 000 151 057 000 151 057 000 151 057 000 151 057 000 151 057 000 151 057 000 151 057 000 151 057 000 151 057 000 151 057 000 151 057 000 151 057 000 151 057 000 151 057 000 151 057 000 151 057 000 151 057 000 151 057 000 151 057 000 151 057 000 151 057 000 151 057 000 151 057 000 151 057 000 151 057 255 205 000 255 205 000 255 205 000 255 205 000 255 205 000 255 205 000 255 205 000 255 205 000 255 205 000 255 205 000 255 205 000 255 205 000 255 205 000 255 205 000 255 205 000 255 205 000 255 205 000 255 205 000 255 205 000 255 205 000 255 205 000 255 205 000 255 205 000 255 205 000 255 205 000 255 205 000 255 205 000 255 205 000 255 205 000 255 205 000 255 205 000 255 205 000 255 205 000 255 205 000 255 205 000 255 205 000 255 205 000 255 205 000 255 205 000 255 205 000 255 205 000 255 205 000 000 151 057 000 151 057 000 151 057 000 151 057 000 151 057 000 151 057 000 151 057 000 151 057 000 151 057 000 151 057 000 151 057 000 151 057 000 151 057 000 151 057 000 151 057 000 151 057 000 151 057 000 151 057 000 151 057 000 151 057 000 151 057 000 151 057 000 151 057 000 151 057 000 151 057 000 151 057 000 151 057 000 151 057 000 151 057 000 151 057 000 151 057 000 151 057 000 151 057 000 151 057 000 151 057 000 151 057 000 151 057 000 151 057 000 151 057 000 151 057 000 151 057 000 151 057 000 151 057 000 151 057 000 151 057 000 151 057 000 151 057 000 151 057 000 151 057 000 151 057 000 151 057 000 151 057 000 151 057 000 151 057 000 151 057 000 151 057 000 151 057 000 151 057 000 151 057 000 151 057 000 151 057 000 151 057 000 151 057 000 151 057 000 151 057 000 151 057 000 151 057 000 151 057 000 151 057 000 151 057 000 151 057 000 151 057 000 151 057 000 151 057 000 151 057 000 151 057 000 151 057 000 151 057 000 151 057 000 151 057 000 151 057 000 151 057 000 151 057 000 151 057 000 151 057 000 151 057 000 151 057 000 151 057 000 151 057 000 151 057 000 151 057 000 151 057 000 151 057 000 151 057 000 151 057 000 151 057 000 151 057 000 151 057 000 151 057 000 151 057 000 151 057 000 151 057 000 151 057 000 151 057 000 151 057 000 151 057 000 151 057 000 151 057 000 151 057 000 151 057 000 151 057 000 151 057 000 151 057 000 151 057 000 151 057 000 151 057 000 151 057 000 151 057 000 151 057 000 151 057 000 151 057 000 151 057 000 151 057 000 151 057 000 151 057 000 151 057 000 151 057 000 151 057 000 151 057 000 151 057 000 151 057 000 151 057 000 151 057 000 151 057 000 151 057 000 151 057 000 151 057 000 151 057 000 151 057 000 151 057 000 151 057 000 151 057 000 151 057 000 151 057 000 151 057 000 151 057 000 151 057 000 151 057 000 151 057 000 151 057 000 151 057 000 151 057 000 151 057 000 151 057 000 151 057 000 151 057 255 205 000 255 205 000 255 205 000 255 205 000 255 205 000 255 205 000 255 205 000 255 205 000 255 205 000 255 205 000 255 205 000 255 205 000 255 205 000 255 205 000 255 205 000 255 205 000 255 205 000 255 205 000 255 205 000 255 205 000 255 205 000 255 205 000 255 205 000 255 205 000 255 205 000 255 205 000 255 205 000 255 205 000 255 205 000 255 205 000 255 205 000 255 205 000 255 205 000 255 205 000 255 205 000 255 205 000 255 205 000 255 205 000 255 205 000 255 205 000 255 205 000 255 205 000 255 205 000 255 205 000 255 205 000 255 205 000 000 151 057 000 151 057 000 151 057 000 151 057 000 151 057 000 151 057 000 151 057 000 151 057 000 151 057 000 151 057 000 151 057 000 151 057 000 151 057 000 151 057 000 151 057 000 151 057 000 151 057 000 151 057 000 151 057 000 151 057 000 151 057 000 151 057 000 151 057 000 151 057 000 151 057 000 151 057 000 151 057 000 151 057 000 151 057 000 151 057 000 151 057 000 151 057 000 151 057 000 151 057 000 151 057 000 151 057 000 151 057 000 151 057 000 151 057 000 151 057 000 151 057 000 151 057 000 151 057 000 151 057 000 151 057 000 151 057 000 151 057 000 151 057 000 151 057 000 151 057 000 151 057 000 151 057 000 151 057 000 151 057 000 151 057 000 151 057 000 151 057 000 151 057 000 151 057 000 151 057 000 151 057 000 151 057 000 151 057 000 151 057 000 151 057 000 151 057 000 151 057 000 151 057 000 151 057 000 151 057 000 151 057 000 151 057 000 151 057 000 151 057 000 151 057 000 151 057 000 151 057 000 151 057 000 151 057 000 151 057 000 151 057 000 151 057 000 151 057 000 151 057 000 151 057 000 151 057 000 151 057 000 151 057 000 151 057 000 151 057 000 151 057 000 151 057 000 151 057 000 151 057 000 151 057 000 151 057 000 151 057 000 151 057 000 151 057 000 151 057 000 151 057 000 151 057 000 151 057 000 151 057 000 151 057 000 151 057 000 151 057 000 151 057 000 151 057 000 151 057 000 151 057 000 151 057 000 151 057 000 151 057 000 151 057 000 151 057 000 151 057 000 151 057 000 151 057 000 151 057 000 151 057 000 151 057 000 151 057 000 151 057 000 151 057 000 151 057 000 151 057 000 151 057 000 151 057 000 151 057 000 151 057 000 151 057 000 151 057 000 151 057 000 151 057 000 151 057 000 151 057 000 151 057 000 151 057 000 151 057 000 151 057 000 151 057 000 151 057 000 151 057 000 151 057 000 151 057 000 151 057 000 151 057 000 151 057 000 151 057 000 151 057 000 151 057 255 205 000 255 205 000 255 205 000 255 205 000 255 205 000 255 205 000 255 205 000 255 205 000 255 205 000 255 205 000 255 205 000 255 205 000 255 205 000 255 205 000 255 205 000 255 205 000 255 205 000 255 205 000 255 205 000 255 205 000 255 205 000 255 205 000 255 205 000 255 205 000 255 205 000 255 205 000 255 205 000 255 205 000 255 205 000 255 205 000 255 205 000 255 205 000 255 205 000 255 205 000 255 205 000 255 205 000 255 205 000 255 205 000 255 205 000 255 205 000 255 205 000 255 205 000 255 205 000 255 205 000 255 205 000 255 205 000 255 205 000 255 205 000 255 205 000 255 205 000 000 151 057 000 151 057 000 151 057 000 151 057 000 151 057 000 151 057 000 151 057 000 151 057 000 151 057 000 151 057 000 151 057 000 151 057 000 151 057 000 151 057 000 151 057 000 151 057 000 151 057 000 151 057 000 151 057 000 151 057 000 151 057 000 151 057 000 151 057 000 151 057 000 151 057 000 151 057 000 151 057 000 151 057 000 151 057 000 151 057 000 151 057 000 151 057 000 151 057 000 151 057 000 151 057 000 151 057 000 151 057 000 151 057 000 151 057 000 151 057 000 151 057 000 151 057 000 151 057 000 151 057 000 151 057 000 151 057 000 151 057 000 151 057 000 151 057 000 151 057 000 151 057 000 151 057 000 151 057 000 151 057 000 151 057 000 151 057 000 151 057 000 151 057 000 151 057 000 151 057 000 151 057 000 151 057 000 151 057 000 151 057 000 151 057 000 151 057 000 151 057 000 151 057 000 151 057 000 151 057 000 151 057 000 151 057 000 151 057 000 151 057 000 151 057 000 151 057 000 151 057 000 151 057 000 151 057 000 151 057 000 151 057 000 151 057 000 151 057 000 151 057 000 151 057 000 151 057 000 151 057 000 151 057 000 151 057 000 151 057 000 151 057 000 151 057 000 151 057 000 151 057 000 151 057 000 151 057 000 151 057 000 151 057 000 151 057 000 151 057 000 151 057 000 151 057 000 151 057 000 151 057 000 151 057 000 151 057 000 151 057 000 151 057 000 151 057 000 151 057 000 151 057 000 151 057 000 151 057 000 151 057 000 151 057 000 151 057 000 151 057 000 151 057 000 151 057 000 151 057 000 151 057 000 151 057 000 151 057 000 151 057 000 151 057 000 151 057 000 151 057 000 151 057 000 151 057 000 151 057 000 151 057 000 151 057 000 151 057 000 151 057 000 151 057 000 151 057 000 151 057 000 151 057 000 151 057 000 151 057 000 151 057 000 151 057 000 151 057 000 151 057 000 151 057 000 151 057 000 151 057 000 151 057 255 205 000 255 205 000 255 205 000 255 205 000 255 205 000 255 205 000 255 205 000 255 205 000 255 205 000 255 205 000 255 205 000 255 205 000 255 205 000 255 205 000 255 205 000 255 205 000 255 205 000 255 205 000 255 205 000 255 205 000 255 205 000 255 205 000 255 205 000 255 205 000 255 205 000 255 205 000 255 205 000 255 205 000 255 205 000 255 205 000 255 205 000 255 205 000 255 205 000 255 205 000 255 205 000 255 205 000 255 205 000 255 205 000 255 205 000 255 205 000 255 205 000 255 205 000 255 205 000 255 205 000 255 205 000 255 205 000 255 205 000 255 205 000 255 205 000 255 205 000 255 205 000 255 205 000 255 205 000 255 205 000 000 151 057 000 151 057 000 151 057 000 151 057 000 151 057 000 151 057 000 151 057 000 151 057 000 151 057 000 151 057 000 151 057 000 151 057 000 151 057 000 151 057 000 151 057 000 151 057 000 151 057 000 151 057 000 151 057 000 151 057 000 151 057 000 151 057 000 151 057 000 151 057 000 151 057 000 151 057 000 151 057 000 151 057 000 151 057 000 151 057 000 151 057 000 151 057 000 151 057 000 151 057 000 151 057 000 151 057 000 151 057 000 151 057 000 151 057 000 151 057 000 151 057 000 151 057 000 151 057 000 151 057 000 151 057 000 151 057 000 151 057 000 151 057 000 151 057 000 151 057 000 151 057 000 151 057 000 151 057 000 151 057 000 151 057 000 151 057 000 151 057 000 151 057 000 151 057 000 151 057 000 151 057 000 151 057 000 151 057 000 151 057 000 151 057 000 151 057 000 151 057 000 151 057 000 151 057 000 151 057 000 151 057 000 151 057 000 151 057 000 151 057 000 151 057 000 151 057 000 151 057 000 151 057 000 151 057 000 151 057 000 151 057 000 151 057 000 151 057 000 151 057 000 151 057 000 151 057 000 151 057 000 151 057 000 151 057 000 151 057 000 151 057 000 151 057 000 151 057 000 151 057 000 151 057 000 151 057 000 151 057 000 151 057 000 151 057 000 151 057 000 151 057 000 151 057 000 151 057 000 151 057 000 151 057 000 151 057 000 151 057 000 151 057 000 151 057 000 151 057 000 151 057 000 151 057 000 151 057 000 151 057 000 151 057 000 151 057 000 151 057 000 151 057 000 151 057 000 151 057 000 151 057 000 151 057 000 151 057 000 151 057 000 151 057 000 151 057 000 151 057 000 151 057 000 151 057 000 151 057 000 151 057 000 151 057 000 151 057 000 151 057 000 151 057 000 151 057 000 151 057 000 151 057 000 151 057 000 151 057 000 151 057 000 151 057 000 151 057 000 151 057 255 205 000 255 205 000 255 205 000 255 205 000 255 205 000 255 205 000 255 205 000 255 205 000 255 205 000 255 205 000 255 205 000 255 205 000 255 205 000 255 205 000 255 205 000 255 205 000 255 205 000 255 205 000 255 205 000 255 205 000 255 205 000 255 205 000 255 205 000 255 205 000 255 205 000 255 205 000 255 205 000 255 205 000 255 205 000 255 205 000 255 205 000 255 205 000 255 205 000 255 205 000 255 205 000 255 205 000 255 205 000 255 205 000 255 205 000 255 205 000 255 205 000 255 205 000 255 205 000 255 205 000 255 205 000 255 205 000 255 205 000 255 205 000 255 205 000 255 205 000 255 205 000 255 205 000 255 205 000 255 205 000 255 205 000 255 205 000 255 205 000 255 205 000 000 151 057 000 151 057 000 151 057 000 151 057 000 151 057 000 151 057 000 151 057 000 151 057 000 151 057 000 151 057 000 151 057 000 151 057 000 151 057 000 151 057 000 151 057 000 151 057 000 151 057 000 151 057 000 151 057 000 151 057 000 151 057 000 151 057 000 151 057 000 151 057 000 151 057 000 151 057 000 151 057 000 151 057 000 151 057 000 151 057 000 151 057 000 151 057 000 151 057 000 151 057 000 151 057 000 151 057 000 151 057 000 151 057 000 151 057 000 151 057 000 151 057 000 151 057 000 151 057 000 151 057 000 151 057 000 151 057 000 151 057 000 151 057 000 151 057 000 151 057 000 151 057 000 151 057 000 151 057 000 151 057 000 151 057 000 151 057 000 151 057 000 151 057 000 151 057 000 151 057 000 151 057 000 151 057 000 151 057 000 151 057 000 151 057 000 151 057 000 151 057 000 151 057 000 151 057 000 151 057 000 151 057 000 151 057 000 151 057 000 151 057 000 151 057 000 151 057 000 151 057 000 151 057 000 151 057 000 151 057 000 151 057 000 151 057 000 151 057 000 151 057 000 151 057 000 151 057 000 151 057 000 151 057 000 151 057 000 151 057 000 151 057 000 151 057 000 151 057 000 151 057 000 151 057 000 151 057 000 151 057 000 151 057 000 151 057 000 151 057 000 151 057 000 151 057 000 151 057 000 151 057 000 151 057 000 151 057 000 151 057 000 151 057 000 151 057 000 151 057 000 151 057 000 151 057 000 151 057 000 151 057 000 151 057 000 151 057 000 151 057 000 151 057 000 151 057 000 151 057 000 151 057 000 151 057 000 151 057 000 151 057 000 151 057 000 151 057 000 151 057 000 151 057 000 151 057 000 151 057 000 151 057 000 151 057 000 151 057 000 151 057 000 151 057 000 151 057 000 151 057 000 151 057 000 151 057 000 151 057 255 205 000 255 205 000 255 205 000 255 205 000 255 205 000 255 205 000 255 205 000 255 205 000 255 205 000 255 205 000 255 205 000 255 205 000 255 205 000 255 205 000 255 205 000 255 205 000 255 205 000 255 205 000 255 205 000 255 205 000 255 205 000 255 205 000 255 205 000 255 205 000 255 205 000 255 205 000 255 205 000 255 205 000 255 205 000 255 205 000 255 205 000 255 205 000 255 205 000 255 205 000 255 205 000 255 205 000 255 205 000 255 205 000 255 205 000 255 205 000 255 205 000 255 205 000 255 205 000 255 205 000 255 205 000 255 205 000 255 205 000 255 205 000 255 205 000 255 205 000 255 205 000 255 205 000 255 205 000 255 205 000 255 205 000 255 205 000 255 205 000 255 205 000 255 205 000 255 205 000 255 205 000 255 205 000 000 151 057 000 151 057 000 151 057 000 151 057 000 151 057 000 151 057 000 151 057 000 151 057 000 151 057 000 151 057 000 151 057 000 151 057 000 151 057 000 151 057 000 151 057 000 151 057 000 151 057 000 151 057 000 151 057 000 151 057 000 151 057 000 151 057 000 151 057 000 151 057 000 151 057 000 151 057 000 151 057 000 151 057 000 151 057 000 151 057 000 151 057 000 151 057 000 151 057 000 151 057 000 151 057 000 151 057 000 151 057 000 151 057 000 151 057 000 151 057 000 151 057 000 151 057 000 151 057 000 151 057 000 151 057 000 151 057 000 151 057 000 151 057 000 151 057 000 151 057 000 151 057 000 151 057 000 151 057 000 151 057 000 151 057 000 151 057 000 151 057 000 151 057 000 151 057 000 151 057 000 151 057 000 151 057 000 151 057 000 151 057 000 151 057 000 151 057 000 151 057 000 151 057 000 151 057 000 151 057 000 151 057 000 151 057 000 151 057 000 151 057 000 151 057 000 151 057 000 151 057 000 151 057 000 151 057 000 151 057 000 151 057 000 151 057 000 151 057 000 151 057 000 151 057 000 151 057 000 151 057 000 151 057 000 151 057 000 151 057 000 151 057 000 151 057 000 151 057 000 151 057 000 151 057 000 151 057 000 151 057 000 151 057 000 151 057 000 151 057 000 151 057 000 151 057 000 151 057 000 151 057 000 151 057 000 151 057 000 151 057 000 151 057 000 151 057 000 151 057 000 151 057 000 151 057 000 151 057 000 151 057 000 151 057 000 151 057 000 151 057 000 151 057 000 151 057 000 151 057 000 151 057 000 151 057 000 151 057 000 151 057 000 151 057 000 151 057 000 151 057 000 151 057 000 151 057 000 151 057 000 151 057 000 151 057 000 151 057 000 151 057 000 151 057 000 151 057 255 205 000 255 205 000 255 205 000 255 205 000 255 205 000 255 205 000 255 205 000 255 205 000 255 205 000 255 205 000 255 205 000 255 205 000 255 205 000 255 205 000 255 205 000 255 205 000 255 205 000 255 205 000 255 205 000 255 205 000 255 205 000 255 205 000 255 205 000 255 205 000 255 205 000 255 205 000 255 205 000 255 205 000 255 205 000 255 205 000 255 205 000 255 205 000 255 205 000 255 205 000 255 205 000 255 205 000 255 205 000 255 205 000 255 205 000 255 205 000 255 205 000 255 205 000 255 205 000 255 205 000 255 205 000 255 205 000 255 205 000 255 205 000 255 205 000 255 205 000 255 205 000 255 205 000 255 205 000 255 205 000 255 205 000 255 205 000 255 205 000 255 205 000 255 205 000 255 205 000 255 205 000 255 205 000 255 205 000 255 205 000 255 205 000 255 205 000 000 151 057 000 151 057 000 151 057 000 151 057 000 151 057 000 151 057 000 151 057 000 151 057 000 151 057 000 151 057 000 151 057 000 151 057 000 151 057 000 151 057 000 151 057 000 151 057 000 151 057 000 151 057 000 151 057 000 151 057 000 151 057 000 151 057 000 151 057 000 151 057 000 151 057 000 151 057 000 151 057 000 151 057 000 151 057 000 151 057 000 151 057 000 151 057 000 151 057 000 151 057 000 151 057 000 151 057 000 151 057 000 151 057 000 151 057 000 151 057 000 151 057 000 151 057 000 151 057 000 151 057 000 151 057 000 151 057 000 151 057 000 151 057 000 151 057 000 151 057 000 151 057 000 151 057 000 151 057 000 151 057 000 151 057 000 151 057 000 151 057 000 151 057 000 151 057 000 151 057 000 151 057 000 151 057 000 151 057 000 151 057 000 151 057 000 151 057 000 151 057 000 151 057 000 151 057 000 151 057 000 151 057 000 151 057 000 151 057 000 151 057 000 151 057 000 151 057 000 151 057 000 151 057 000 151 057 000 151 057 000 151 057 000 151 057 000 151 057 000 151 057 000 151 057 000 151 057 000 151 057 000 151 057 000 151 057 000 151 057 000 151 057 000 151 057 000 151 057 000 151 057 000 151 057 000 151 057 000 151 057 000 151 057 000 151 057 000 151 057 000 151 057 000 151 057 000 151 057 000 151 057 000 151 057 000 151 057 000 151 057 000 151 057 000 151 057 000 151 057 000 151 057 000 151 057 000 151 057 000 151 057 000 151 057 000 151 057 000 151 057 000 151 057 000 151 057 000 151 057 000 151 057 000 151 057 000 151 057 000 151 057 000 151 057 000 151 057 000 151 057 000 151 057 000 151 057 000 151 057 000 151 057 000 151 057 255 205 000 255 205 000 255 205 000 255 205 000 255 205 000 255 205 000 255 205 000 255 205 000 255 205 000 255 205 000 255 205 000 255 205 000 255 205 000 255 205 000 255 205 000 255 205 000 255 205 000 255 205 000 255 205 000 255 205 000 255 205 000 255 205 000 255 205 000 255 205 000 255 205 000 255 205 000 255 205 000 255 205 000 255 205 000 255 205 000 255 205 000 255 205 000 255 205 000 255 205 000 255 205 000 255 205 000 255 205 000 255 205 000 255 205 000 255 205 000 255 205 000 255 205 000 255 205 000 255 205 000 255 205 000 255 205 000 255 205 000 255 205 000 255 205 000 255 205 000 255 205 000 255 205 000 255 205 000 255 205 000 255 205 000 255 205 000 255 205 000 255 205 000 255 205 000 255 205 000 255 205 000 255 205 000 255 205 000 255 205 000 255 205 000 255 205 000 255 205 000 255 205 000 255 205 000 255 205 000 000 151 057 000 151 057 000 151 057 000 151 057 000 151 057 000 151 057 000 151 057 000 151 057 000 151 057 000 151 057 000 151 057 000 151 057 000 151 057 000 151 057 000 151 057 000 151 057 000 151 057 000 151 057 000 151 057 000 151 057 000 151 057 000 151 057 000 151 057 000 151 057 000 151 057 000 151 057 000 151 057 000 151 057 000 151 057 000 151 057 000 151 057 000 151 057 000 151 057 000 151 057 000 151 057 000 151 057 000 151 057 000 151 057 000 151 057 000 151 057 000 151 057 000 151 057 000 151 057 000 151 057 000 151 057 000 151 057 000 151 057 000 151 057 000 151 057 000 151 057 000 151 057 000 151 057 000 151 057 000 151 057 000 151 057 000 151 057 000 151 057 000 151 057 000 151 057 000 151 057 000 151 057 000 151 057 000 151 057 000 151 057 000 151 057 000 151 057 000 151 057 000 151 057 000 151 057 000 151 057 000 151 057 000 151 057 000 151 057 000 151 057 000 151 057 000 151 057 000 151 057 000 151 057 000 151 057 000 151 057 000 151 057 000 151 057 000 151 057 000 151 057 000 151 057 000 151 057 000 151 057 000 151 057 000 151 057 000 151 057 000 151 057 000 151 057 000 151 057 000 151 057 000 151 057 000 151 057 000 151 057 000 151 057 000 151 057 000 151 057 000 151 057 000 151 057 000 151 057 000 151 057 000 151 057 000 151 057 000 151 057 000 151 057 000 151 057 000 151 057 000 151 057 000 151 057 000 151 057 000 151 057 000 151 057 000 151 057 000 151 057 000 151 057 000 151 057 000 151 057 000 151 057 000 151 057 000 151 057 000 151 057 000 151 057 000 151 057 000 151 057 000 151 057 255 205 000 255 205 000 255 205 000 255 205 000 255 205 000 255 205 000 255 205 000 255 205 000 255 205 000 255 205 000 255 205 000 255 205 000 255 205 000 255 205 000 255 205 000 255 205 000 255 205 000 255 205 000 255 205 000 255 205 000 255 205 000 255 205 000 255 205 000 255 205 000 255 205 000 255 205 000 255 205 000 255 205 000 255 205 000 255 205 000 255 205 000 255 205 000 255 205 000 255 205 000 255 205 000 255 205 000 000 000 000 000 000 000 255 205 000 255 205 000 255 205 000 255 205 000 255 205 000 255 205 000 255 205 000 255 205 000 255 205 000 255 205 000 255 205 000 255 205 000 255 205 000 255 205 000 255 205 000 255 205 000 255 205 000 255 205 000 255 205 000 255 205 000 255 205 000 255 205 000 255 205 000 255 205 000 255 205 000 255 205 000 255 205 000 255 205 000 255 205 000 255 205 000 255 205 000 255 205 000 255 205 000 255 205 000 255 205 000 255 205 000 000 151 057 000 151 057 000 151 057 000 151 057 000 151 057 000 151 057 000 151 057 000 151 057 000 151 057 000 151 057 000 151 057 000 151 057 000 151 057 000 151 057 000 151 057 000 151 057 000 151 057 000 151 057 000 151 057 000 151 057 000 151 057 000 151 057 000 151 057 000 151 057 000 151 057 000 151 057 000 151 057 000 151 057 000 151 057 000 151 057 000 151 057 000 151 057 000 151 057 000 151 057 000 151 057 000 151 057 000 151 057 000 151 057 000 151 057 000 151 057 000 151 057 000 151 057 000 151 057 000 151 057 000 151 057 000 151 057 000 151 057 000 151 057 000 151 057 000 151 057 000 151 057 000 151 057 000 151 057 000 151 057 000 151 057 000 151 057 000 151 057 000 151 057 000 151 057 000 151 057 000 151 057 000 151 057 000 151 057 000 151 057 000 151 057 000 151 057 000 151 057 000 151 057 000 151 057 000 151 057 000 151 057 000 151 057 000 151 057 000 151 057 000 151 057 000 151 057 000 151 057 000 151 057 000 151 057 000 151 057 000 151 057 000 151 057 000 151 057 000 151 057 000 151 057 000 151 057 000 151 057 000 151 057 000 151 057 000 151 057 000 151 057 000 151 057 000 151 057 000 151 057 000 151 057 000 151 057 000 151 057 000 151 057 000 151 057 000 151 057 000 151 057 000 151 057 000 151 057 000 151 057 000 151 057 000 151 057 000 151 057 000 151 057 000 151 057 000 151 057 000 151 057 000 151 057 000 151 057 000 151 057 000 151 057 000 151 057 000 151 057 000 151 057 000 151 057 000 151 057 000 151 057 000 151 057 000 151 057 000 151 057 255 205 000 255 205 000 255 205 000 255 205 000 255 205 000 255 205 000 255 205 000 255 205 000 255 205 000 255 205 000 255 205 000 255 205 000 255 205 000 255 205 000 255 205 000 255 205 000 255 205 000 255 205 000 255 205 000 255 205 000 255 205 000 255 205 000 255 205 000 255 205 000 255 205 000 255 205 000 255 205 000 255 205 000 255 205 000 255 205 000 255 205 000 255 205 000 255 205 000 255 205 000 255 205 000 255 205 000 000 000 000 000 000 000 000 000 000 000 000 000 000 000 000 000 000 000 255 205 000 255 205 000 255 205 000 255 205 000 255 205 000 255 205 000 255 205 000 255 205 000 255 205 000 255 205 000 255 205 000 255 205 000 255 205 000 255 205 000 255 205 000 255 205 000 255 205 000 255 205 000 255 205 000 255 205 000 255 205 000 255 205 000 255 205 000 255 205 000 255 205 000 255 205 000 255 205 000 255 205 000 255 205 000 255 205 000 255 205 000 255 205 000 255 205 000 255 205 000 255 205 000 255 205 000 000 151 057 000 151 057 000 151 057 000 151 057 000 151 057 000 151 057 000 151 057 000 151 057 000 151 057 000 151 057 000 151 057 000 151 057 000 151 057 000 151 057 000 151 057 000 151 057 000 151 057 000 151 057 000 151 057 000 151 057 000 151 057 000 151 057 000 151 057 000 151 057 000 151 057 000 151 057 000 151 057 000 151 057 000 151 057 000 151 057 000 151 057 000 151 057 000 151 057 000 151 057 000 151 057 000 151 057 000 151 057 000 151 057 000 151 057 000 151 057 000 151 057 000 151 057 000 151 057 000 151 057 000 151 057 000 151 057 000 151 057 000 151 057 000 151 057 000 151 057 000 151 057 000 151 057 000 151 057 000 151 057 000 151 057 000 151 057 000 151 057 000 151 057 000 151 057 000 151 057 000 151 057 000 151 057 000 151 057 000 151 057 000 151 057 000 151 057 000 151 057 000 151 057 000 151 057 000 151 057 000 151 057 000 151 057 000 151 057 000 151 057 000 151 057 000 151 057 000 151 057 000 151 057 000 151 057 000 151 057 000 151 057 000 151 057 000 151 057 000 151 057 000 151 057 000 151 057 000 151 057 000 151 057 000 151 057 000 151 057 000 151 057 000 151 057 000 151 057 000 151 057 000 151 057 000 151 057 000 151 057 000 151 057 000 151 057 000 151 057 000 151 057 000 151 057 000 151 057 000 151 057 000 151 057 000 151 057 000 151 057 000 151 057 000 151 057 000 151 057 000 151 057 000 151 057 000 151 057 000 151 057 000 151 057 000 151 057 000 151 057 000 151 057 000 151 057 000 151 057 255 205 000 255 205 000 255 205 000 255 205 000 255 205 000 255 205 000 255 205 000 255 205 000 255 205 000 255 205 000 255 205 000 255 205 000 255 205 000 255 205 000 255 205 000 255 205 000 255 205 000 255 205 000 255 205 000 255 205 000 255 205 000 255 205 000 255 205 000 255 205 000 255 205 000 255 205 000 255 205 000 255 205 000 255 205 000 255 205 000 255 205 000 255 205 000 255 205 000 255 205 000 255 205 000 255 205 000 000 000 000 000 000 000 000 000 000 000 000 000 000 000 000 000 000 000 000 000 000 000 000 000 000 000 000 000 000 000 255 205 000 255 205 000 255 205 000 255 205 000 255 205 000 255 205 000 255 205 000 255 205 000 255 205 000 255 205 000 255 205 000 255 205 000 255 205 000 255 205 000 255 205 000 255 205 000 255 205 000 255 205 000 255 205 000 255 205 000 255 205 000 255 205 000 255 205 000 255 205 000 255 205 000 255 205 000 255 205 000 255 205 000 255 205 000 255 205 000 255 205 000 255 205 000 255 205 000 255 205 000 255 205 000 255 205 000 000 151 057 000 151 057 000 151 057 000 151 057 000 151 057 000 151 057 000 151 057 000 151 057 000 151 057 000 151 057 000 151 057 000 151 057 000 151 057 000 151 057 000 151 057 000 151 057 000 151 057 000 151 057 000 151 057 000 151 057 000 151 057 000 151 057 000 151 057 000 151 057 000 151 057 000 151 057 000 151 057 000 151 057 000 151 057 000 151 057 000 151 057 000 151 057 000 151 057 000 151 057 000 151 057 000 151 057 000 151 057 000 151 057 000 151 057 000 151 057 000 151 057 000 151 057 000 151 057 000 151 057 000 151 057 000 151 057 000 151 057 000 151 057 000 151 057 000 151 057 000 151 057 000 151 057 000 151 057 000 151 057 000 151 057 000 151 057 000 151 057 000 151 057 000 151 057 000 151 057 000 151 057 000 151 057 000 151 057 000 151 057 000 151 057 000 151 057 000 151 057 000 151 057 000 151 057 000 151 057 000 151 057 000 151 057 000 151 057 000 151 057 000 151 057 000 151 057 000 151 057 000 151 057 000 151 057 000 151 057 000 151 057 000 151 057 000 151 057 000 151 057 000 151 057 000 151 057 000 151 057 000 151 057 000 151 057 000 151 057 000 151 057 000 151 057 000 151 057 000 151 057 000 151 057 000 151 057 000 151 057 000 151 057 000 151 057 000 151 057 000 151 057 000 151 057 000 151 057 000 151 057 000 151 057 000 151 057 000 151 057 000 151 057 000 151 057 000 151 057 000 151 057 000 151 057 000 151 057 000 151 057 000 151 057 000 151 057 255 205 000 255 205 000 255 205 000 255 205 000 255 205 000 255 205 000 255 205 000 255 205 000 255 205 000 255 205 000 255 205 000 255 205 000 255 205 000 255 205 000 255 205 000 255 205 000 255 205 000 255 205 000 255 205 000 255 205 000 255 205 000 255 205 000 255 205 000 255 205 000 255 205 000 255 205 000 255 205 000 255 205 000 255 205 000 255 205 000 255 205 000 255 205 000 255 205 000 255 205 000 255 205 000 255 205 000 000 000 000 000 000 000 000 000 000 000 000 000 000 000 000 000 000 000 000 000 000 000 000 000 000 000 000 000 000 000 000 000 000 000 000 000 000 000 000 000 000 000 255 205 000 255 205 000 255 205 000 255 205 000 255 205 000 255 205 000 255 205 000 255 205 000 255 205 000 255 205 000 255 205 000 255 205 000 255 205 000 255 205 000 255 205 000 255 205 000 255 205 000 255 205 000 255 205 000 255 205 000 255 205 000 255 205 000 255 205 000 255 205 000 255 205 000 255 205 000 255 205 000 255 205 000 255 205 000 255 205 000 255 205 000 255 205 000 255 205 000 255 205 000 255 205 000 255 205 000 000 151 057 000 151 057 000 151 057 000 151 057 000 151 057 000 151 057 000 151 057 000 151 057 000 151 057 000 151 057 000 151 057 000 151 057 000 151 057 000 151 057 000 151 057 000 151 057 000 151 057 000 151 057 000 151 057 000 151 057 000 151 057 000 151 057 000 151 057 000 151 057 000 151 057 000 151 057 000 151 057 000 151 057 000 151 057 000 151 057 000 151 057 000 151 057 000 151 057 000 151 057 000 151 057 000 151 057 000 151 057 000 151 057 000 151 057 000 151 057 000 151 057 000 151 057 000 151 057 000 151 057 000 151 057 000 151 057 000 151 057 000 151 057 000 151 057 000 151 057 000 151 057 000 151 057 000 151 057 000 151 057 000 151 057 000 151 057 000 151 057 000 151 057 000 151 057 000 151 057 000 151 057 000 151 057 000 151 057 000 151 057 000 151 057 000 151 057 000 151 057 000 151 057 000 151 057 000 151 057 000 151 057 000 151 057 000 151 057 000 151 057 000 151 057 000 151 057 000 151 057 000 151 057 000 151 057 000 151 057 000 151 057 000 151 057 000 151 057 000 151 057 000 151 057 000 151 057 000 151 057 000 151 057 000 151 057 000 151 057 000 151 057 000 151 057 000 151 057 000 151 057 000 151 057 000 151 057 000 151 057 000 151 057 000 151 057 000 151 057 000 151 057 000 151 057 000 151 057 000 151 057 000 151 057 000 151 057 000 151 057 000 151 057 000 151 057 000 151 057 000 151 057 000 151 057 255 205 000 255 205 000 255 205 000 255 205 000 255 205 000 255 205 000 255 205 000 255 205 000 255 205 000 255 205 000 255 205 000 255 205 000 255 205 000 255 205 000 255 205 000 255 205 000 255 205 000 255 205 000 255 205 000 255 205 000 255 205 000 255 205 000 255 205 000 255 205 000 255 205 000 255 205 000 255 205 000 255 205 000 255 205 000 255 205 000 255 205 000 255 205 000 255 205 000 255 205 000 255 205 000 255 205 000 000 000 000 000 000 000 000 000 000 000 000 000 000 000 000 000 000 000 000 000 000 000 000 000 000 000 000 000 000 000 000 000 000 000 000 000 000 000 000 000 000 000 000 000 000 000 000 000 000 000 000 000 000 000 255 205 000 255 205 000 255 205 000 255 205 000 255 205 000 255 205 000 255 205 000 255 205 000 255 205 000 255 205 000 255 205 000 255 205 000 255 205 000 255 205 000 255 205 000 255 205 000 255 205 000 255 205 000 255 205 000 255 205 000 255 205 000 255 205 000 255 205 000 255 205 000 255 205 000 255 205 000 255 205 000 255 205 000 255 205 000 255 205 000 255 205 000 255 205 000 255 205 000 255 205 000 255 205 000 255 205 000 000 151 057 000 151 057 000 151 057 000 151 057 000 151 057 000 151 057 000 151 057 000 151 057 000 151 057 000 151 057 000 151 057 000 151 057 000 151 057 000 151 057 000 151 057 000 151 057 000 151 057 000 151 057 000 151 057 000 151 057 000 151 057 000 151 057 000 151 057 000 151 057 000 151 057 000 151 057 000 151 057 000 151 057 000 151 057 000 151 057 000 151 057 000 151 057 000 151 057 000 151 057 000 151 057 000 151 057 000 151 057 000 151 057 000 151 057 000 151 057 000 151 057 000 151 057 000 151 057 000 151 057 000 151 057 000 151 057 000 151 057 000 151 057 000 151 057 000 151 057 000 151 057 000 151 057 000 151 057 000 151 057 000 151 057 000 151 057 000 151 057 000 151 057 000 151 057 000 151 057 000 151 057 000 151 057 000 151 057 000 151 057 000 151 057 000 151 057 000 151 057 000 151 057 000 151 057 000 151 057 000 151 057 000 151 057 000 151 057 000 151 057 000 151 057 000 151 057 000 151 057 000 151 057 000 151 057 000 151 057 000 151 057 000 151 057 000 151 057 000 151 057 000 151 057 000 151 057 000 151 057 000 151 057 000 151 057 000 151 057 000 151 057 000 151 057 000 151 057 000 151 057 000 151 057 000 151 057 000 151 057 000 151 057 000 151 057 000 151 057 000 151 057 000 151 057 000 151 057 000 151 057 000 151 057 000 151 057 000 151 057 000 151 057 255 205 000 255 205 000 255 205 000 255 205 000 255 205 000 255 205 000 255 205 000 255 205 000 255 205 000 255 205 000 255 205 000 255 205 000 255 205 000 255 205 000 255 205 000 255 205 000 255 205 000 255 205 000 255 205 000 255 205 000 255 205 000 255 205 000 255 205 000 255 205 000 255 205 000 255 205 000 255 205 000 255 205 000 255 205 000 255 205 000 255 205 000 255 205 000 255 205 000 255 205 000 255 205 000 255 205 000 000 000 000 000 000 000 000 000 000 000 000 000 000 000 000 000 000 000 000 000 000 000 000 000 000 000 000 000 000 000 000 000 000 000 000 000 000 000 000 000 000 000 000 000 000 000 000 000 000 000 000 000 000 000 000 000 000 000 000 000 000 000 000 000 000 000 255 205 000 255 205 000 255 205 000 255 205 000 255 205 000 255 205 000 255 205 000 255 205 000 255 205 000 255 205 000 255 205 000 255 205 000 255 205 000 255 205 000 255 205 000 255 205 000 255 205 000 255 205 000 255 205 000 255 205 000 255 205 000 255 205 000 255 205 000 255 205 000 255 205 000 255 205 000 255 205 000 255 205 000 255 205 000 255 205 000 255 205 000 255 205 000 255 205 000 255 205 000 255 205 000 255 205 000 000 151 057 000 151 057 000 151 057 000 151 057 000 151 057 000 151 057 000 151 057 000 151 057 000 151 057 000 151 057 000 151 057 000 151 057 000 151 057 000 151 057 000 151 057 000 151 057 000 151 057 000 151 057 000 151 057 000 151 057 000 151 057 000 151 057 000 151 057 000 151 057 000 151 057 000 151 057 000 151 057 000 151 057 000 151 057 000 151 057 000 151 057 000 151 057 000 151 057 000 151 057 000 151 057 000 151 057 000 151 057 000 151 057 000 151 057 000 151 057 000 151 057 000 151 057 000 151 057 000 151 057 000 151 057 000 151 057 000 151 057 000 151 057 000 151 057 000 151 057 000 151 057 000 151 057 000 151 057 000 151 057 000 151 057 000 151 057 000 151 057 000 151 057 000 151 057 000 151 057 000 151 057 000 151 057 000 151 057 000 151 057 000 151 057 000 151 057 000 151 057 000 151 057 000 151 057 000 151 057 000 151 057 000 151 057 000 151 057 000 151 057 000 151 057 000 151 057 000 151 057 000 151 057 000 151 057 000 151 057 000 151 057 000 151 057 000 151 057 000 151 057 000 151 057 000 151 057 000 151 057 000 151 057 000 151 057 000 151 057 000 151 057 000 151 057 000 151 057 000 151 057 000 151 057 000 151 057 000 151 057 000 151 057 000 151 057 000 151 057 000 151 057 000 151 057 000 151 057 000 151 057 255 205 000 255 205 000 255 205 000 255 205 000 255 205 000 255 205 000 255 205 000 255 205 000 255 205 000 255 205 000 255 205 000 255 205 000 255 205 000 255 205 000 255 205 000 255 205 000 255 205 000 255 205 000 255 205 000 255 205 000 255 205 000 255 205 000 255 205 000 255 205 000 255 205 000 255 205 000 255 205 000 255 205 000 255 205 000 255 205 000 255 205 000 255 205 000 255 205 000 255 205 000 255 205 000 255 205 000 000 000 000 000 000 000 000 000 000 000 000 000 000 000 000 000 000 000 000 000 000 000 000 000 000 000 000 000 000 000 000 000 000 000 000 000 000 000 000 000 000 000 000 000 000 000 000 000 000 000 000 000 000 000 000 000 000 000 000 000 000 000 000 000 000 000 000 000 000 000 000 000 000 000 000 000 000 000 255 205 000 255 205 000 255 205 000 255 205 000 255 205 000 255 205 000 255 205 000 255 205 000 255 205 000 255 205 000 255 205 000 255 205 000 255 205 000 255 205 000 255 205 000 255 205 000 255 205 000 255 205 000 255 205 000 255 205 000 255 205 000 255 205 000 255 205 000 255 205 000 255 205 000 255 205 000 255 205 000 255 205 000 255 205 000 255 205 000 255 205 000 255 205 000 255 205 000 255 205 000 255 205 000 255 205 000 000 151 057 000 151 057 000 151 057 000 151 057 000 151 057 000 151 057 000 151 057 000 151 057 000 151 057 000 151 057 000 151 057 000 151 057 000 151 057 000 151 057 000 151 057 000 151 057 000 151 057 000 151 057 000 151 057 000 151 057 000 151 057 000 151 057 000 151 057 000 151 057 000 151 057 000 151 057 000 151 057 000 151 057 000 151 057 000 151 057 000 151 057 000 151 057 000 151 057 000 151 057 000 151 057 000 151 057 000 151 057 000 151 057 000 151 057 000 151 057 000 151 057 000 151 057 000 151 057 000 151 057 000 151 057 000 151 057 000 151 057 000 151 057 000 151 057 000 151 057 000 151 057 000 151 057 000 151 057 000 151 057 000 151 057 000 151 057 000 151 057 000 151 057 000 151 057 000 151 057 000 151 057 000 151 057 000 151 057 000 151 057 000 151 057 000 151 057 000 151 057 000 151 057 000 151 057 000 151 057 000 151 057 000 151 057 000 151 057 000 151 057 000 151 057 000 151 057 000 151 057 000 151 057 000 151 057 000 151 057 000 151 057 000 151 057 000 151 057 000 151 057 000 151 057 000 151 057 000 151 057 000 151 057 000 151 057 000 151 057 000 151 057 000 151 057 000 151 057 000 151 057 000 151 057 000 151 057 000 151 057 000 151 057 000 151 057 000 151 057 255 205 000 255 205 000 255 205 000 255 205 000 255 205 000 255 205 000 255 205 000 255 205 000 255 205 000 255 205 000 255 205 000 255 205 000 255 205 000 255 205 000 255 205 000 255 205 000 255 205 000 255 205 000 255 205 000 255 205 000 255 205 000 255 205 000 255 205 000 255 205 000 255 205 000 255 205 000 255 205 000 255 205 000 255 205 000 255 205 000 255 205 000 255 205 000 255 205 000 255 205 000 255 205 000 255 205 000 000 000 000 000 000 000 000 000 000 000 000 000 000 000 000 000 000 000 000 000 000 000 000 000 000 000 000 000 000 000 000 000 000 000 000 000 000 000 000 000 000 000 000 000 000 000 000 000 000 000 000 000 000 000 000 000 000 000 000 000 000 000 000 000 000 000 000 000 000 000 000 000 000 000 000 000 000 000 000 000 000 000 000 000 000 000 000 000 000 000 255 205 000 255 205 000 255 205 000 255 205 000 255 205 000 255 205 000 255 205 000 255 205 000 255 205 000 255 205 000 255 205 000 255 205 000 255 205 000 255 205 000 255 205 000 255 205 000 255 205 000 255 205 000 255 205 000 255 205 000 255 205 000 255 205 000 255 205 000 255 205 000 255 205 000 255 205 000 255 205 000 255 205 000 255 205 000 255 205 000 255 205 000 255 205 000 255 205 000 255 205 000 255 205 000 255 205 000 000 151 057 000 151 057 000 151 057 000 151 057 000 151 057 000 151 057 000 151 057 000 151 057 000 151 057 000 151 057 000 151 057 000 151 057 000 151 057 000 151 057 000 151 057 000 151 057 000 151 057 000 151 057 000 151 057 000 151 057 000 151 057 000 151 057 000 151 057 000 151 057 000 151 057 000 151 057 000 151 057 000 151 057 000 151 057 000 151 057 000 151 057 000 151 057 000 151 057 000 151 057 000 151 057 000 151 057 000 151 057 000 151 057 000 151 057 000 151 057 000 151 057 000 151 057 000 151 057 000 151 057 000 151 057 000 151 057 000 151 057 000 151 057 000 151 057 000 151 057 000 151 057 000 151 057 000 151 057 000 151 057 000 151 057 000 151 057 000 151 057 000 151 057 000 151 057 000 151 057 000 151 057 000 151 057 000 151 057 000 151 057 000 151 057 000 151 057 000 151 057 000 151 057 000 151 057 000 151 057 000 151 057 000 151 057 000 151 057 000 151 057 000 151 057 000 151 057 000 151 057 000 151 057 000 151 057 000 151 057 000 151 057 000 151 057 000 151 057 000 151 057 000 151 057 000 151 057 000 151 057 000 151 057 000 151 057 000 151 057 000 151 057 000 151 057 000 151 057 000 151 057 000 151 057 000 151 057 255 205 000 255 205 000 255 205 000 255 205 000 255 205 000 255 205 000 255 205 000 255 205 000 255 205 000 255 205 000 255 205 000 255 205 000 255 205 000 255 205 000 255 205 000 255 205 000 255 205 000 255 205 000 255 205 000 255 205 000 255 205 000 255 205 000 255 205 000 255 205 000 255 205 000 255 205 000 255 205 000 255 205 000 255 205 000 255 205 000 255 205 000 255 205 000 255 205 000 255 205 000 255 205 000 255 205 000 000 000 000 000 000 000 000 000 000 000 000 000 000 000 000 000 000 000 000 000 000 000 000 000 000 000 000 000 000 000 000 000 000 000 000 000 000 000 000 000 000 000 000 000 000 000 000 000 000 000 000 000 000 000 000 000 000 000 000 000 000 000 000 000 000 000 000 000 000 000 000 000 000 000 000 000 000 000 000 000 000 000 000 000 000 000 000 000 000 000 000 000 000 000 000 000 000 000 000 000 000 000 255 205 000 255 205 000 255 205 000 255 205 000 255 205 000 255 205 000 255 205 000 255 205 000 255 205 000 255 205 000 255 205 000 255 205 000 255 205 000 255 205 000 255 205 000 255 205 000 255 205 000 255 205 000 255 205 000 255 205 000 255 205 000 255 205 000 255 205 000 255 205 000 255 205 000 255 205 000 255 205 000 255 205 000 255 205 000 255 205 000 255 205 000 255 205 000 255 205 000 255 205 000 255 205 000 255 205 000 000 151 057 000 151 057 000 151 057 000 151 057 000 151 057 000 151 057 000 151 057 000 151 057 000 151 057 000 151 057 000 151 057 000 151 057 000 151 057 000 151 057 000 151 057 000 151 057 000 151 057 000 151 057 000 151 057 000 151 057 000 151 057 000 151 057 000 151 057 000 151 057 000 151 057 000 151 057 000 151 057 000 151 057 000 151 057 000 151 057 000 151 057 000 151 057 000 151 057 000 151 057 000 151 057 000 151 057 000 151 057 000 151 057 000 151 057 000 151 057 000 151 057 000 151 057 000 151 057 000 151 057 000 151 057 000 151 057 000 151 057 000 151 057 000 151 057 000 151 057 000 151 057 000 151 057 000 151 057 000 151 057 000 151 057 000 151 057 000 151 057 000 151 057 000 151 057 000 151 057 000 151 057 000 151 057 000 151 057 000 151 057 000 151 057 000 151 057 000 151 057 000 151 057 000 151 057 000 151 057 000 151 057 000 151 057 000 151 057 000 151 057 000 151 057 000 151 057 000 151 057 000 151 057 000 151 057 000 151 057 000 151 057 000 151 057 000 151 057 000 151 057 000 151 057 000 151 057 000 151 057 000 151 057 000 151 057 000 151 057 000 151 057 000 151 057 255 205 000 255 205 000 255 205 000 255 205 000 255 205 000 255 205 000 255 205 000 255 205 000 255 205 000 255 205 000 255 205 000 255 205 000 255 205 000 255 205 000 255 205 000 255 205 000 255 205 000 255 205 000 255 205 000 255 205 000 255 205 000 255 205 000 255 205 000 255 205 000 255 205 000 255 205 000 255 205 000 255 205 000 255 205 000 255 205 000 255 205 000 255 205 000 255 205 000 255 205 000 255 205 000 255 205 000 000 000 000 000 000 000 000 000 000 000 000 000 000 000 000 000 000 000 000 000 000 000 000 000 000 000 000 000 000 000 000 000 000 000 000 000 000 000 000 000 000 000 000 000 000 000 000 000 000 000 000 000 000 000 000 000 000 000 000 000 000 000 000 000 000 000 000 000 000 000 000 000 000 000 000 000 000 000 000 000 000 000 000 000 000 000 000 000 000 000 000 000 000 000 000 000 000 000 000 000 000 000 000 000 000 000 000 000 000 000 000 000 000 000 255 205 000 255 205 000 255 205 000 255 205 000 255 205 000 255 205 000 255 205 000 255 205 000 255 205 000 255 205 000 255 205 000 255 205 000 255 205 000 255 205 000 255 205 000 255 205 000 255 205 000 255 205 000 255 205 000 255 205 000 255 205 000 255 205 000 255 205 000 255 205 000 255 205 000 255 205 000 255 205 000 255 205 000 255 205 000 255 205 000 255 205 000 255 205 000 255 205 000 255 205 000 255 205 000 255 205 000 000 151 057 000 151 057 000 151 057 000 151 057 000 151 057 000 151 057 000 151 057 000 151 057 000 151 057 000 151 057 000 151 057 000 151 057 000 151 057 000 151 057 000 151 057 000 151 057 000 151 057 000 151 057 000 151 057 000 151 057 000 151 057 000 151 057 000 151 057 000 151 057 000 151 057 000 151 057 000 151 057 000 151 057 000 151 057 000 151 057 000 151 057 000 151 057 000 151 057 000 151 057 000 151 057 000 151 057 000 151 057 000 151 057 000 151 057 000 151 057 000 151 057 000 151 057 000 151 057 000 151 057 000 151 057 000 151 057 000 151 057 000 151 057 000 151 057 000 151 057 000 151 057 000 151 057 000 151 057 000 151 057 000 151 057 000 151 057 000 151 057 000 151 057 000 151 057 000 151 057 000 151 057 000 151 057 000 151 057 000 151 057 000 151 057 000 151 057 000 151 057 000 151 057 000 151 057 000 151 057 000 151 057 000 151 057 000 151 057 000 151 057 000 151 057 000 151 057 000 151 057 000 151 057 000 151 057 000 151 057 000 151 057 000 151 057 000 151 057 000 151 057 000 151 057 000 151 057 000 151 057 000 151 057 255 205 000 255 205 000 255 205 000 255 205 000 255 205 000 255 205 000 255 205 000 255 205 000 255 205 000 255 205 000 255 205 000 255 205 000 255 205 000 255 205 000 255 205 000 255 205 000 255 205 000 255 205 000 255 205 000 255 205 000 255 205 000 255 205 000 255 205 000 255 205 000 255 205 000 255 205 000 255 205 000 255 205 000 255 205 000 255 205 000 255 205 000 255 205 000 255 205 000 255 205 000 255 205 000 255 205 000 000 000 000 000 000 000 000 000 000 000 000 000 000 000 000 000 000 000 000 000 000 000 000 000 000 000 000 000 000 000 000 000 000 000 000 000 000 000 000 000 000 000 000 000 000 000 000 000 000 000 000 000 000 000 000 000 000 000 000 000 000 000 000 000 000 000 000 000 000 000 000 000 000 000 000 000 000 000 000 000 000 000 000 000 000 000 000 000 000 000 000 000 000 000 000 000 000 000 000 000 000 000 000 000 000 000 000 000 000 000 000 000 000 000 000 000 000 000 000 000 000 000 000 000 000 000 255 205 000 255 205 000 255 205 000 255 205 000 255 205 000 255 205 000 255 205 000 255 205 000 255 205 000 255 205 000 255 205 000 255 205 000 255 205 000 255 205 000 255 205 000 255 205 000 255 205 000 255 205 000 255 205 000 255 205 000 255 205 000 255 205 000 255 205 000 255 205 000 255 205 000 255 205 000 255 205 000 255 205 000 255 205 000 255 205 000 255 205 000 255 205 000 255 205 000 255 205 000 255 205 000 255 205 000 000 151 057 000 151 057 000 151 057 000 151 057 000 151 057 000 151 057 000 151 057 000 151 057 000 151 057 000 151 057 000 151 057 000 151 057 000 151 057 000 151 057 000 151 057 000 151 057 000 151 057 000 151 057 000 151 057 000 151 057 000 151 057 000 151 057 000 151 057 000 151 057 000 151 057 000 151 057 000 151 057 000 151 057 000 151 057 000 151 057 000 151 057 000 151 057 000 151 057 000 151 057 000 151 057 000 151 057 000 151 057 000 151 057 000 151 057 000 151 057 000 151 057 000 151 057 000 151 057 000 151 057 000 151 057 000 151 057 000 151 057 000 151 057 000 151 057 000 151 057 000 151 057 000 151 057 000 151 057 000 151 057 000 151 057 000 151 057 000 151 057 000 151 057 000 151 057 000 151 057 000 151 057 000 151 057 000 151 057 000 151 057 000 151 057 000 151 057 000 151 057 000 151 057 000 151 057 000 151 057 000 151 057 000 151 057 000 151 057 000 151 057 000 151 057 000 151 057 000 151 057 000 151 057 000 151 057 000 151 057 000 151 057 000 151 057 000 151 057 000 151 057 255 205 000 255 205 000 255 205 000 255 205 000 255 205 000 255 205 000 255 205 000 255 205 000 255 205 000 255 205 000 255 205 000 255 205 000 255 205 000 255 205 000 255 205 000 255 205 000 255 205 000 255 205 000 255 205 000 255 205 000 255 205 000 255 205 000 255 205 000 255 205 000 255 205 000 255 205 000 255 205 000 255 205 000 255 205 000 255 205 000 255 205 000 255 205 000 255 205 000 255 205 000 255 205 000 255 205 000 000 000 000 000 000 000 000 000 000 000 000 000 000 000 000 000 000 000 000 000 000 000 000 000 000 000 000 000 000 000 000 000 000 000 000 000 000 000 000 000 000 000 000 000 000 000 000 000 000 000 000 000 000 000 000 000 000 000 000 000 000 000 000 000 000 000 000 000 000 000 000 000 000 000 000 000 000 000 000 000 000 000 000 000 000 000 000 000 000 000 000 000 000 000 000 000 000 000 000 000 000 000 000 000 000 000 000 000 000 000 000 000 000 000 000 000 000 000 000 000 000 000 000 000 000 000 000 000 000 000 000 000 000 000 000 000 000 000 255 205 000 255 205 000 255 205 000 255 205 000 255 205 000 255 205 000 255 205 000 255 205 000 255 205 000 255 205 000 255 205 000 255 205 000 255 205 000 255 205 000 255 205 000 255 205 000 255 205 000 255 205 000 255 205 000 255 205 000 255 205 000 255 205 000 255 205 000 255 205 000 255 205 000 255 205 000 255 205 000 255 205 000 255 205 000 255 205 000 255 205 000 255 205 000 255 205 000 255 205 000 255 205 000 255 205 000 000 151 057 000 151 057 000 151 057 000 151 057 000 151 057 000 151 057 000 151 057 000 151 057 000 151 057 000 151 057 000 151 057 000 151 057 000 151 057 000 151 057 000 151 057 000 151 057 000 151 057 000 151 057 000 151 057 000 151 057 000 151 057 000 151 057 000 151 057 000 151 057 000 151 057 000 151 057 000 151 057 000 151 057 000 151 057 000 151 057 000 151 057 000 151 057 000 151 057 000 151 057 000 151 057 000 151 057 000 151 057 000 151 057 000 151 057 000 151 057 000 151 057 000 151 057 000 151 057 000 151 057 000 151 057 000 151 057 000 151 057 000 151 057 000 151 057 000 151 057 000 151 057 000 151 057 000 151 057 000 151 057 000 151 057 000 151 057 000 151 057 000 151 057 000 151 057 000 151 057 000 151 057 000 151 057 000 151 057 000 151 057 000 151 057 000 151 057 000 151 057 000 151 057 000 151 057 000 151 057 000 151 057 000 151 057 000 151 057 000 151 057 000 151 057 000 151 057 000 151 057 000 151 057 000 151 057 000 151 057 255 205 000 255 205 000 255 205 000 255 205 000 255 205 000 255 205 000 255 205 000 255 205 000 255 205 000 255 205 000 255 205 000 255 205 000 255 205 000 255 205 000 255 205 000 255 205 000 255 205 000 255 205 000 255 205 000 255 205 000 255 205 000 255 205 000 255 205 000 255 205 000 255 205 000 255 205 000 255 205 000 255 205 000 255 205 000 255 205 000 255 205 000 255 205 000 255 205 000 255 205 000 255 205 000 255 205 000 000 000 000 000 000 000 000 000 000 000 000 000 000 000 000 000 000 000 000 000 000 000 000 000 000 000 000 000 000 000 000 000 000 000 000 000 000 000 000 000 000 000 000 000 000 000 000 000 000 000 000 000 000 000 000 000 000 000 000 000 000 000 000 000 000 000 000 000 000 000 000 000 000 000 000 000 000 000 000 000 000 000 000 000 000 000 000 000 000 000 000 000 000 000 000 000 000 000 000 000 000 000 000 000 000 000 000 000 000 000 000 000 000 000 000 000 000 000 000 000 000 000 000 000 000 000 000 000 000 000 000 000 000 000 000 000 000 000 000 000 000 000 000 000 000 000 000 000 000 000 255 205 000 255 205 000 255 205 000 255 205 000 255 205 000 255 205 000 255 205 000 255 205 000 255 205 000 255 205 000 255 205 000 255 205 000 255 205 000 255 205 000 255 205 000 255 205 000 255 205 000 255 205 000 255 205 000 255 205 000 255 205 000 255 205 000 255 205 000 255 205 000 255 205 000 255 205 000 255 205 000 255 205 000 255 205 000 255 205 000 255 205 000 255 205 000 255 205 000 255 205 000 255 205 000 255 205 000 000 151 057 000 151 057 000 151 057 000 151 057 000 151 057 000 151 057 000 151 057 000 151 057 000 151 057 000 151 057 000 151 057 000 151 057 000 151 057 000 151 057 000 151 057 000 151 057 000 151 057 000 151 057 000 151 057 000 151 057 000 151 057 000 151 057 000 151 057 000 151 057 000 151 057 000 151 057 000 151 057 000 151 057 000 151 057 000 151 057 000 151 057 000 151 057 000 151 057 000 151 057 000 151 057 000 151 057 000 151 057 000 151 057 000 151 057 000 151 057 000 151 057 000 151 057 000 151 057 000 151 057 000 151 057 000 151 057 000 151 057 000 151 057 000 151 057 000 151 057 000 151 057 000 151 057 000 151 057 000 151 057 000 151 057 000 151 057 000 151 057 000 151 057 000 151 057 000 151 057 000 151 057 000 151 057 000 151 057 000 151 057 000 151 057 000 151 057 000 151 057 000 151 057 000 151 057 000 151 057 000 151 057 000 151 057 000 151 057 000 151 057 000 151 057 000 151 057 255 205 000 255 205 000 255 205 000 255 205 000 255 205 000 255 205 000 255 205 000 255 205 000 255 205 000 255 205 000 255 205 000 255 205 000 255 205 000 255 205 000 255 205 000 255 205 000 255 205 000 255 205 000 255 205 000 255 205 000 255 205 000 255 205 000 255 205 000 255 205 000 255 205 000 255 205 000 255 205 000 255 205 000 255 205 000 255 205 000 255 205 000 255 205 000 255 205 000 255 205 000 255 205 000 255 205 000 000 000 000 000 000 000 000 000 000 000 000 000 000 000 000 000 000 000 000 000 000 000 000 000 000 000 000 000 000 000 000 000 000 000 000 000 000 000 000 000 000 000 000 000 000 000 000 000 000 000 000 000 000 000 000 000 000 000 000 000 000 000 000 000 000 000 000 000 000 000 000 000 000 000 000 000 000 000 000 000 000 000 000 000 000 000 000 000 000 000 000 000 000 000 000 000 000 000 000 000 000 000 000 000 000 000 000 000 000 000 000 000 000 000 000 000 000 000 000 000 000 000 000 000 000 000 000 000 000 000 000 000 000 000 000 000 000 000 000 000 000 000 000 000 000 000 000 000 000 000 000 000 000 000 000 000 000 000 000 000 000 000 255 205 000 255 205 000 255 205 000 255 205 000 255 205 000 255 205 000 255 205 000 255 205 000 255 205 000 255 205 000 255 205 000 255 205 000 255 205 000 255 205 000 255 205 000 255 205 000 255 205 000 255 205 000 255 205 000 255 205 000 255 205 000 255 205 000 255 205 000 255 205 000 255 205 000 255 205 000 255 205 000 255 205 000 255 205 000 255 205 000 255 205 000 255 205 000 255 205 000 255 205 000 255 205 000 255 205 000 000 151 057 000 151 057 000 151 057 000 151 057 000 151 057 000 151 057 000 151 057 000 151 057 000 151 057 000 151 057 000 151 057 000 151 057 000 151 057 000 151 057 000 151 057 000 151 057 000 151 057 000 151 057 000 151 057 000 151 057 000 151 057 000 151 057 000 151 057 000 151 057 000 151 057 000 151 057 000 151 057 000 151 057 000 151 057 000 151 057 000 151 057 000 151 057 000 151 057 000 151 057 000 151 057 000 151 057 000 151 057 000 151 057 000 151 057 000 151 057 000 151 057 000 151 057 000 151 057 000 151 057 000 151 057 000 151 057 000 151 057 000 151 057 000 151 057 000 151 057 000 151 057 000 151 057 000 151 057 000 151 057 000 151 057 000 151 057 000 151 057 000 151 057 000 151 057 000 151 057 000 151 057 000 151 057 000 151 057 000 151 057 000 151 057 000 151 057 000 151 057 000 151 057 000 151 057 000 151 057 000 151 057 000 151 057 255 205 000 255 205 000 255 205 000 255 205 000 255 205 000 255 205 000 255 205 000 255 205 000 255 205 000 255 205 000 255 205 000 255 205 000 255 205 000 255 205 000 255 205 000 255 205 000 255 205 000 255 205 000 255 205 000 255 205 000 255 205 000 255 205 000 255 205 000 255 205 000 255 205 000 255 205 000 255 205 000 255 205 000 255 205 000 255 205 000 255 205 000 255 205 000 255 205 000 255 205 000 255 205 000 255 205 000 000 000 000 000 000 000 000 000 000 000 000 000 000 000 000 000 000 000 000 000 000 000 000 000 000 000 000 000 000 000 000 000 000 000 000 000 000 000 000 000 000 000 000 000 000 000 000 000 000 000 000 000 000 000 000 000 000 000 000 000 000 000 000 000 000 000 000 000 000 000 000 000 000 000 000 000 000 000 000 000 000 000 000 000 000 000 000 000 000 000 000 000 000 000 000 000 000 000 000 000 000 000 000 000 000 000 000 000 000 000 000 000 000 000 000 000 000 000 000 000 000 000 000 000 000 000 000 000 000 000 000 000 000 000 000 000 000 000 000 000 000 000 000 000 000 000 000 000 000 000 000 000 000 000 000 000 000 000 000 000 000 000 000 000 000 000 000 000 000 000 000 000 000 000 255 205 000 255 205 000 255 205 000 255 205 000 255 205 000 255 205 000 255 205 000 255 205 000 255 205 000 255 205 000 255 205 000 255 205 000 255 205 000 255 205 000 255 205 000 255 205 000 255 205 000 255 205 000 255 205 000 255 205 000 255 205 000 255 205 000 255 205 000 255 205 000 255 205 000 255 205 000 255 205 000 255 205 000 255 205 000 255 205 000 255 205 000 255 205 000 255 205 000 255 205 000 255 205 000 255 205 000 000 151 057 000 151 057 000 151 057 000 151 057 000 151 057 000 151 057 000 151 057 000 151 057 000 151 057 000 151 057 000 151 057 000 151 057 000 151 057 000 151 057 000 151 057 000 151 057 000 151 057 000 151 057 000 151 057 000 151 057 000 151 057 000 151 057 000 151 057 000 151 057 000 151 057 000 151 057 000 151 057 000 151 057 000 151 057 000 151 057 000 151 057 000 151 057 000 151 057 000 151 057 000 151 057 000 151 057 000 151 057 000 151 057 000 151 057 000 151 057 000 151 057 000 151 057 000 151 057 000 151 057 000 151 057 000 151 057 000 151 057 000 151 057 000 151 057 000 151 057 000 151 057 000 151 057 000 151 057 000 151 057 000 151 057 000 151 057 000 151 057 000 151 057 000 151 057 000 151 057 000 151 057 000 151 057 000 151 057 000 151 057 000 151 057 000 151 057 000 151 057 000 151 057 255 205 000 255 205 000 255 205 000 255 205 000 255 205 000 255 205 000 255 205 000 255 205 000 255 205 000 255 205 000 255 205 000 255 205 000 255 205 000 255 205 000 255 205 000 255 205 000 255 205 000 255 205 000 255 205 000 255 205 000 255 205 000 255 205 000 255 205 000 255 205 000 255 205 000 255 205 000 255 205 000 255 205 000 255 205 000 255 205 000 255 205 000 255 205 000 255 205 000 255 205 000 255 205 000 255 205 000 000 000 000 000 000 000 000 000 000 000 000 000 000 000 000 000 000 000 000 000 000 000 000 000 000 000 000 000 000 000 000 000 000 000 000 000 000 000 000 000 000 000 000 000 000 000 000 000 000 000 000 000 000 000 000 000 000 000 000 000 000 000 000 000 000 000 000 000 000 000 000 000 000 000 000 000 000 000 000 000 000 000 000 000 000 000 000 000 000 000 000 000 000 000 000 000 000 000 000 000 000 000 000 000 000 000 000 000 000 000 000 000 000 000 000 000 000 000 000 000 000 000 000 000 000 000 000 000 000 000 000 000 000 000 000 000 000 000 000 000 000 000 000 000 000 000 000 000 000 000 000 000 000 000 000 000 000 000 000 000 000 000 000 000 000 000 000 000 000 000 000 000 000 000 000 000 000 000 000 000 000 000 000 000 000 000 255 205 000 255 205 000 255 205 000 255 205 000 255 205 000 255 205 000 255 205 000 255 205 000 255 205 000 255 205 000 255 205 000 255 205 000 255 205 000 255 205 000 255 205 000 255 205 000 255 205 000 255 205 000 255 205 000 255 205 000 255 205 000 255 205 000 255 205 000 255 205 000 255 205 000 255 205 000 255 205 000 255 205 000 255 205 000 255 205 000 255 205 000 255 205 000 255 205 000 255 205 000 255 205 000 255 205 000 000 151 057 000 151 057 000 151 057 000 151 057 000 151 057 000 151 057 000 151 057 000 151 057 000 151 057 000 151 057 000 151 057 000 151 057 000 151 057 000 151 057 000 151 057 000 151 057 000 151 057 000 151 057 000 151 057 000 151 057 000 151 057 000 151 057 000 151 057 000 151 057 000 151 057 000 151 057 000 151 057 000 151 057 000 151 057 000 151 057 000 151 057 000 151 057 000 151 057 000 151 057 000 151 057 000 151 057 000 151 057 000 151 057 000 151 057 000 151 057 000 151 057 000 151 057 000 151 057 000 151 057 000 151 057 000 151 057 000 151 057 000 151 057 000 151 057 000 151 057 000 151 057 000 151 057 000 151 057 000 151 057 000 151 057 000 151 057 000 151 057 000 151 057 000 151 057 000 151 057 000 151 057 000 151 057 000 151 057 000 151 057 255 205 000 255 205 000 255 205 000 255 205 000 255 205 000 255 205 000 255 205 000 255 205 000 255 205 000 255 205 000 255 205 000 255 205 000 255 205 000 255 205 000 255 205 000 255 205 000 255 205 000 255 205 000 255 205 000 255 205 000 255 205 000 255 205 000 255 205 000 255 205 000 255 205 000 255 205 000 255 205 000 255 205 000 255 205 000 255 205 000 255 205 000 255 205 000 255 205 000 255 205 000 255 205 000 255 205 000 000 000 000 000 000 000 000 000 000 000 000 000 000 000 000 000 000 000 000 000 000 000 000 000 000 000 000 000 000 000 000 000 000 000 000 000 000 000 000 000 000 000 000 000 000 000 000 000 000 000 000 000 000 000 000 000 000 000 000 000 000 000 000 000 000 000 000 000 000 000 000 000 000 000 000 000 000 000 000 000 000 000 000 000 000 000 000 000 000 000 000 000 000 000 000 000 000 000 000 000 000 000 000 000 000 000 000 000 000 000 000 000 000 000 000 000 000 000 000 000 000 000 000 000 000 000 000 000 000 000 000 000 000 000 000 000 000 000 000 000 000 000 000 000 000 000 000 000 000 000 000 000 000 000 000 000 000 000 000 000 000 000 000 000 000 000 000 000 000 000 000 000 000 000 000 000 000 000 000 000 000 000 000 000 000 000 000 000 000 000 000 000 000 000 000 000 000 000 255 205 000 255 205 000 255 205 000 255 205 000 255 205 000 255 205 000 255 205 000 255 205 000 255 205 000 255 205 000 255 205 000 255 205 000 255 205 000 255 205 000 255 205 000 255 205 000 255 205 000 255 205 000 255 205 000 255 205 000 255 205 000 255 205 000 255 205 000 255 205 000 255 205 000 255 205 000 255 205 000 255 205 000 255 205 000 255 205 000 255 205 000 255 205 000 255 205 000 255 205 000 255 205 000 255 205 000 000 151 057 000 151 057 000 151 057 000 151 057 000 151 057 000 151 057 000 151 057 000 151 057 000 151 057 000 151 057 000 151 057 000 151 057 000 151 057 000 151 057 000 151 057 000 151 057 000 151 057 000 151 057 000 151 057 000 151 057 000 151 057 000 151 057 000 151 057 000 151 057 000 151 057 000 151 057 000 151 057 000 151 057 000 151 057 000 151 057 000 151 057 000 151 057 000 151 057 000 151 057 000 151 057 000 151 057 000 151 057 000 151 057 000 151 057 000 151 057 000 151 057 000 151 057 000 151 057 000 151 057 000 151 057 000 151 057 000 151 057 000 151 057 000 151 057 000 151 057 000 151 057 000 151 057 000 151 057 000 151 057 000 151 057 000 151 057 000 151 057 000 151 057 000 151 057 000 151 057 255 205 000 255 205 000 255 205 000 255 205 000 255 205 000 255 205 000 255 205 000 255 205 000 255 205 000 255 205 000 255 205 000 255 205 000 255 205 000 255 205 000 255 205 000 255 205 000 255 205 000 255 205 000 255 205 000 255 205 000 255 205 000 255 205 000 255 205 000 255 205 000 255 205 000 255 205 000 255 205 000 255 205 000 255 205 000 255 205 000 255 205 000 255 205 000 255 205 000 255 205 000 255 205 000 255 205 000 000 000 000 000 000 000 000 000 000 000 000 000 000 000 000 000 000 000 000 000 000 000 000 000 000 000 000 000 000 000 000 000 000 000 000 000 000 000 000 000 000 000 000 000 000 000 000 000 000 000 000 000 000 000 000 000 000 000 000 000 000 000 000 000 000 000 000 000 000 000 000 000 000 000 000 000 000 000 000 000 000 000 000 000 000 000 000 000 000 000 000 000 000 000 000 000 000 000 000 000 000 000 000 000 000 000 000 000 000 000 000 000 000 000 000 000 000 000 000 000 000 000 000 000 000 000 000 000 000 000 000 000 000 000 000 000 000 000 000 000 000 000 000 000 000 000 000 000 000 000 000 000 000 000 000 000 000 000 000 000 000 000 000 000 000 000 000 000 000 000 000 000 000 000 000 000 000 000 000 000 000 000 000 000 000 000 000 000 000 000 000 000 000 000 000 000 000 000 000 000 000 000 000 000 000 000 000 000 000 000 255 205 000 255 205 000 255 205 000 255 205 000 255 205 000 255 205 000 255 205 000 255 205 000 255 205 000 255 205 000 255 205 000 255 205 000 255 205 000 255 205 000 255 205 000 255 205 000 255 205 000 255 205 000 255 205 000 255 205 000 255 205 000 255 205 000 255 205 000 255 205 000 255 205 000 255 205 000 255 205 000 255 205 000 255 205 000 255 205 000 255 205 000 255 205 000 255 205 000 255 205 000 255 205 000 255 205 000 000 151 057 000 151 057 000 151 057 000 151 057 000 151 057 000 151 057 000 151 057 000 151 057 000 151 057 000 151 057 000 151 057 000 151 057 000 151 057 000 151 057 000 151 057 000 151 057 000 151 057 000 151 057 000 151 057 000 151 057 000 151 057 000 151 057 000 151 057 000 151 057 000 151 057 000 151 057 000 151 057 000 151 057 000 151 057 000 151 057 000 151 057 000 151 057 000 151 057 000 151 057 000 151 057 000 151 057 000 151 057 000 151 057 000 151 057 000 151 057 000 151 057 000 151 057 000 151 057 000 151 057 000 151 057 000 151 057 000 151 057 000 151 057 000 151 057 000 151 057 000 151 057 000 151 057 000 151 057 000 151 057 000 151 057 000 151 057 255 205 000 255 205 000 255 205 000 255 205 000 255 205 000 255 205 000 255 205 000 255 205 000 255 205 000 255 205 000 255 205 000 255 205 000 255 205 000 255 205 000 255 205 000 255 205 000 255 205 000 255 205 000 255 205 000 255 205 000 255 205 000 255 205 000 255 205 000 255 205 000 255 205 000 255 205 000 255 205 000 255 205 000 255 205 000 255 205 000 255 205 000 255 205 000 255 205 000 255 205 000 255 205 000 255 205 000 000 000 000 000 000 000 000 000 000 000 000 000 000 000 000 000 000 000 000 000 000 000 000 000 000 000 000 000 000 000 000 000 000 000 000 000 000 000 000 000 000 000 000 000 000 000 000 000 000 000 000 000 000 000 000 000 000 000 000 000 000 000 000 000 000 000 000 000 000 000 000 000 000 000 000 000 000 000 000 000 000 000 000 000 000 000 000 000 000 000 000 000 000 000 000 000 000 000 000 000 000 000 000 000 000 000 000 000 000 000 000 000 000 000 000 000 000 000 000 000 000 000 000 000 000 000 000 000 000 000 000 000 000 000 000 000 000 000 000 000 000 000 000 000 000 000 000 000 000 000 000 000 000 000 000 000 000 000 000 000 000 000 000 000 000 000 000 000 000 000 000 000 000 000 000 000 000 000 000 000 000 000 000 000 000 000 000 000 000 000 000 000 000 000 000 000 000 000 000 000 000 000 000 000 000 000 000 000 000 000 000 000 000 000 000 000 000 000 000 000 000 000 255 205 000 255 205 000 255 205 000 255 205 000 255 205 000 255 205 000 255 205 000 255 205 000 255 205 000 255 205 000 255 205 000 255 205 000 255 205 000 255 205 000 255 205 000 255 205 000 255 205 000 255 205 000 255 205 000 255 205 000 255 205 000 255 205 000 255 205 000 255 205 000 255 205 000 255 205 000 255 205 000 255 205 000 255 205 000 255 205 000 255 205 000 255 205 000 255 205 000 255 205 000 255 205 000 255 205 000 000 151 057 000 151 057 000 151 057 000 151 057 000 151 057 000 151 057 000 151 057 000 151 057 000 151 057 000 151 057 000 151 057 000 151 057 000 151 057 000 151 057 000 151 057 000 151 057 000 151 057 000 151 057 000 151 057 000 151 057 000 151 057 000 151 057 000 151 057 000 151 057 000 151 057 000 151 057 000 151 057 000 151 057 000 151 057 000 151 057 000 151 057 000 151 057 000 151 057 000 151 057 000 151 057 000 151 057 000 151 057 000 151 057 000 151 057 000 151 057 000 151 057 000 151 057 000 151 057 000 151 057 000 151 057 000 151 057 000 151 057 000 151 057 000 151 057 000 151 057 000 151 057 000 151 057 255 205 000 255 205 000 255 205 000 255 205 000 255 205 000 255 205 000 255 205 000 255 205 000 255 205 000 255 205 000 255 205 000 255 205 000 255 205 000 255 205 000 255 205 000 255 205 000 255 205 000 255 205 000 255 205 000 255 205 000 255 205 000 255 205 000 255 205 000 255 205 000 255 205 000 255 205 000 255 205 000 255 205 000 255 205 000 255 205 000 255 205 000 255 205 000 255 205 000 255 205 000 255 205 000 255 205 000 000 000 000 000 000 000 000 000 000 000 000 000 000 000 000 000 000 000 000 000 000 000 000 000 000 000 000 000 000 000 000 000 000 000 000 000 000 000 000 000 000 000 000 000 000 000 000 000 000 000 000 000 000 000 000 000 000 000 000 000 000 000 000 000 000 000 000 000 000 000 000 000 000 000 000 000 000 000 000 000 000 000 000 000 000 000 000 000 000 000 000 000 000 000 000 000 000 000 000 000 000 000 000 000 000 000 000 000 000 000 000 000 000 000 000 000 000 000 000 000 000 000 000 000 000 000 000 000 000 000 000 000 000 000 000 000 000 000 000 000 000 000 000 000 000 000 000 000 000 000 000 000 000 000 000 000 000 000 000 000 000 000 000 000 000 000 000 000 000 000 000 000 000 000 000 000 000 000 000 000 000 000 000 000 000 000 000 000 000 000 000 000 000 000 000 000 000 000 000 000 000 000 000 000 000 000 000 000 000 000 000 000 000 000 000 000 000 000 000 000 000 000 000 000 000 000 000 000 000 000 000 000 000 000 255 205 000 255 205 000 255 205 000 255 205 000 255 205 000 255 205 000 255 205 000 255 205 000 255 205 000 255 205 000 255 205 000 255 205 000 255 205 000 255 205 000 255 205 000 255 205 000 255 205 000 255 205 000 255 205 000 255 205 000 255 205 000 255 205 000 255 205 000 255 205 000 255 205 000 255 205 000 255 205 000 255 205 000 255 205 000 255 205 000 255 205 000 255 205 000 255 205 000 255 205 000 255 205 000 255 205 000 000 151 057 000 151 057 000 151 057 000 151 057 000 151 057 000 151 057 000 151 057 000 151 057 000 151 057 000 151 057 000 151 057 000 151 057 000 151 057 000 151 057 000 151 057 000 151 057 000 151 057 000 151 057 000 151 057 000 151 057 000 151 057 000 151 057 000 151 057 000 151 057 000 151 057 000 151 057 000 151 057 000 151 057 000 151 057 000 151 057 000 151 057 000 151 057 000 151 057 000 151 057 000 151 057 000 151 057 000 151 057 000 151 057 000 151 057 000 151 057 000 151 057 000 151 057 000 151 057 000 151 057 000 151 057 000 151 057 000 151 057 000 151 057 255 205 000 255 205 000 255 205 000 255 205 000 255 205 000 255 205 000 255 205 000 255 205 000 255 205 000 255 205 000 255 205 000 255 205 000 255 205 000 255 205 000 255 205 000 255 205 000 255 205 000 255 205 000 255 205 000 255 205 000 255 205 000 255 205 000 255 205 000 255 205 000 255 205 000 255 205 000 255 205 000 255 205 000 255 205 000 255 205 000 255 205 000 255 205 000 255 205 000 255 205 000 255 205 000 255 205 000 000 000 000 000 000 000 000 000 000 000 000 000 000 000 000 000 000 000 000 000 000 000 000 000 000 000 000 000 000 000 000 000 000 000 000 000 000 000 000 000 000 000 000 000 000 000 000 000 000 000 000 000 000 000 000 000 000 000 000 000 000 000 000 000 000 000 000 000 000 000 000 000 000 000 000 000 000 000 000 000 000 000 000 000 000 000 000 000 000 000 000 000 000 000 000 000 000 000 000 000 000 000 000 000 000 000 000 000 000 000 000 000 000 000 000 000 000 000 000 000 000 000 000 000 000 000 000 000 000 000 000 000 000 000 000 000 000 000 000 000 000 000 000 000 000 000 000 000 000 000 000 000 000 000 000 000 000 000 000 000 000 000 000 000 000 000 000 000 000 000 000 000 000 000 000 000 000 000 000 000 000 000 000 000 000 000 000 000 000 000 000 000 000 000 000 000 000 000 000 000 000 000 000 000 000 000 000 000 000 000 000 000 000 000 000 000 000 000 000 000 000 000 000 000 000 000 000 000 000 000 000 000 000 000 000 000 000 000 000 000 000 000 000 000 000 000 255 205 000 255 205 000 255 205 000 255 205 000 255 205 000 255 205 000 255 205 000 255 205 000 255 205 000 255 205 000 255 205 000 255 205 000 255 205 000 255 205 000 255 205 000 255 205 000 255 205 000 255 205 000 255 205 000 255 205 000 255 205 000 255 205 000 255 205 000 255 205 000 255 205 000 255 205 000 255 205 000 255 205 000 255 205 000 255 205 000 255 205 000 255 205 000 255 205 000 255 205 000 255 205 000 255 205 000 000 151 057 000 151 057 000 151 057 000 151 057 000 151 057 000 151 057 000 151 057 000 151 057 000 151 057 000 151 057 000 151 057 000 151 057 000 151 057 000 151 057 000 151 057 000 151 057 000 151 057 000 151 057 000 151 057 000 151 057 000 151 057 000 151 057 000 151 057 000 151 057 000 151 057 000 151 057 000 151 057 000 151 057 000 151 057 000 151 057 000 151 057 000 151 057 000 151 057 000 151 057 000 151 057 000 151 057 000 151 057 000 151 057 000 151 057 000 151 057 000 151 057 000 151 057 000 151 057 000 151 057 255 205 000 255 205 000 255 205 000 255 205 000 255 205 000 255 205 000 255 205 000 255 205 000 255 205 000 255 205 000 255 205 000 255 205 000 255 205 000 255 205 000 255 205 000 255 205 000 255 205 000 255 205 000 255 205 000 255 205 000 255 205 000 255 205 000 255 205 000 255 205 000 255 205 000 255 205 000 255 205 000 255 205 000 255 205 000 255 205 000 255 205 000 255 205 000 255 205 000 255 205 000 255 205 000 255 205 000 000 000 000 000 000 000 000 000 000 000 000 000 000 000 000 000 000 000 000 000 000 000 000 000 000 000 000 000 000 000 000 000 000 000 000 000 000 000 000 000 000 000 000 000 000 000 000 000 000 000 000 000 000 000 000 000 000 000 000 000 000 000 000 000 000 000 000 000 000 000 000 000 000 000 000 000 000 000 000 000 000 000 000 000 000 000 000 000 000 000 000 000 000 000 000 000 000 000 000 000 000 000 000 000 000 000 000 000 000 000 000 000 000 000 000 000 000 000 000 000 000 000 000 000 000 000 000 000 000 000 000 000 000 000 000 000 000 000 000 000 000 000 000 000 000 000 000 000 000 000 000 000 000 000 000 000 000 000 000 000 000 000 000 000 000 000 000 000 000 000 000 000 000 000 000 000 000 000 000 000 000 000 000 000 000 000 000 000 000 000 000 000 000 000 000 000 000 000 000 000 000 000 000 000 000 000 000 000 000 000 000 000 000 000 000 000 000 000 000 000 000 000 000 000 000 000 000 000 000 000 000 000 000 000 000 000 000 000 000 000 000 000 000 000 000 000 000 000 000 000 000 000 000 000 000 000 000 000 255 205 000 255 205 000 255 205 000 255 205 000 255 205 000 255 205 000 255 205 000 255 205 000 255 205 000 255 205 000 255 205 000 255 205 000 255 205 000 255 205 000 255 205 000 255 205 000 255 205 000 255 205 000 255 205 000 255 205 000 255 205 000 255 205 000 255 205 000 255 205 000 255 205 000 255 205 000 255 205 000 255 205 000 255 205 000 255 205 000 255 205 000 255 205 000 255 205 000 255 205 000 255 205 000 255 205 000 000 151 057 000 151 057 000 151 057 000 151 057 000 151 057 000 151 057 000 151 057 000 151 057 000 151 057 000 151 057 000 151 057 000 151 057 000 151 057 000 151 057 000 151 057 000 151 057 000 151 057 000 151 057 000 151 057 000 151 057 000 151 057 000 151 057 000 151 057 000 151 057 000 151 057 000 151 057 000 151 057 000 151 057 000 151 057 000 151 057 000 151 057 000 151 057 000 151 057 000 151 057 000 151 057 000 151 057 000 151 057 000 151 057 000 151 057 000 151 057 255 205 000 255 205 000 255 205 000 255 205 000 255 205 000 255 205 000 255 205 000 255 205 000 255 205 000 255 205 000 255 205 000 255 205 000 255 205 000 255 205 000 255 205 000 255 205 000 255 205 000 255 205 000 255 205 000 255 205 000 255 205 000 255 205 000 255 205 000 255 205 000 255 205 000 255 205 000 255 205 000 255 205 000 255 205 000 255 205 000 255 205 000 255 205 000 255 205 000 255 205 000 255 205 000 255 205 000 000 000 000 000 000 000 000 000 000 000 000 000 000 000 000 000 000 000 000 000 000 000 000 000 000 000 000 000 000 000 000 000 000 000 000 000 000 000 000 000 000 000 000 000 000 000 000 000 000 000 000 000 000 000 000 000 000 000 000 000 000 000 000 000 000 000 000 000 000 000 000 000 000 000 000 000 000 000 000 000 000 000 000 000 000 000 000 000 000 000 000 000 000 000 000 000 000 000 000 000 000 000 000 000 000 000 000 000 000 000 000 000 000 000 000 000 000 000 000 000 000 000 000 000 000 000 000 000 000 000 000 000 000 000 000 000 000 000 000 000 000 000 000 000 000 000 000 000 000 000 000 000 000 000 000 000 000 000 000 000 000 000 000 000 000 000 000 000 000 000 000 000 000 000 000 000 000 000 000 000 000 000 000 000 000 000 000 000 000 000 000 000 000 000 000 000 000 000 000 000 000 000 000 000 000 000 000 000 000 000 000 000 000 000 000 000 000 000 000 000 000 000 000 000 000 000 000 000 000 000 000 000 000 000 000 000 000 000 000 000 000 000 000 000 000 000 000 000 000 000 000 000 000 000 000 000 000 000 000 000 000 000 000 000 000 000 000 000 000 000 255 205 000 255 205 000 255 205 000 255 205 000 255 205 000 255 205 000 255 205 000 255 205 000 255 205 000 255 205 000 255 205 000 255 205 000 255 205 000 255 205 000 255 205 000 255 205 000 255 205 000 255 205 000 255 205 000 255 205 000 255 205 000 255 205 000 255 205 000 255 205 000 255 205 000 255 205 000 255 205 000 255 205 000 255 205 000 255 205 000 255 205 000 255 205 000 255 205 000 255 205 000 255 205 000 255 205 000 000 151 057 000 151 057 000 151 057 000 151 057 000 151 057 000 151 057 000 151 057 000 151 057 000 151 057 000 151 057 000 151 057 000 151 057 000 151 057 000 151 057 000 151 057 000 151 057 000 151 057 000 151 057 000 151 057 000 151 057 000 151 057 000 151 057 000 151 057 000 151 057 000 151 057 000 151 057 000 151 057 000 151 057 000 151 057 000 151 057 000 151 057 000 151 057 000 151 057 000 151 057 000 151 057 000 151 057 255 205 000 255 205 000 255 205 000 255 205 000 255 205 000 255 205 000 255 205 000 255 205 000 255 205 000 255 205 000 255 205 000 255 205 000 255 205 000 255 205 000 255 205 000 255 205 000 255 205 000 255 205 000 255 205 000 255 205 000 255 205 000 255 205 000 255 205 000 255 205 000 255 205 000 255 205 000 255 205 000 255 205 000 255 205 000 255 205 000 255 205 000 255 205 000 255 205 000 255 205 000 255 205 000 255 205 000 000 000 000 000 000 000 000 000 000 000 000 000 000 000 000 000 000 000 000 000 000 000 000 000 000 000 000 000 000 000 000 000 000 000 000 000 000 000 000 000 000 000 000 000 000 000 000 000 000 000 000 000 000 000 000 000 000 000 000 000 000 000 000 000 000 000 000 000 000 000 000 000 000 000 000 000 000 000 000 000 000 000 000 000 000 000 000 000 000 000 000 000 000 000 000 000 000 000 000 000 000 000 000 000 000 000 000 000 000 000 000 000 000 000 000 000 000 000 000 000 000 000 000 000 000 000 000 000 000 000 000 000 000 000 000 000 000 000 000 000 000 000 000 000 000 000 000 000 000 000 000 000 000 000 000 000 000 000 000 000 000 000 000 000 000 000 000 000 000 000 000 000 000 000 000 000 000 000 000 000 000 000 000 000 000 000 000 000 000 000 000 000 000 000 000 000 000 000 000 000 000 000 000 000 000 000 000 000 000 000 000 000 000 000 000 000 000 000 000 000 000 000 000 000 000 000 000 000 000 000 000 000 000 000 000 000 000 000 000 000 000 000 000 000 000 000 000 000 000 000 000 000 000 000 000 000 000 000 000 000 000 000 000 000 000 000 000 000 000 000 000 000 000 000 000 000 000 000 000 000 000 000 255 205 000 255 205 000 255 205 000 255 205 000 255 205 000 255 205 000 255 205 000 255 205 000 255 205 000 255 205 000 255 205 000 255 205 000 255 205 000 255 205 000 255 205 000 255 205 000 255 205 000 255 205 000 255 205 000 255 205 000 255 205 000 255 205 000 255 205 000 255 205 000 255 205 000 255 205 000 255 205 000 255 205 000 255 205 000 255 205 000 255 205 000 255 205 000 255 205 000 255 205 000 255 205 000 255 205 000 000 151 057 000 151 057 000 151 057 000 151 057 000 151 057 000 151 057 000 151 057 000 151 057 000 151 057 000 151 057 000 151 057 000 151 057 000 151 057 000 151 057 000 151 057 000 151 057 000 151 057 000 151 057 000 151 057 000 151 057 000 151 057 000 151 057 000 151 057 000 151 057 000 151 057 000 151 057 000 151 057 000 151 057 000 151 057 000 151 057 000 151 057 000 151 057 255 205 000 255 205 000 255 205 000 255 205 000 255 205 000 255 205 000 255 205 000 255 205 000 255 205 000 255 205 000 255 205 000 255 205 000 255 205 000 255 205 000 255 205 000 255 205 000 255 205 000 255 205 000 255 205 000 255 205 000 255 205 000 255 205 000 255 205 000 255 205 000 255 205 000 255 205 000 255 205 000 255 205 000 255 205 000 255 205 000 255 205 000 255 205 000 255 205 000 255 205 000 255 205 000 255 205 000 000 000 000 000 000 000 000 000 000 000 000 000 000 000 000 000 000 000 000 000 000 000 000 000 000 000 000 000 000 000 000 000 000 000 000 000 000 000 000 000 000 000 000 000 000 000 000 000 000 000 000 000 000 000 000 000 000 000 000 000 000 000 000 000 000 000 000 000 000 000 000 000 000 000 000 000 000 000 000 000 000 000 000 000 000 000 000 000 000 000 000 000 000 000 000 000 000 000 000 000 000 000 000 000 000 000 000 000 000 000 000 000 000 000 000 000 000 000 000 000 000 000 000 000 000 000 000 000 000 000 000 000 000 000 000 000 000 000 000 000 000 000 000 000 000 000 000 000 000 000 000 000 000 000 000 000 000 000 000 000 000 000 000 000 000 000 000 000 000 000 000 000 000 000 000 000 000 000 000 000 000 000 000 000 000 000 000 000 000 000 000 000 000 000 000 000 000 000 000 000 000 000 000 000 000 000 000 000 000 000 000 000 000 000 000 000 000 000 000 000 000 000 000 000 000 000 000 000 000 000 000 000 000 000 000 000 000 000 000 000 000 000 000 000 000 000 000 000 000 000 000 000 000 000 000 000 000 000 000 000 000 000 000 000 000 000 000 000 000 000 000 000 000 000 000 000 000 000 000 000 000 000 000 000 000 000 000 000 000 000 000 000 000 000 255 205 000 255 205 000 255 205 000 255 205 000 255 205 000 255 205 000 255 205 000 255 205 000 255 205 000 255 205 000 255 205 000 255 205 000 255 205 000 255 205 000 255 205 000 255 205 000 255 205 000 255 205 000 255 205 000 255 205 000 255 205 000 255 205 000 255 205 000 255 205 000 255 205 000 255 205 000 255 205 000 255 205 000 255 205 000 255 205 000 255 205 000 255 205 000 255 205 000 255 205 000 255 205 000 255 205 000 000 151 057 000 151 057 000 151 057 000 151 057 000 151 057 000 151 057 000 151 057 000 151 057 000 151 057 000 151 057 000 151 057 000 151 057 000 151 057 000 151 057 000 151 057 000 151 057 000 151 057 000 151 057 000 151 057 000 151 057 000 151 057 000 151 057 000 151 057 000 151 057 000 151 057 000 151 057 000 151 057 000 151 057 255 205 000 255 205 000 255 205 000 255 205 000 255 205 000 255 205 000 255 205 000 255 205 000 255 205 000 255 205 000 255 205 000 255 205 000 255 205 000 255 205 000 255 205 000 255 205 000 255 205 000 255 205 000 255 205 000 255 205 000 255 205 000 255 205 000 255 205 000 255 205 000 255 205 000 255 205 000 255 205 000 255 205 000 255 205 000 255 205 000 255 205 000 255 205 000 255 205 000 255 205 000 255 205 000 255 205 000 000 000 000 000 000 000 000 000 000 000 000 000 000 000 000 000 000 000 000 000 000 000 000 000 000 000 000 000 000 000 000 000 000 000 000 000 000 000 000 000 000 000 000 000 000 000 000 000 000 000 000 000 000 000 000 000 000 000 000 000 000 000 000 000 000 000 000 000 000 000 000 000 000 000 000 000 000 000 000 000 000 000 000 000 000 000 000 000 000 000 000 000 000 000 000 000 000 000 000 000 000 000 000 000 000 000 000 000 000 000 000 000 000 000 000 000 000 000 000 000 000 000 000 000 000 000 000 000 000 000 000 000 000 000 000 000 000 000 000 000 000 000 000 000 000 000 000 000 000 000 000 000 000 000 000 000 000 000 000 000 000 000 000 000 000 000 000 000 000 000 000 000 000 000 000 000 000 000 000 000 000 000 000 000 000 000 000 000 000 000 000 000 000 000 000 000 000 000 000 000 000 000 000 000 000 000 000 000 000 000 000 000 000 000 000 000 000 000 000 000 000 000 000 000 000 000 000 000 000 000 000 000 000 000 000 000 000 000 000 000 000 000 000 000 000 000 000 000 000 000 000 000 000 000 000 000 000 000 000 000 000 000 000 000 000 000 000 000 000 000 000 000 000 000 000 000 000 000 000 000 000 000 000 000 000 000 000 000 000 000 000 000 000 000 000 000 000 000 000 000 000 000 000 000 000 000 255 205 000 255 205 000 255 205 000 255 205 000 255 205 000 255 205 000 255 205 000 255 205 000 255 205 000 255 205 000 255 205 000 255 205 000 255 205 000 255 205 000 255 205 000 255 205 000 255 205 000 255 205 000 255 205 000 255 205 000 255 205 000 255 205 000 255 205 000 255 205 000 255 205 000 255 205 000 255 205 000 255 205 000 255 205 000 255 205 000 255 205 000 255 205 000 255 205 000 255 205 000 255 205 000 255 205 000 000 151 057 000 151 057 000 151 057 000 151 057 000 151 057 000 151 057 000 151 057 000 151 057 000 151 057 000 151 057 000 151 057 000 151 057 000 151 057 000 151 057 000 151 057 000 151 057 000 151 057 000 151 057 000 151 057 000 151 057 000 151 057 000 151 057 000 151 057 000 151 057 255 205 000 255 205 000 255 205 000 255 205 000 255 205 000 255 205 000 255 205 000 255 205 000 255 205 000 255 205 000 255 205 000 255 205 000 255 205 000 255 205 000 255 205 000 255 205 000 255 205 000 255 205 000 255 205 000 255 205 000 255 205 000 255 205 000 255 205 000 255 205 000 255 205 000 255 205 000 255 205 000 255 205 000 255 205 000 255 205 000 255 205 000 255 205 000 255 205 000 255 205 000 255 205 000 255 205 000 000 000 000 000 000 000 000 000 000 000 000 000 000 000 000 000 000 000 000 000 000 000 000 000 000 000 000 000 000 000 000 000 000 000 000 000 000 000 000 000 000 000 000 000 000 000 000 000 000 000 000 000 000 000 000 000 000 000 000 000 000 000 000 000 000 000 000 000 000 000 000 000 000 000 000 000 000 000 000 000 000 000 000 000 000 000 000 000 000 000 000 000 000 000 000 000 000 000 000 000 000 000 000 000 000 000 000 000 000 000 000 000 000 000 000 000 000 000 000 000 000 000 000 000 000 000 000 000 000 000 000 000 000 000 000 000 000 000 000 000 000 000 000 000 000 000 000 000 000 000 000 000 000 000 000 000 000 000 000 000 000 000 000 000 000 000 000 000 000 000 000 000 000 000 000 000 000 000 000 000 000 000 000 000 000 000 000 000 000 000 000 000 000 000 000 000 000 000 000 000 000 000 000 000 000 000 000 000 000 000 000 000 000 000 000 000 000 000 000 000 000 000 000 000 000 000 000 000 000 000 000 000 000 000 000 000 000 000 000 000 000 000 000 000 000 000 000 000 000 000 000 000 000 000 000 000 000 000 000 000 000 000 000 000 000 000 000 000 000 000 000 000 000 000 000 000 000 000 000 000 000 000 000 000 000 000 000 000 000 000 000 000 000 000 000 000 000 000 000 000 000 000 000 000 000 000 000 000 000 000 000 000 000 000 000 000 000 000 255 205 000 255 205 000 255 205 000 255 205 000 255 205 000 255 205 000 255 205 000 255 205 000 255 205 000 255 205 000 255 205 000 255 205 000 255 205 000 255 205 000 255 205 000 255 205 000 255 205 000 255 205 000 255 205 000 255 205 000 255 205 000 255 205 000 255 205 000 255 205 000 255 205 000 255 205 000 255 205 000 255 205 000 255 205 000 255 205 000 255 205 000 255 205 000 255 205 000 255 205 000 255 205 000 255 205 000 000 151 057 000 151 057 000 151 057 000 151 057 000 151 057 000 151 057 000 151 057 000 151 057 000 151 057 000 151 057 000 151 057 000 151 057 000 151 057 000 151 057 000 151 057 000 151 057 000 151 057 000 151 057 000 151 057 000 151 057 255 205 000 255 205 000 255 205 000 255 205 000 255 205 000 255 205 000 255 205 000 255 205 000 255 205 000 255 205 000 255 205 000 255 205 000 255 205 000 255 205 000 255 205 000 255 205 000 255 205 000 255 205 000 255 205 000 255 205 000 255 205 000 255 205 000 255 205 000 255 205 000 255 205 000 255 205 000 255 205 000 255 205 000 255 205 000 255 205 000 255 205 000 255 205 000 255 205 000 255 205 000 255 205 000 255 205 000 000 000 000 000 000 000 000 000 000 000 000 000 000 000 000 000 000 000 000 000 000 000 000 000 000 000 000 000 000 000 000 000 000 000 000 000 000 000 000 000 000 000 000 000 000 000 000 000 000 000 000 000 000 000 000 000 000 000 000 000 000 000 000 000 000 000 000 000 000 000 000 000 000 000 000 000 000 000 000 000 000 000 000 000 000 000 000 000 000 000 000 000 000 000 000 000 000 000 000 000 000 000 000 000 000 000 000 000 000 000 000 000 000 000 000 000 000 000 000 000 000 000 000 000 000 000 000 000 000 000 000 000 000 000 000 000 000 000 000 000 000 000 000 000 000 000 000 000 000 000 000 000 000 000 000 000 000 000 000 000 000 000 000 000 000 000 000 000 000 000 000 000 000 000 000 000 000 000 000 000 000 000 000 000 000 000 000 000 000 000 000 000 000 000 000 000 000 000 000 000 000 000 000 000 000 000 000 000 000 000 000 000 000 000 000 000 000 000 000 000 000 000 000 000 000 000 000 000 000 000 000 000 000 000 000 000 000 000 000 000 000 000 000 000 000 000 000 000 000 000 000 000 000 000 000 000 000 000 000 000 000 000 000 000 000 000 000 000 000 000 000 000 000 000 000 000 000 000 000 000 000 000 000 000 000 000 000 000 000 000 000 000 000 000 000 000 000 000 000 000 000 000 000 000 000 000 000 000 000 000 000 000 000 000 000 000 000 000 000 000 000 000 000 000 000 000 000 000 000 000 255 205 000 255 205 000 255 205 000 255 205 000 255 205 000 255 205 000 255 205 000 255 205 000 255 205 000 255 205 000 255 205 000 255 205 000 255 205 000 255 205 000 255 205 000 255 205 000 255 205 000 255 205 000 255 205 000 255 205 000 255 205 000 255 205 000 255 205 000 255 205 000 255 205 000 255 205 000 255 205 000 255 205 000 255 205 000 255 205 000 255 205 000 255 205 000 255 205 000 255 205 000 255 205 000 255 205 000 000 151 057 000 151 057 000 151 057 000 151 057 000 151 057 000 151 057 000 151 057 000 151 057 000 151 057 000 151 057 000 151 057 000 151 057 000 151 057 000 151 057 000 151 057 000 151 057 255 205 000 255 205 000 255 205 000 255 205 000 255 205 000 255 205 000 255 205 000 255 205 000 255 205 000 255 205 000 255 205 000 255 205 000 255 205 000 255 205 000 255 205 000 255 205 000 255 205 000 255 205 000 255 205 000 255 205 000 255 205 000 255 205 000 255 205 000 255 205 000 255 205 000 255 205 000 255 205 000 255 205 000 255 205 000 255 205 000 255 205 000 255 205 000 255 205 000 255 205 000 255 205 000 255 205 000 000 000 000 000 000 000 000 000 000 000 000 000 000 000 000 000 000 000 000 000 000 000 000 000 000 000 000 000 000 000 000 000 000 000 000 000 000 000 000 000 000 000 000 000 000 000 000 000 000 000 000 000 000 000 000 000 000 000 000 000 000 000 000 000 000 000 000 000 000 000 000 000 000 000 000 000 000 000 000 000 000 000 000 000 000 000 000 000 000 000 000 000 000 000 000 000 000 000 000 000 000 000 000 000 000 000 000 000 000 000 000 000 000 000 000 000 000 000 000 000 000 000 000 000 000 000 000 000 000 000 000 000 000 000 000 000 000 000 000 000 000 000 000 000 000 000 000 000 000 000 000 000 000 000 000 000 000 000 000 000 000 000 000 000 000 000 000 000 000 000 000 000 000 000 000 000 000 000 000 000 000 000 000 000 000 000 000 000 000 000 000 000 000 000 000 000 000 000 000 000 000 000 000 000 000 000 000 000 000 000 000 000 000 000 000 000 000 000 000 000 000 000 000 000 000 000 000 000 000 000 000 000 000 000 000 000 000 000 000 000 000 000 000 000 000 000 000 000 000 000 000 000 000 000 000 000 000 000 000 000 000 000 000 000 000 000 000 000 000 000 000 000 000 000 000 000 000 000 000 000 000 000 000 000 000 000 000 000 000 000 000 000 000 000 000 000 000 000 000 000 000 000 000 000 000 000 000 000 000 000 000 000 000 000 000 000 000 000 000 000 000 000 000 000 000 000 000 000 000 000 000 000 000 000 000 000 000 000 000 000 000 000 255 205 000 255 205 000 255 205 000 255 205 000 255 205 000 255 205 000 255 205 000 255 205 000 255 205 000 255 205 000 255 205 000 255 205 000 255 205 000 255 205 000 255 205 000 255 205 000 255 205 000 255 205 000 255 205 000 255 205 000 255 205 000 255 205 000 255 205 000 255 205 000 255 205 000 255 205 000 255 205 000 255 205 000 255 205 000 255 205 000 255 205 000 255 205 000 255 205 000 255 205 000 255 205 000 255 205 000 000 151 057 000 151 057 000 151 057 000 151 057 000 151 057 000 151 057 000 151 057 000 151 057 000 151 057 000 151 057 000 151 057 000 151 057 255 205 000 255 205 000 255 205 000 255 205 000 255 205 000 255 205 000 255 205 000 255 205 000 255 205 000 255 205 000 255 205 000 255 205 000 255 205 000 255 205 000 255 205 000 255 205 000 255 205 000 255 205 000 255 205 000 255 205 000 255 205 000 255 205 000 255 205 000 255 205 000 255 205 000 255 205 000 255 205 000 255 205 000 255 205 000 255 205 000 255 205 000 255 205 000 255 205 000 255 205 000 255 205 000 255 205 000 000 000 000 000 000 000 000 000 000 000 000 000 000 000 000 000 000 000 000 000 000 000 000 000 000 000 000 000 000 000 000 000 000 000 000 000 000 000 000 000 000 000 000 000 000 000 000 000 000 000 000 000 000 000 000 000 000 000 000 000 000 000 000 000 000 000 000 000 000 000 000 000 000 000 000 000 000 000 000 000 000 000 000 000 000 000 000 000 000 000 000 000 000 000 000 000 000 000 000 000 000 000 000 000 000 000 000 000 000 000 000 000 000 000 000 000 000 000 000 000 000 000 000 000 000 000 000 000 000 000 000 000 000 000 000 000 000 000 000 000 000 000 000 000 000 000 000 000 000 000 000 000 000 000 000 000 000 000 000 000 000 000 000 000 000 000 000 000 000 000 000 000 000 000 000 000 000 000 000 000 000 000 000 000 000 000 000 000 000 000 000 000 000 000 000 000 000 000 000 000 000 000 000 000 000 000 000 000 000 000 000 000 000 000 000 000 000 000 000 000 000 000 000 000 000 000 000 000 000 000 000 000 000 000 000 000 000 000 000 000 000 000 000 000 000 000 000 000 000 000 000 000 000 000 000 000 000 000 000 000 000 000 000 000 000 000 000 000 000 000 000 000 000 000 000 000 000 000 000 000 000 000 000 000 000 000 000 000 000 000 000 000 000 000 000 000 000 000 000 000 000 000 000 000 000 000 000 000 000 000 000 000 000 000 000 000 000 000 000 000 000 000 000 000 000 000 000 000 000 000 000 000 000 000 000 000 000 000 000 000 000 000 000 000 000 000 000 000 000 000 000 000 000 000 255 205 000 255 205 000 255 205 000 255 205 000 255 205 000 255 205 000 255 205 000 255 205 000 255 205 000 255 205 000 255 205 000 255 205 000 255 205 000 255 205 000 255 205 000 255 205 000 255 205 000 255 205 000 255 205 000 255 205 000 255 205 000 255 205 000 255 205 000 255 205 000 255 205 000 255 205 000 255 205 000 255 205 000 255 205 000 255 205 000 255 205 000 255 205 000 255 205 000 255 205 000 255 205 000 255 205 000 000 151 057 000 151 057 000 151 057 000 151 057 000 151 057 000 151 057 000 151 057 000 151 057 255 205 000 255 205 000 255 205 000 255 205 000 255 205 000 255 205 000 255 205 000 255 205 000 255 205 000 255 205 000 255 205 000 255 205 000 255 205 000 255 205 000 255 205 000 255 205 000 255 205 000 255 205 000 255 205 000 255 205 000 255 205 000 255 205 000 255 205 000 255 205 000 255 205 000 255 205 000 255 205 000 255 205 000 255 205 000 255 205 000 255 205 000 255 205 000 255 205 000 255 205 000 255 205 000 255 205 000 000 000 000 000 000 000 000 000 000 000 000 000 000 000 000 000 000 000 000 000 000 000 000 000 000 000 000 000 000 000 000 000 000 000 000 000 000 000 000 000 000 000 000 000 000 000 000 000 000 000 000 000 000 000 000 000 000 000 000 000 000 000 000 000 000 000 000 000 000 000 000 000 000 000 000 000 000 000 000 000 000 000 000 000 000 000 000 000 000 000 000 000 000 000 000 000 000 000 000 000 000 000 000 000 000 000 000 000 000 000 000 000 000 000 000 000 000 000 000 000 000 000 000 000 000 000 000 000 000 000 000 000 000 000 000 000 000 000 000 000 000 000 000 000 000 000 000 000 000 000 000 000 000 000 000 000 000 000 000 000 000 000 000 000 000 000 000 000 000 000 000 000 000 000 000 000 000 000 000 000 000 000 000 000 000 000 000 000 000 000 000 000 000 000 000 000 000 000 000 000 000 000 000 000 000 000 000 000 000 000 000 000 000 000 000 000 000 000 000 000 000 000 000 000 000 000 000 000 000 000 000 000 000 000 000 000 000 000 000 000 000 000 000 000 000 000 000 000 000 000 000 000 000 000 000 000 000 000 000 000 000 000 000 000 000 000 000 000 000 000 000 000 000 000 000 000 000 000 000 000 000 000 000 000 000 000 000 000 000 000 000 000 000 000 000 000 000 000 000 000 000 000 000 000 000 000 000 000 000 000 000 000 000 000 000 000 000 000 000 000 000 000 000 000 000 000 000 000 000 000 000 000 000 000 000 000 000 000 000 000 000 000 000 000 000 000 000 000 000 000 000 000 000 000 000 000 000 000 000 000 000 000 000 000 000 000 255 205 000 255 205 000 255 205 000 255 205 000 255 205 000 255 205 000 255 205 000 255 205 000 255 205 000 255 205 000 255 205 000 255 205 000 255 205 000 255 205 000 255 205 000 255 205 000 255 205 000 255 205 000 255 205 000 255 205 000 255 205 000 255 205 000 255 205 000 255 205 000 255 205 000 255 205 000 255 205 000 255 205 000 255 205 000 255 205 000 255 205 000 255 205 000 255 205 000 255 205 000 255 205 000 255 205 000 000 151 057 000 151 057 000 151 057 000 151 057 255 205 000 255 205 000 255 205 000 255 205 000 255 205 000 255 205 000 255 205 000 255 205 000 255 205 000 255 205 000 255 205 000 255 205 000 255 205 000 255 205 000 255 205 000 255 205 000 255 205 000 255 205 000 255 205 000 255 205 000 255 205 000 255 205 000 255 205 000 255 205 000 255 205 000 255 205 000 255 205 000 255 205 000 255 205 000 255 205 000 255 205 000 255 205 000 255 205 000 255 205 000 255 205 000 255 205 000 000 000 000 000 000 000 000 000 000 000 000 000 000 000 000 000 000 000 000 000 000 000 000 000 000 000 000 000 000 000 000 000 000 000 000 000 000 000 000 000 000 000 000 000 000 000 000 000 000 000 000 000 000 000 000 000 000 000 000 000 000 000 000 000 000 000 000 000 000 000 000 000 000 000 000 000 000 000 000 000 000 000 000 000 000 000 000 000 000 000 000 000 000 000 000 000 000 000 000 000 000 000 000 000 000 000 000 000 000 000 000 000 000 000 000 000 000 000 000 000 000 000 000 000 000 000 000 000 000 000 000 000 000 000 000 000 000 000 000 000 000 000 000 000 000 000 000 000 000 000 000 000 000 000 000 000 000 000 000 000 000 000 000 000 000 000 000 000 000 000 000 000 000 000 000 000 000 000 000 000 000 000 000 000 000 000 000 000 000 000 000 000 000 000 000 000 000 000 000 000 000 000 000 000 000 000 000 000 000 000 000 000 000 000 000 000 000 000 000 000 000 000 000 000 000 000 000 000 000 000 000 000 000 000 000 000 000 000 000 000 000 000 000 000 000 000 000 000 000 000 000 000 000 000 000 000 000 000 000 000 000 000 000 000 000 000 000 000 000 000 000 000 000 000 000 000 000 000 000 000 000 000 000 000 000 000 000 000 000 000 000 000 000 000 000 000 000 000 000 000 000 000 000 000 000 000 000 000 000 000 000 000 000 000 000 000 000 000 000 000 000 000 000 000 000 000 000 000 000 000 000 000 000 000 000 000 000 000 000 000 000 000 000 000 000 000 000 000 000 000 000 000 000 000 000 000 000 000 000 000 000 000 000 000 000 000 000 000 000 000 000 000 000 000 000 000 000 000 255 205 000 255 205 000 255 205 000 255 205 000 255 205 000 255 205 000 255 205 000 255 205 000 255 205 000 255 205 000 255 205 000 255 205 000 255 205 000 255 205 000 255 205 000 255 205 000 255 205 000 255 205 000 255 205 000 255 205 000 255 205 000 255 205 000 255 205 000 255 205 000 255 205 000 255 205 000 255 205 000 255 205 000 255 205 000 255 205 000 255 205 000 255 205 000 255 205 000 255 205 000 255 205 000 255 205 000 255 205 000 255 205 000 255 205 000 255 205 000 255 205 000 255 205 000 255 205 000 255 205 000 255 205 000 255 205 000 255 205 000 255 205 000 255 205 000 255 205 000 255 205 000 255 205 000 255 205 000 255 205 000 255 205 000 255 205 000 255 205 000 255 205 000 255 205 000 255 205 000 255 205 000 255 205 000 255 205 000 255 205 000 255 205 000 255 205 000 255 205 000 255 205 000 255 205 000 255 205 000 255 205 000 255 205 000 000 000 000 000 000 000 000 000 000 000 000 000 000 000 000 000 000 000 000 000 000 000 000 000 000 000 000 000 000 000 000 000 000 000 000 000 000 000 000 000 000 000 000 000 000 000 000 000 000 000 000 000 000 000 000 000 000 000 000 000 000 000 000 000 000 000 000 000 000 000 000 000 000 000 000 000 000 000 000 000 000 000 000 000 000 000 000 000 000 000 000 000 000 000 000 000 000 000 000 000 000 000 000 000 000 000 000 000 000 000 000 000 000 000 000 000 000 000 000 000 000 000 000 000 000 000 000 000 000 000 000 000 000 000 000 000 000 000 000 000 000 000 000 000 000 000 000 000 000 000 000 000 000 000 000 000 000 000 000 000 000 000 000 000 000 000 000 000 000 000 000 000 000 000 000 000 000 000 000 000 000 000 000 000 000 000 000 000 000 000 000 000 000 000 000 000 000 000 000 000 000 000 000 000 000 000 000 000 000 000 000 000 000 000 000 000 000 000 000 000 000 000 000 000 000 000 000 000 000 000 000 000 000 000 000 000 000 000 000 000 000 000 000 000 000 000 000 000 000 000 000 000 000 000 000 000 000 000 000 000 000 000 000 000 000 000 000 000 000 000 000 000 000 000 000 000 000 000 000 000 000 000 000 000 000 000 000 000 000 000 000 000 000 000 000 000 000 000 000 000 000 000 000 000 000 000 000 000 000 000 000 000 000 000 000 000 000 000 000 000 000 000 000 000 000 000 000 000 000 000 000 000 000 000 000 000 000 000 000 000 000 000 000 000 000 000 000 000 000 000 000 000 000 000 000 000 000 000 000 000 000 000 000 000 000 000 000 000 000 000 000 000 000 000 000 000 000 000 000 000 000 000 000 000 000 000 000 000 000 000 255 205 000 255 205 000 255 205 000 255 205 000 255 205 000 255 205 000 255 205 000 255 205 000 255 205 000 255 205 000 255 205 000 255 205 000 255 205 000 255 205 000 255 205 000 255 205 000 255 205 000 255 205 000 255 205 000 255 205 000 255 205 000 255 205 000 255 205 000 255 205 000 255 205 000 255 205 000 255 205 000 255 205 000 255 205 000 255 205 000 255 205 000 255 205 000 255 205 000 255 205 000 255 205 000 255 205 000 255 205 000 255 205 000 255 205 000 255 205 000 255 205 000 255 205 000 255 205 000 255 205 000 255 205 000 255 205 000 255 205 000 255 205 000 255 205 000 255 205 000 255 205 000 255 205 000 255 205 000 255 205 000 255 205 000 255 205 000 255 205 000 255 205 000 255 205 000 255 205 000 255 205 000 255 205 000 255 205 000 255 205 000 255 205 000 255 205 000 255 205 000 255 205 000 000 000 000 000 000 000 000 000 000 000 000 000 000 000 000 000 000 000 000 000 000 000 000 000 000 000 000 000 000 000 000 000 000 000 000 000 000 000 000 000 000 000 000 000 000 000 000 000 000 000 000 000 000 000 000 000 000 000 000 000 000 000 000 000 000 000 000 000 000 000 000 000 000 000 000 000 000 000 000 000 000 000 000 000 000 000 000 000 000 000 000 000 000 000 000 000 000 000 000 000 000 000 000 000 000 000 000 000 000 000 000 000 000 000 000 000 000 000 000 000 000 000 000 000 000 000 000 000 000 000 000 000 000 000 000 000 000 000 000 000 000 000 000 000 000 000 000 000 000 000 000 000 000 000 000 000 000 000 000 000 000 000 000 000 000 000 000 000 000 000 000 000 000 000 000 000 000 000 000 000 000 000 000 000 000 000 000 000 000 000 000 000 000 000 000 000 000 000 000 000 000 000 000 000 000 000 000 000 000 000 000 000 000 000 000 000 000 000 000 000 000 000 000 000 000 000 000 000 000 000 000 000 000 000 000 000 000 000 000 000 000 000 000 000 000 000 000 000 000 000 000 000 000 000 000 000 000 000 000 000 000 000 000 000 000 000 000 000 000 000 000 000 000 000 000 000 000 000 000 000 000 000 000 000 000 000 000 000 000 000 000 000 000 000 000 000 000 000 000 000 000 000 000 000 000 000 000 000 000 000 000 000 000 000 000 000 000 000 000 000 000 000 000 000 000 000 000 000 000 000 000 000 000 000 000 000 000 000 000 000 000 000 000 000 000 000 000 000 000 000 000 000 000 000 000 000 000 000 000 000 000 000 000 000 000 000 000 000 000 000 000 000 000 000 000 000 000 000 000 000 000 000 000 000 000 000 000 000 000 000 000 000 000 000 000 000 000 000 000 000 000 000 255 205 000 255 205 000 255 205 000 255 205 000 255 205 000 255 205 000 255 205 000 255 205 000 255 205 000 255 205 000 255 205 000 255 205 000 255 205 000 255 205 000 255 205 000 255 205 000 255 205 000 255 205 000 255 205 000 255 205 000 255 205 000 255 205 000 255 205 000 255 205 000 255 205 000 255 205 000 255 205 000 255 205 000 255 205 000 255 205 000 255 205 000 255 205 000 255 205 000 255 205 000 255 205 000 255 205 000 255 205 000 255 205 000 255 205 000 255 205 000 255 205 000 255 205 000 255 205 000 255 205 000 255 205 000 255 205 000 255 205 000 255 205 000 255 205 000 255 205 000 255 205 000 255 205 000 255 205 000 255 205 000 255 205 000 255 205 000 255 205 000 255 205 000 255 205 000 255 205 000 255 205 000 255 205 000 255 205 000 255 205 000 000 000 000 000 000 000 000 000 000 000 000 000 000 000 000 000 000 000 000 000 000 000 000 000 000 000 000 000 000 000 000 000 000 000 000 000 000 000 000 000 000 000 000 000 000 000 000 000 000 000 000 000 000 000 000 000 000 000 000 000 000 000 000 000 000 000 000 000 000 000 000 000 000 000 000 000 000 000 000 000 000 000 000 000 000 000 000 000 000 000 000 000 000 000 000 000 000 000 000 000 000 000 000 000 000 000 000 000 000 000 000 000 000 000 000 000 000 000 000 000 000 000 000 000 000 000 000 000 000 000 000 000 000 000 000 000 000 000 000 000 000 000 000 000 000 000 000 000 000 000 000 000 000 000 000 000 000 000 000 000 000 000 000 000 000 000 000 000 000 000 000 000 000 000 000 000 000 000 000 000 000 000 000 000 000 000 000 000 000 000 000 000 000 000 000 000 000 000 000 000 000 000 000 000 000 000 000 000 000 000 000 000 000 000 000 000 000 000 000 000 000 000 000 000 000 000 000 000 000 000 000 000 000 000 000 000 000 000 000 000 000 000 000 000 000 000 000 000 000 000 000 000 000 000 000 000 000 000 000 000 000 000 000 000 000 000 000 000 000 000 000 000 000 000 000 000 000 000 000 000 000 000 000 000 000 000 000 000 000 000 000 000 000 000 000 000 000 000 000 000 000 000 000 000 000 000 000 000 000 000 000 000 000 000 000 000 000 000 000 000 000 000 000 000 000 000 000 000 000 000 000 000 000 000 000 000 000 000 000 000 000 000 000 000 000 000 000 000 000 000 000 000 000 000 000 000 000 000 000 000 000 000 000 000 000 000 000 000 000 000 000 000 000 000 000 000 000 000 000 000 000 000 000 000 000 000 000 000 000 000 000 000 000 000 000 000 000 000 000 000 000 000 000 000 000 000 000 000 000 000 000 000 000 000 255 205 000 255 205 000 255 205 000 255 205 000 255 205 000 255 205 000 255 205 000 255 205 000 255 205 000 255 205 000 255 205 000 255 205 000 255 205 000 255 205 000 255 205 000 255 205 000 255 205 000 255 205 000 255 205 000 255 205 000 255 205 000 255 205 000 255 205 000 255 205 000 255 205 000 255 205 000 255 205 000 255 205 000 255 205 000 255 205 000 255 205 000 255 205 000 255 205 000 255 205 000 255 205 000 255 205 000 255 205 000 255 205 000 255 205 000 255 205 000 255 205 000 255 205 000 255 205 000 255 205 000 255 205 000 255 205 000 255 205 000 255 205 000 255 205 000 255 205 000 255 205 000 255 205 000 255 205 000 255 205 000 255 205 000 255 205 000 255 205 000 255 205 000 255 205 000 255 205 000 000 000 000 000 000 000 000 000 000 000 000 000 000 000 000 000 000 000 000 000 000 000 000 000 000 000 000 000 000 000 000 000 000 000 000 000 000 000 000 000 000 000 000 000 000 000 000 000 000 000 000 000 000 000 000 000 000 000 000 000 000 000 000 000 000 000 000 000 000 000 000 000 000 000 000 000 000 000 000 000 000 000 000 000 000 000 000 000 000 000 000 000 000 000 000 000 000 000 000 000 000 000 000 000 000 000 000 000 000 000 000 000 000 000 000 000 000 000 000 000 000 000 000 000 000 000 000 000 000 000 000 000 000 000 000 000 000 000 000 000 000 000 000 000 000 000 000 000 000 000 000 000 000 000 000 000 000 000 000 000 000 000 000 000 000 000 000 000 000 000 000 000 000 000 000 000 000 000 000 000 000 000 000 000 000 000 000 000 000 000 000 000 000 000 000 000 000 000 000 000 000 000 000 000 000 000 000 000 000 000 000 000 000 000 000 000 000 000 000 000 000 000 000 000 000 000 000 000 000 000 000 000 000 000 000 000 000 000 000 000 000 000 000 000 000 000 000 000 000 000 000 000 000 000 000 000 000 000 000 000 000 000 000 000 000 000 000 000 000 000 000 000 000 000 000 000 000 000 000 000 000 000 000 000 000 000 000 000 000 000 000 000 000 000 000 000 000 000 000 000 000 000 000 000 000 000 000 000 000 000 000 000 000 000 000 000 000 000 000 000 000 000 000 000 000 000 000 000 000 000 000 000 000 000 000 000 000 000 000 000 000 000 000 000 000 000 000 000 000 000 000 000 000 000 000 000 000 000 000 000 000 000 000 000 000 000 000 000 000 000 000 000 000 000 000 000 000 000 000 000 000 000 000 000 000 000 000 000 000 000 000 000 000 000 000 000 000 000 000 000 000 000 000 000 000 000 000 000 000 000 000 000 000 000 000 000 000 000 000 000 000 000 000 000 000 000 255 205 000 255 205 000 255 205 000 255 205 000 255 205 000 255 205 000 255 205 000 255 205 000 255 205 000 255 205 000 255 205 000 255 205 000 255 205 000 255 205 000 255 205 000 255 205 000 255 205 000 255 205 000 255 205 000 255 205 000 255 205 000 255 205 000 255 205 000 255 205 000 255 205 000 255 205 000 255 205 000 255 205 000 255 205 000 255 205 000 255 205 000 255 205 000 255 205 000 255 205 000 255 205 000 255 205 000 255 205 000 255 205 000 255 205 000 255 205 000 255 205 000 255 205 000 255 205 000 255 205 000 255 205 000 255 205 000 255 205 000 255 205 000 255 205 000 255 205 000 255 205 000 255 205 000 255 205 000 255 205 000 255 205 000 255 205 000 000 000 000 000 000 000 000 000 000 000 000 000 000 000 000 000 000 000 000 000 000 000 000 000 000 000 000 000 000 000 000 000 000 000 000 000 000 000 000 000 000 000 000 000 000 000 000 000 000 000 000 000 000 000 000 000 000 000 000 000 000 000 000 000 000 000 000 000 000 000 000 000 000 000 000 000 000 000 000 000 000 000 000 000 000 000 000 000 000 000 000 000 000 000 000 000 000 000 000 000 000 000 000 000 000 000 000 000 000 000 000 000 000 000 000 000 000 000 000 000 000 000 000 000 000 000 000 000 000 000 000 000 000 000 000 000 000 000 000 000 000 000 000 000 000 000 000 000 000 000 000 000 000 000 000 000 000 000 000 000 000 000 000 000 000 000 000 000 000 000 000 000 000 000 000 000 000 000 000 000 000 000 000 000 000 000 000 000 000 000 000 000 000 000 000 000 000 000 000 000 000 000 000 000 000 000 000 000 000 000 000 000 000 000 000 000 000 000 000 000 000 000 000 000 000 000 000 000 000 000 000 000 000 000 000 000 000 000 000 000 000 000 000 000 000 000 000 000 000 000 000 000 000 000 000 000 000 000 000 000 000 000 000 000 000 000 000 000 000 000 000 000 000 000 000 000 000 000 000 000 000 000 000 000 000 000 000 000 000 000 000 000 000 000 000 000 000 000 000 000 000 000 000 000 000 000 000 000 000 000 000 000 000 000 000 000 000 000 000 000 000 000 000 000 000 000 000 000 000 000 000 000 000 000 000 000 000 000 000 000 000 000 000 000 000 000 000 000 000 000 000 000 000 000 000 000 000 000 000 000 000 000 000 000 000 000 000 000 000 000 000 000 000 000 000 000 000 000 000 000 000 000 000 000 000 000 000 000 000 000 000 000 000 000 000 000 000 000 000 000 000 000 000 000 000 000 000 000 000 000 000 000 000 000 000 000 000 000 000 000 000 000 000 000 000 000 000 000 000 000 000 000 000 000 000 000 000 000 255 205 000 255 205 000 255 205 000 255 205 000 255 205 000 255 205 000 255 205 000 255 205 000 255 205 000 255 205 000 255 205 000 255 205 000 255 205 000 255 205 000 255 205 000 255 205 000 255 205 000 255 205 000 255 205 000 255 205 000 255 205 000 255 205 000 255 205 000 255 205 000 255 205 000 255 205 000 255 205 000 255 205 000 255 205 000 255 205 000 255 205 000 255 205 000 255 205 000 255 205 000 255 205 000 255 205 000 255 205 000 255 205 000 255 205 000 255 205 000 255 205 000 255 205 000 255 205 000 255 205 000 255 205 000 255 205 000 255 205 000 255 205 000 255 205 000 255 205 000 255 205 000 255 205 000 000 000 000 000 000 000 000 000 000 000 000 000 000 000 000 000 000 000 000 000 000 000 000 000 000 000 000 000 000 000 000 000 000 000 000 000 000 000 000 000 000 000 000 000 000 000 000 000 000 000 000 000 000 000 000 000 000 000 000 000 000 000 000 000 000 000 000 000 000 000 000 000 000 000 000 000 000 000 000 000 000 000 000 000 000 000 000 000 000 000 000 000 000 000 000 000 000 000 000 000 000 000 000 000 000 000 000 000 000 000 000 000 000 000 000 000 000 000 000 000 000 000 000 000 000 000 000 000 000 000 000 000 000 000 000 000 000 000 000 000 000 000 000 000 000 000 000 000 000 000 000 000 000 000 000 000 000 000 000 000 000 000 000 000 000 000 000 000 000 000 000 000 000 000 000 000 000 000 000 000 000 000 000 000 000 000 000 000 000 000 000 000 000 000 000 000 000 000 000 000 000 000 000 000 000 000 000 000 000 000 000 000 000 000 000 000 000 000 000 000 000 000 000 000 000 000 000 000 000 000 000 000 000 000 000 000 000 000 000 000 000 000 000 000 000 000 000 000 000 000 000 000 000 000 000 000 000 000 000 000 000 000 000 000 000 000 000 000 000 000 000 000 000 000 000 000 000 000 000 000 000 000 000 000 000 000 000 000 000 000 000 000 000 000 000 000 000 000 000 000 000 000 000 000 000 000 000 000 000 000 000 000 000 000 000 000 000 000 000 000 000 000 000 000 000 000 000 000 000 000 000 000 000 000 000 000 000 000 000 000 000 000 000 000 000 000 000 000 000 000 000 000 000 000 000 000 000 000 000 000 000 000 000 000 000 000 000 000 000 000 000 000 000 000 000 000 000 000 000 000 000 000 000 000 000 000 000 000 000 000 000 000 000 000 000 000 000 000 000 000 000 000 000 000 000 000 000 000 000 000 000 000 000 000 000 000 000 000 000 000 000 000 000 000 000 000 000 000 000 000 000 000 000 000 000 000 000 000 000 000 000 000 000 000 000 000 000 000 000 000 255 205 000 255 205 000 255 205 000 255 205 000 255 205 000 255 205 000 255 205 000 255 205 000 255 205 000 255 205 000 255 205 000 255 205 000 255 205 000 255 205 000 255 205 000 255 205 000 255 205 000 255 205 000 255 205 000 255 205 000 255 205 000 255 205 000 255 205 000 255 205 000 255 205 000 255 205 000 255 205 000 255 205 000 255 205 000 255 205 000 255 205 000 255 205 000 255 205 000 255 205 000 255 205 000 255 205 000 255 205 000 255 205 000 255 205 000 255 205 000 255 205 000 255 205 000 255 205 000 255 205 000 255 205 000 255 205 000 255 205 000 255 205 000 000 000 000 000 000 000 000 000 000 000 000 000 000 000 000 000 000 000 000 000 000 000 000 000 000 000 000 000 000 000 000 000 000 000 000 000 000 000 000 000 000 000 000 000 000 000 000 000 000 000 000 000 000 000 000 000 000 000 000 000 000 000 000 000 000 000 000 000 000 000 000 000 000 000 000 000 000 000 000 000 000 000 000 000 000 000 000 000 000 000 000 000 000 000 000 000 000 000 000 000 000 000 000 000 000 000 000 000 000 000 000 000 000 000 000 000 000 000 000 000 000 000 000 000 000 000 000 000 000 000 000 000 000 000 000 000 000 000 000 000 000 000 000 000 000 000 000 000 000 000 000 000 000 000 000 000 000 000 000 000 000 000 000 000 000 000 000 000 000 000 000 000 000 000 000 000 000 000 000 000 000 000 000 000 000 000 000 000 000 000 000 000 000 000 000 000 000 000 000 000 000 000 000 000 000 000 000 000 000 000 000 000 000 000 000 000 000 000 000 000 000 000 000 000 000 000 000 000 000 000 000 000 000 000 000 000 000 000 000 000 000 000 000 000 000 000 000 000 000 000 000 000 000 000 000 000 000 000 000 000 000 000 000 000 000 000 000 000 000 000 000 000 000 000 000 000 000 000 000 000 000 000 000 000 000 000 000 000 000 000 000 000 000 000 000 000 000 000 000 000 000 000 000 000 000 000 000 000 000 000 000 000 000 000 000 000 000 000 000 000 000 000 000 000 000 000 000 000 000 000 000 000 000 000 000 000 000 000 000 000 000 000 000 000 000 000 000 000 000 000 000 000 000 000 000 000 000 000 000 000 000 000 000 000 000 000 000 000 000 000 000 000 000 000 000 000 000 000 000 000 000 000 000 000 000 000 000 000 000 000 000 000 000 000 000 000 000 000 000 000 000 000 000 000 000 000 000 000 000 000 000 000 000 000 000 000 000 000 000 000 000 000 000 000 000 000 000 000 000 000 000 000 000 000 000 000 000 000 000 000 000 000 000 000 000 000 000 000 000 000 000 000 000 000 000 000 000 000 000 000 000 000 255 205 000 255 205 000 255 205 000 255 205 000 255 205 000 255 205 000 255 205 000 255 205 000 255 205 000 255 205 000 255 205 000 255 205 000 255 205 000 255 205 000 255 205 000 255 205 000 255 205 000 255 205 000 255 205 000 255 205 000 255 205 000 255 205 000 255 205 000 255 205 000 255 205 000 255 205 000 255 205 000 255 205 000 255 205 000 255 205 000 255 205 000 255 205 000 255 205 000 255 205 000 255 205 000 255 205 000 255 205 000 255 205 000 255 205 000 255 205 000 255 205 000 255 205 000 255 205 000 255 205 000 000 000 000 000 000 000 000 000 000 000 000 000 000 000 000 000 000 000 000 000 000 000 000 000 000 000 000 000 000 000 000 000 000 000 000 000 000 000 000 000 000 000 000 000 000 000 000 000 000 000 000 000 000 000 000 000 000 000 000 000 000 000 000 000 000 000 000 000 000 000 000 000 000 000 000 000 000 000 000 000 000 000 000 000 000 000 000 000 000 000 000 000 000 000 000 000 000 000 000 000 000 000 000 000 000 000 000 000 000 000 000 000 000 000 000 000 000 000 000 000 000 000 000 000 000 000 000 000 000 000 000 000 000 000 000 000 000 000 000 000 000 000 000 000 000 000 000 000 000 000 000 000 000 000 000 000 000 000 000 000 000 000 000 000 000 000 000 000 000 000 000 000 000 000 000 000 000 000 000 000 000 000 000 000 000 000 000 000 000 000 000 000 000 000 000 000 000 000 000 000 000 000 000 000 000 000 000 000 000 000 000 000 000 000 000 000 000 000 000 000 000 000 000 000 000 000 000 000 000 000 000 000 000 000 000 000 000 000 000 000 000 000 000 000 000 000 000 000 000 000 000 000 000 000 000 000 000 000 000 000 000 000 000 000 000 000 000 000 000 000 000 000 000 000 000 000 000 000 000 000 000 000 000 000 000 000 000 000 000 000 000 000 000 000 000 000 000 000 000 000 000 000 000 000 000 000 000 000 000 000 000 000 000 000 000 000 000 000 000 000 000 000 000 000 000 000 000 000 000 000 000 000 000 000 000 000 000 000 000 000 000 000 000 000 000 000 000 000 000 000 000 000 000 000 000 000 000 000 000 000 000 000 000 000 000 000 000 000 000 000 000 000 000 000 000 000 000 000 000 000 000 000 000 000 000 000 000 000 000 000 000 000 000 000 000 000 000 000 000 000 000 000 000 000 000 000 000 000 000 000 000 000 000 000 000 000 000 000 000 000 000 000 000 000 000 000 000 000 000 000 000 000 000 000 000 000 000 000 000 000 000 000 000 000 000 000 000 000 000 000 000 000 000 000 000 000 000 000 000 000 000 000 000 000 000 000 000 000 000 000 000 000 000 000 255 205 000 255 205 000 255 205 000 255 205 000 255 205 000 255 205 000 255 205 000 255 205 000 255 205 000 255 205 000 255 205 000 255 205 000 255 205 000 255 205 000 255 205 000 255 205 000 255 205 000 255 205 000 255 205 000 255 205 000 255 205 000 255 205 000 255 205 000 255 205 000 255 205 000 255 205 000 255 205 000 255 205 000 255 205 000 255 205 000 255 205 000 255 205 000 255 205 000 255 205 000 255 205 000 255 205 000 255 205 000 255 205 000 255 205 000 255 205 000 000 000 000 000 000 000 000 000 000 000 000 000 000 000 000 000 000 000 000 000 000 000 000 000 000 000 000 000 000 000 000 000 000 000 000 000 000 000 000 000 000 000 000 000 000 000 000 000 000 000 000 000 000 000 000 000 000 000 000 000 000 000 000 000 000 000 000 000 000 000 000 000 000 000 000 000 000 000 000 000 000 000 000 000 000 000 000 000 000 000 000 000 000 000 000 000 000 000 000 000 000 000 000 000 000 000 000 000 000 000 000 000 000 000 000 000 000 000 000 000 000 000 000 000 000 000 000 000 000 000 000 000 000 000 000 000 000 000 000 000 000 000 000 000 000 000 000 000 000 000 000 000 000 000 000 000 000 000 000 000 000 000 000 000 000 000 000 000 000 000 000 000 000 000 000 000 000 000 000 000 000 000 000 000 000 000 000 000 000 000 000 000 000 000 000 000 000 000 000 000 000 000 000 000 000 000 000 000 000 000 000 000 000 000 000 000 000 000 000 000 000 000 000 000 000 000 000 000 000 000 000 000 000 000 000 000 000 000 000 000 000 000 000 000 000 000 000 000 000 000 000 000 000 000 000 000 000 000 000 000 000 000 000 000 000 000 000 000 000 000 000 000 000 000 000 000 000 000 000 000 000 000 000 000 000 000 000 000 000 000 000 000 000 000 000 000 000 000 000 000 000 000 000 000 000 000 000 000 000 000 000 000 000 000 000 000 000 000 000 000 000 000 000 000 000 000 000 000 000 000 000 000 000 000 000 000 000 000 000 000 000 000 000 000 000 000 000 000 000 000 000 000 000 000 000 000 000 000 000 000 000 000 000 000 000 000 000 000 000 000 000 000 000 000 000 000 000 000 000 000 000 000 000 000 000 000 000 000 000 000 000 000 000 000 000 000 000 000 000 000 000 000 000 000 000 000 000 000 000 000 000 000 000 000 000 000 000 000 000 000 000 000 000 000 000 000 000 000 000 000 000 000 000 000 000 000 000 000 000 000 000 000 000 000 000 000 000 000 000 000 000 000 000 000 000 000 000 000 000 000 000 000 000 000 000 000 000 000 000 000 000 000 000 000 000 000 000 000 000 000 000 000 000 000 000 000 255 205 000 255 205 000 255 205 000 255 205 000 255 205 000 255 205 000 255 205 000 255 205 000 255 205 000 255 205 000 255 205 000 255 205 000 255 205 000 255 205 000 255 205 000 255 205 000 255 205 000 255 205 000 255 205 000 255 205 000 255 205 000 255 205 000 255 205 000 255 205 000 255 205 000 255 205 000 255 205 000 255 205 000 255 205 000 255 205 000 255 205 000 255 205 000 255 205 000 255 205 000 255 205 000 255 205 000 000 000 000 000 000 000 000 000 000 000 000 000 000 000 000 000 000 000 000 000 000 000 000 000 000 000 000 000 000 000 000 000 000 000 000 000 000 000 000 000 000 000 000 000 000 000 000 000 000 000 000 000 000 000 000 000 000 000 000 000 000 000 000 000 000 000 000 000 000 000 000 000 000 000 000 000 000 000 000 000 000 000 000 000 000 000 000 000 000 000 000 000 000 000 000 000 000 000 000 000 000 000 000 000 000 000 000 000 000 000 000 000 000 000 000 000 000 000 000 000 000 000 000 000 000 000 000 000 000 000 000 000 000 000 000 000 000 000 000 000 000 000 000 000 000 000 000 000 000 000 000 000 000 000 000 000 000 000 000 000 000 000 000 000 000 000 000 000 000 000 000 000 000 000 000 000 000 000 000 000 000 000 000 000 000 000 000 000 000 000 000 000 000 000 000 000 000 000 000 000 000 000 000 000 000 000 000 000 000 000 000 000 000 000 000 000 000 000 000 000 000 000 000 000 000 000 000 000 000 000 000 000 000 000 000 000 000 000 000 000 000 000 000 000 000 000 000 000 000 000 000 000 000 000 000 000 000 000 000 000 000 000 000 000 000 000 000 000 000 000 000 000 000 000 000 000 000 000 000 000 000 000 000 000 000 000 000 000 000 000 000 000 000 000 000 000 000 000 000 000 000 000 000 000 000 000 000 000 000 000 000 000 000 000 000 000 000 000 000 000 000 000 000 000 000 000 000 000 000 000 000 000 000 000 000 000 000 000 000 000 000 000 000 000 000 000 000 000 000 000 000 000 000 000 000 000 000 000 000 000 000 000 000 000 000 000 000 000 000 000 000 000 000 000 000 000 000 000 000 000 000 000 000 000 000 000 000 000 000 000 000 000 000 000 000 000 000 000 000 000 000 000 000 000 000 000 000 000 000 000 000 000 000 000 000 000 000 000 000 000 000 000 000 000 000 000 000 000 000 000 000 000 000 000 000 000 000 000 000 000 000 000 000 000 000 000 000 000 000 000 000 000 000 000 000 000 000 000 000 000 000 000 000 000 000 000 000 000 000 000 000 000 000 000 000 000 000 000 000 000 000 000 000 000 000 000 255 205 000 255 205 000 255 205 000 255 205 000 255 205 000 255 205 000 255 205 000 255 205 000 255 205 000 255 205 000 255 205 000 255 205 000 255 205 000 255 205 000 255 205 000 255 205 000 255 205 000 255 205 000 255 205 000 255 205 000 255 205 000 255 205 000 255 205 000 255 205 000 255 205 000 255 205 000 255 205 000 255 205 000 255 205 000 255 205 000 255 205 000 255 205 000 255 205 000 255 205 000 255 205 000 255 205 000 255 205 000 255 205 000 255 205 000 255 205 000 000 000 000 000 000 000 000 000 000 000 000 000 000 000 000 000 000 000 000 000 000 000 000 000 000 000 000 000 000 000 000 000 000 000 000 000 000 000 000 000 000 000 000 000 000 000 000 000 000 000 000 000 000 000 000 000 000 000 000 000 000 000 000 000 000 000 000 000 000 000 000 000 000 000 000 000 000 000 000 000 000 000 000 000 000 000 000 000 000 000 000 000 000 000 000 000 000 000 000 000 000 000 000 000 000 000 000 000 000 000 000 000 000 000 000 000 000 000 000 000 000 000 000 000 000 000 000 000 000 000 000 000 000 000 000 000 000 000 000 000 000 000 000 000 000 000 000 000 000 000 000 000 000 000 000 000 000 000 000 000 000 000 000 000 000 000 000 000 000 000 000 000 000 000 000 000 000 000 000 000 000 000 000 000 000 000 000 000 000 000 000 000 000 000 000 000 000 000 000 000 000 000 000 000 000 000 000 000 000 000 000 000 000 000 000 000 000 000 000 000 000 000 000 000 000 000 000 000 000 000 000 000 000 000 000 000 000 000 000 000 000 000 000 000 000 000 000 000 000 000 000 000 000 000 000 000 000 000 000 000 000 000 000 000 000 000 000 000 000 000 000 000 000 000 000 000 000 000 000 000 000 000 000 000 000 000 000 000 000 000 000 000 000 000 000 000 000 000 000 000 000 000 000 000 000 000 000 000 000 000 000 000 000 000 000 000 000 000 000 000 000 000 000 000 000 000 000 000 000 000 000 000 000 000 000 000 000 000 000 000 000 000 000 000 000 000 000 000 000 000 000 000 000 000 000 000 000 000 000 000 000 000 000 000 000 000 000 000 000 000 000 000 000 000 000 000 000 000 000 000 000 000 000 000 000 000 000 000 000 000 000 000 000 000 000 000 000 000 000 000 000 000 000 000 000 000 000 000 000 000 000 000 000 000 000 000 000 000 000 000 000 000 000 000 000 000 000 000 000 000 000 000 000 000 000 000 000 000 000 000 000 000 000 000 000 000 000 000 000 000 000 000 000 000 000 000 000 000 000 000 000 000 000 000 000 000 000 000 000 000 000 000 000 000 255 205 000 255 205 000 255 205 000 255 205 000 255 205 000 255 205 000 255 205 000 255 205 000 255 205 000 255 205 000 255 205 000 255 205 000 255 205 000 255 205 000 255 205 000 255 205 000 255 205 000 255 205 000 255 205 000 255 205 000 255 205 000 255 205 000 255 205 000 255 205 000 255 205 000 255 205 000 255 205 000 255 205 000 255 205 000 255 205 000 255 205 000 255 205 000 255 205 000 255 205 000 255 205 000 255 205 000 255 205 000 255 205 000 255 205 000 255 205 000 255 205 000 255 205 000 255 205 000 255 205 000 000 000 000 000 000 000 000 000 000 000 000 000 000 000 000 000 000 000 000 000 000 000 000 000 000 000 000 000 000 000 000 000 000 000 000 000 000 000 000 000 000 000 000 000 000 000 000 000 000 000 000 000 000 000 000 000 000 000 000 000 000 000 000 000 000 000 000 000 000 000 000 000 000 000 000 000 000 000 000 000 000 000 000 000 000 000 000 000 000 000 000 000 000 000 000 000 000 000 000 000 000 000 000 000 000 000 000 000 000 000 000 000 000 000 000 000 000 000 000 000 000 000 000 000 000 000 000 000 000 000 000 000 000 000 000 000 000 000 000 000 000 000 000 000 000 000 000 000 000 000 000 000 000 000 000 000 000 000 000 000 000 000 000 000 000 000 000 000 000 000 000 000 000 000 000 000 000 000 000 000 000 000 000 000 000 000 000 000 000 000 000 000 000 000 000 000 000 000 000 000 000 000 000 000 000 000 000 000 000 000 000 000 000 000 000 000 000 000 000 000 000 000 000 000 000 000 000 000 000 000 000 000 000 000 000 000 000 000 000 000 000 000 000 000 000 000 000 000 000 000 000 000 000 000 000 000 000 000 000 000 000 000 000 000 000 000 000 000 000 000 000 000 000 000 000 000 000 000 000 000 000 000 000 000 000 000 000 000 000 000 000 000 000 000 000 000 000 000 000 000 000 000 000 000 000 000 000 000 000 000 000 000 000 000 000 000 000 000 000 000 000 000 000 000 000 000 000 000 000 000 000 000 000 000 000 000 000 000 000 000 000 000 000 000 000 000 000 000 000 000 000 000 000 000 000 000 000 000 000 000 000 000 000 000 000 000 000 000 000 000 000 000 000 000 000 000 000 000 000 000 000 000 000 000 000 000 000 000 000 000 000 000 000 000 000 000 000 000 000 000 000 000 000 000 000 000 000 000 000 000 000 000 000 000 000 000 000 000 000 000 000 000 000 000 000 000 000 000 000 000 000 000 000 000 000 000 000 000 000 000 000 000 000 000 000 000 000 000 000 000 000 000 000 000 000 000 000 000 000 000 000 000 255 205 000 255 205 000 255 205 000 255 205 000 255 205 000 255 205 000 255 205 000 255 205 000 255 205 000 255 205 000 255 205 000 255 205 000 255 205 000 255 205 000 255 205 000 255 205 000 255 205 000 255 205 000 255 205 000 255 205 000 255 205 000 255 205 000 255 205 000 255 205 000 255 205 000 255 205 000 255 205 000 255 205 000 255 205 000 255 205 000 255 205 000 255 205 000 255 205 000 255 205 000 255 205 000 255 205 000 255 205 000 255 205 000 255 205 000 255 205 000 255 205 000 255 205 000 255 205 000 255 205 000 255 205 000 255 205 000 255 205 000 255 205 000 000 000 000 000 000 000 000 000 000 000 000 000 000 000 000 000 000 000 000 000 000 000 000 000 000 000 000 000 000 000 000 000 000 000 000 000 000 000 000 000 000 000 000 000 000 000 000 000 000 000 000 000 000 000 000 000 000 000 000 000 000 000 000 000 000 000 000 000 000 000 000 000 000 000 000 000 000 000 000 000 000 000 000 000 000 000 000 000 000 000 000 000 000 000 000 000 000 000 000 000 000 000 000 000 000 000 000 000 000 000 000 000 000 000 000 000 000 000 000 000 000 000 000 000 000 000 000 000 000 000 000 000 000 000 000 000 000 000 000 000 000 000 000 000 000 000 000 000 000 000 000 000 000 000 000 000 000 000 000 000 000 000 000 000 000 000 000 000 000 000 000 000 000 000 000 000 000 000 000 000 000 000 000 000 000 000 000 000 000 000 000 000 000 000 000 000 000 000 000 000 000 000 000 000 000 000 000 000 000 000 000 000 000 000 000 000 000 000 000 000 000 000 000 000 000 000 000 000 000 000 000 000 000 000 000 000 000 000 000 000 000 000 000 000 000 000 000 000 000 000 000 000 000 000 000 000 000 000 000 000 000 000 000 000 000 000 000 000 000 000 000 000 000 000 000 000 000 000 000 000 000 000 000 000 000 000 000 000 000 000 000 000 000 000 000 000 000 000 000 000 000 000 000 000 000 000 000 000 000 000 000 000 000 000 000 000 000 000 000 000 000 000 000 000 000 000 000 000 000 000 000 000 000 000 000 000 000 000 000 000 000 000 000 000 000 000 000 000 000 000 000 000 000 000 000 000 000 000 000 000 000 000 000 000 000 000 000 000 000 000 000 000 000 000 000 000 000 000 000 000 000 000 000 000 000 000 000 000 000 000 000 000 000 000 000 000 000 000 000 000 000 000 000 000 000 000 000 000 000 000 000 000 000 000 000 000 000 000 000 000 000 000 000 000 000 000 000 000 000 000 000 000 000 000 000 000 000 000 000 000 000 000 000 000 000 000 000 000 000 000 255 205 000 255 205 000 255 205 000 255 205 000 255 205 000 255 205 000 255 205 000 255 205 000 255 205 000 255 205 000 255 205 000 255 205 000 255 205 000 255 205 000 255 205 000 255 205 000 255 205 000 255 205 000 255 205 000 255 205 000 255 205 000 255 205 000 255 205 000 255 205 000 255 205 000 255 205 000 255 205 000 255 205 000 255 205 000 255 205 000 255 205 000 255 205 000 255 205 000 255 205 000 255 205 000 255 205 000 255 205 000 255 205 000 255 205 000 255 205 000 255 205 000 255 205 000 255 205 000 255 205 000 255 205 000 255 205 000 255 205 000 255 205 000 255 205 000 255 205 000 255 205 000 255 205 000 000 000 000 000 000 000 000 000 000 000 000 000 000 000 000 000 000 000 000 000 000 000 000 000 000 000 000 000 000 000 000 000 000 000 000 000 000 000 000 000 000 000 000 000 000 000 000 000 000 000 000 000 000 000 000 000 000 000 000 000 000 000 000 000 000 000 000 000 000 000 000 000 000 000 000 000 000 000 000 000 000 000 000 000 000 000 000 000 000 000 000 000 000 000 000 000 000 000 000 000 000 000 000 000 000 000 000 000 000 000 000 000 000 000 000 000 000 000 000 000 000 000 000 000 000 000 000 000 000 000 000 000 000 000 000 000 000 000 000 000 000 000 000 000 000 000 000 000 000 000 000 000 000 000 000 000 000 000 000 000 000 000 000 000 000 000 000 000 000 000 000 000 000 000 000 000 000 000 000 000 000 000 000 000 000 000 000 000 000 000 000 000 000 000 000 000 000 000 000 000 000 000 000 000 000 000 000 000 000 000 000 000 000 000 000 000 000 000 000 000 000 000 000 000 000 000 000 000 000 000 000 000 000 000 000 000 000 000 000 000 000 000 000 000 000 000 000 000 000 000 000 000 000 000 000 000 000 000 000 000 000 000 000 000 000 000 000 000 000 000 000 000 000 000 000 000 000 000 000 000 000 000 000 000 000 000 000 000 000 000 000 000 000 000 000 000 000 000 000 000 000 000 000 000 000 000 000 000 000 000 000 000 000 000 000 000 000 000 000 000 000 000 000 000 000 000 000 000 000 000 000 000 000 000 000 000 000 000 000 000 000 000 000 000 000 000 000 000 000 000 000 000 000 000 000 000 000 000 000 000 000 000 000 000 000 000 000 000 000 000 000 000 000 000 000 000 000 000 000 000 000 000 000 000 000 000 000 000 000 000 000 000 000 000 000 000 000 000 000 000 000 000 000 000 000 000 000 000 000 000 000 000 000 000 000 000 000 000 000 000 000 000 000 000 000 000 000 000 000 000 000 000 000 000 000 000 000 000 255 205 000 255 205 000 255 205 000 255 205 000 255 205 000 255 205 000 255 205 000 255 205 000 255 205 000 255 205 000 255 205 000 255 205 000 255 205 000 255 205 000 255 205 000 255 205 000 255 205 000 255 205 000 255 205 000 255 205 000 255 205 000 255 205 000 255 205 000 255 205 000 255 205 000 255 205 000 255 205 000 255 205 000 255 205 000 255 205 000 255 205 000 255 205 000 255 205 000 255 205 000 255 205 000 255 205 000 255 205 000 255 205 000 255 205 000 255 205 000 255 205 000 255 205 000 255 205 000 255 205 000 255 205 000 255 205 000 255 205 000 255 205 000 255 205 000 255 205 000 255 205 000 255 205 000 255 205 000 255 205 000 255 205 000 255 205 000 000 000 000 000 000 000 000 000 000 000 000 000 000 000 000 000 000 000 000 000 000 000 000 000 000 000 000 000 000 000 000 000 000 000 000 000 000 000 000 000 000 000 000 000 000 000 000 000 000 000 000 000 000 000 000 000 000 000 000 000 000 000 000 000 000 000 000 000 000 000 000 000 000 000 000 000 000 000 000 000 000 000 000 000 000 000 000 000 000 000 000 000 000 000 000 000 000 000 000 000 000 000 000 000 000 000 000 000 000 000 000 000 000 000 000 000 000 000 000 000 000 000 000 000 000 000 000 000 000 000 000 000 000 000 000 000 000 000 000 000 000 000 000 000 000 000 000 000 000 000 000 000 000 000 000 000 000 000 000 000 000 000 000 000 000 000 000 000 000 000 000 000 000 000 000 000 000 000 000 000 000 000 000 000 000 000 000 000 000 000 000 000 000 000 000 000 000 000 000 000 000 000 000 000 000 000 000 000 000 000 000 000 000 000 000 000 000 000 000 000 000 000 000 000 000 000 000 000 000 000 000 000 000 000 000 000 000 000 000 000 000 000 000 000 000 000 000 000 000 000 000 000 000 000 000 000 000 000 000 000 000 000 000 000 000 000 000 000 000 000 000 000 000 000 000 000 000 000 000 000 000 000 000 000 000 000 000 000 000 000 000 000 000 000 000 000 000 000 000 000 000 000 000 000 000 000 000 000 000 000 000 000 000 000 000 000 000 000 000 000 000 000 000 000 000 000 000 000 000 000 000 000 000 000 000 000 000 000 000 000 000 000 000 000 000 000 000 000 000 000 000 000 000 000 000 000 000 000 000 000 000 000 000 000 000 000 000 000 000 000 000 000 000 000 000 000 000 000 000 000 000 000 000 000 000 000 000 000 000 000 000 000 000 000 000 000 000 000 000 000 000 000 000 000 000 000 000 000 000 000 000 000 000 000 000 000 000 000 000 000 000 000 000 000 000 000 255 205 000 255 205 000 255 205 000 255 205 000 255 205 000 255 205 000 255 205 000 255 205 000 255 205 000 255 205 000 255 205 000 255 205 000 255 205 000 255 205 000 255 205 000 255 205 000 255 205 000 255 205 000 255 205 000 255 205 000 255 205 000 255 205 000 255 205 000 255 205 000 255 205 000 255 205 000 255 205 000 255 205 000 255 205 000 255 205 000 255 205 000 255 205 000 255 205 000 255 205 000 255 205 000 255 205 000 255 205 000 255 205 000 255 205 000 255 205 000 255 205 000 255 205 000 255 205 000 255 205 000 255 205 000 255 205 000 255 205 000 255 205 000 255 205 000 255 205 000 255 205 000 255 205 000 255 205 000 255 205 000 255 205 000 255 205 000 255 205 000 255 205 000 255 205 000 255 205 000 000 000 000 000 000 000 000 000 000 000 000 000 000 000 000 000 000 000 000 000 000 000 000 000 000 000 000 000 000 000 000 000 000 000 000 000 000 000 000 000 000 000 000 000 000 000 000 000 000 000 000 000 000 000 000 000 000 000 000 000 000 000 000 000 000 000 000 000 000 000 000 000 000 000 000 000 000 000 000 000 000 000 000 000 000 000 000 000 000 000 000 000 000 000 000 000 000 000 000 000 000 000 000 000 000 000 000 000 000 000 000 000 000 000 000 000 000 000 000 000 000 000 000 000 000 000 000 000 000 000 000 000 000 000 000 000 000 000 000 000 000 000 000 000 000 000 000 000 000 000 000 000 000 000 000 000 000 000 000 000 000 000 000 000 000 000 000 000 000 000 000 000 000 000 000 000 000 000 000 000 000 000 000 000 000 000 000 000 000 000 000 000 000 000 000 000 000 000 000 000 000 000 000 000 000 000 000 000 000 000 000 000 000 000 000 000 000 000 000 000 000 000 000 000 000 000 000 000 000 000 000 000 000 000 000 000 000 000 000 000 000 000 000 000 000 000 000 000 000 000 000 000 000 000 000 000 000 000 000 000 000 000 000 000 000 000 000 000 000 000 000 000 000 000 000 000 000 000 000 000 000 000 000 000 000 000 000 000 000 000 000 000 000 000 000 000 000 000 000 000 000 000 000 000 000 000 000 000 000 000 000 000 000 000 000 000 000 000 000 000 000 000 000 000 000 000 000 000 000 000 000 000 000 000 000 000 000 000 000 000 000 000 000 000 000 000 000 000 000 000 000 000 000 000 000 000 000 000 000 000 000 000 000 000 000 000 000 000 000 000 000 000 000 000 000 000 000 000 000 000 000 000 000 000 000 000 000 000 000 000 000 000 000 000 000 000 000 000 000 000 000 000 000 000 000 000 000 000 000 000 000 000 000 000 255 205 000 255 205 000 255 205 000 255 205 000 255 205 000 255 205 000 255 205 000 255 205 000 255 205 000 255 205 000 255 205 000 255 205 000 255 205 000 255 205 000 255 205 000 255 205 000 255 205 000 255 205 000 255 205 000 255 205 000 255 205 000 255 205 000 255 205 000 255 205 000 255 205 000 255 205 000 255 205 000 255 205 000 255 205 000 255 205 000 255 205 000 255 205 000 255 205 000 255 205 000 255 205 000 255 205 000 255 205 000 255 205 000 255 205 000 255 205 000 255 205 000 255 205 000 255 205 000 255 205 000 255 205 000 255 205 000 255 205 000 255 205 000 255 205 000 255 205 000 255 205 000 255 205 000 255 205 000 255 205 000 255 205 000 255 205 000 255 205 000 255 205 000 255 205 000 255 205 000 255 205 000 255 205 000 255 205 000 255 205 000 000 000 000 000 000 000 000 000 000 000 000 000 000 000 000 000 000 000 000 000 000 000 000 000 000 000 000 000 000 000 000 000 000 000 000 000 000 000 000 000 000 000 000 000 000 000 000 000 000 000 000 000 000 000 000 000 000 000 000 000 000 000 000 000 000 000 000 000 000 000 000 000 000 000 000 000 000 000 000 000 000 000 000 000 000 000 000 000 000 000 000 000 000 000 000 000 000 000 000 000 000 000 000 000 000 000 000 000 000 000 000 000 000 000 000 000 000 000 000 000 000 000 000 000 000 000 000 000 000 000 000 000 000 000 000 000 000 000 000 000 000 000 000 000 000 000 000 000 000 000 000 000 000 000 000 000 000 000 000 000 000 000 000 000 000 000 000 000 000 000 000 000 000 000 000 000 000 000 000 000 000 000 000 000 000 000 000 000 000 000 000 000 000 000 000 000 000 000 000 000 000 000 000 000 000 000 000 000 000 000 000 000 000 000 000 000 000 000 000 000 000 000 000 000 000 000 000 000 000 000 000 000 000 000 000 000 000 000 000 000 000 000 000 000 000 000 000 000 000 000 000 000 000 000 000 000 000 000 000 000 000 000 000 000 000 000 000 000 000 000 000 000 000 000 000 000 000 000 000 000 000 000 000 000 000 000 000 000 000 000 000 000 000 000 000 000 000 000 000 000 000 000 000 000 000 000 000 000 000 000 000 000 000 000 000 000 000 000 000 000 000 000 000 000 000 000 000 000 000 000 000 000 000 000 000 000 000 000 000 000 000 000 000 000 000 000 000 000 000 000 000 000 000 000 000 000 000 000 000 000 000 000 000 000 000 000 000 000 000 000 000 000 000 000 000 000 000 000 000 000 000 000 000 000 000 000 000 000 000 000 000 000 000 000 000 000 000 000 000 000 000 000 255 205 000 255 205 000 255 205 000 255 205 000 255 205 000 255 205 000 255 205 000 255 205 000 255 205 000 255 205 000 255 205 000 255 205 000 255 205 000 255 205 000 255 205 000 255 205 000 255 205 000 255 205 000 255 205 000 255 205 000 255 205 000 255 205 000 255 205 000 255 205 000 255 205 000 255 205 000 255 205 000 255 205 000 255 205 000 255 205 000 255 205 000 255 205 000 255 205 000 255 205 000 255 205 000 255 205 000 255 205 000 255 205 000 255 205 000 255 205 000 255 205 000 255 205 000 255 205 000 255 205 000 255 205 000 255 205 000 255 205 000 255 205 000 255 205 000 255 205 000 255 205 000 255 205 000 255 205 000 255 205 000 255 205 000 255 205 000 255 205 000 255 205 000 255 205 000 255 205 000 255 205 000 255 205 000 255 205 000 255 205 000 255 205 000 255 205 000 255 205 000 255 205 000 000 000 000 000 000 000 000 000 000 000 000 000 000 000 000 000 000 000 000 000 000 000 000 000 000 000 000 000 000 000 000 000 000 000 000 000 000 000 000 000 000 000 000 000 000 000 000 000 000 000 000 000 000 000 000 000 000 000 000 000 000 000 000 000 000 000 000 000 000 000 000 000 000 000 000 000 000 000 000 000 000 000 000 000 000 000 000 000 000 000 000 000 000 000 000 000 000 000 000 000 000 000 000 000 000 000 000 000 000 000 000 000 000 000 000 000 000 000 000 000 000 000 000 000 000 000 000 000 000 000 000 000 000 000 000 000 000 000 000 000 000 000 000 000 000 000 000 000 000 000 000 000 000 000 000 000 000 000 000 000 000 000 000 000 000 000 000 000 000 000 000 000 000 000 000 000 000 000 000 000 000 000 000 000 000 000 000 000 000 000 000 000 000 000 000 000 000 000 000 000 000 000 000 000 000 000 000 000 000 000 000 000 000 000 000 000 000 000 000 000 000 000 000 000 000 000 000 000 000 000 000 000 000 000 000 000 000 000 000 000 000 000 000 000 000 000 000 000 000 000 000 000 000 000 000 000 000 000 000 000 000 000 000 000 000 000 000 000 000 000 000 000 000 000 000 000 000 000 000 000 000 000 000 000 000 000 000 000 000 000 000 000 000 000 000 000 000 000 000 000 000 000 000 000 000 000 000 000 000 000 000 000 000 000 000 000 000 000 000 000 000 000 000 000 000 000 000 000 000 000 000 000 000 000 000 000 000 000 000 000 000 000 000 000 000 000 000 000 000 000 000 000 000 000 000 000 000 000 000 000 000 000 000 000 000 000 000 000 000 000 000 000 000 000 000 000 000 000 000 000 000 000 000 000 000 000 000 000 000 000 255 205 000 255 205 000 255 205 000 255 205 000 255 205 000 255 205 000 255 205 000 255 205 000 255 205 000 255 205 000 255 205 000 255 205 000 255 205 000 255 205 000 255 205 000 255 205 000 255 205 000 255 205 000 255 205 000 255 205 000 255 205 000 255 205 000 255 205 000 255 205 000 255 205 000 255 205 000 255 205 000 255 205 000 255 205 000 255 205 000 255 205 000 255 205 000 255 205 000 255 205 000 255 205 000 255 205 000 255 205 000 255 205 000 255 205 000 255 205 000 255 205 000 255 205 000 255 205 000 255 205 000 255 205 000 255 205 000 255 205 000 255 205 000 255 205 000 255 205 000 255 205 000 255 205 000 255 205 000 255 205 000 255 205 000 255 205 000 255 205 000 255 205 000 255 205 000 255 205 000 255 205 000 255 205 000 255 205 000 255 205 000 255 205 000 255 205 000 255 205 000 255 205 000 255 205 000 255 205 000 255 205 000 255 205 000 000 000 000 000 000 000 000 000 000 000 000 000 000 000 000 000 000 000 000 000 000 000 000 000 000 000 000 000 000 000 000 000 000 000 000 000 000 000 000 000 000 000 000 000 000 000 000 000 000 000 000 000 000 000 000 000 000 000 000 000 000 000 000 000 000 000 000 000 000 000 000 000 000 000 000 000 000 000 000 000 000 000 000 000 000 000 000 000 000 000 000 000 000 000 000 000 000 000 000 000 000 000 000 000 000 000 000 000 000 000 000 000 000 000 000 000 000 000 000 000 000 000 000 000 000 000 000 000 000 000 000 000 000 000 000 000 000 000 000 000 000 000 000 000 000 000 000 000 000 000 000 000 000 000 000 000 000 000 000 000 000 000 000 000 000 000 000 000 000 000 000 000 000 000 000 000 000 000 000 000 000 000 000 000 000 000 000 000 000 000 000 000 000 000 000 000 000 000 000 000 000 000 000 000 000 000 000 000 000 000 000 000 000 000 000 000 000 000 000 000 000 000 000 000 000 000 000 000 000 000 000 000 000 000 000 000 000 000 000 000 000 000 000 000 000 000 000 000 000 000 000 000 000 000 000 000 000 000 000 000 000 000 000 000 000 000 000 000 000 000 000 000 000 000 000 000 000 000 000 000 000 000 000 000 000 000 000 000 000 000 000 000 000 000 000 000 000 000 000 000 000 000 000 000 000 000 000 000 000 000 000 000 000 000 000 000 000 000 000 000 000 000 000 000 000 000 000 000 000 000 000 000 000 000 000 000 000 000 000 000 000 000 000 000 000 000 000 000 000 000 000 000 000 000 000 000 000 000 000 000 000 000 000 000 000 000 000 000 000 000 000 000 000 000 000 000 000 000 255 205 000 255 205 000 255 205 000 255 205 000 255 205 000 255 205 000 255 205 000 255 205 000 255 205 000 255 205 000 255 205 000 255 205 000 255 205 000 255 205 000 255 205 000 255 205 000 255 205 000 255 205 000 255 205 000 255 205 000 255 205 000 255 205 000 255 205 000 255 205 000 255 205 000 255 205 000 255 205 000 255 205 000 255 205 000 255 205 000 255 205 000 255 205 000 255 205 000 255 205 000 255 205 000 255 205 000 000 151 057 000 151 057 000 151 057 000 151 057 255 205 000 255 205 000 255 205 000 255 205 000 255 205 000 255 205 000 255 205 000 255 205 000 255 205 000 255 205 000 255 205 000 255 205 000 255 205 000 255 205 000 255 205 000 255 205 000 255 205 000 255 205 000 255 205 000 255 205 000 255 205 000 255 205 000 255 205 000 255 205 000 255 205 000 255 205 000 255 205 000 255 205 000 255 205 000 255 205 000 255 205 000 255 205 000 255 205 000 255 205 000 255 205 000 255 205 000 000 000 000 000 000 000 000 000 000 000 000 000 000 000 000 000 000 000 000 000 000 000 000 000 000 000 000 000 000 000 000 000 000 000 000 000 000 000 000 000 000 000 000 000 000 000 000 000 000 000 000 000 000 000 000 000 000 000 000 000 000 000 000 000 000 000 000 000 000 000 000 000 000 000 000 000 000 000 000 000 000 000 000 000 000 000 000 000 000 000 000 000 000 000 000 000 000 000 000 000 000 000 000 000 000 000 000 000 000 000 000 000 000 000 000 000 000 000 000 000 000 000 000 000 000 000 000 000 000 000 000 000 000 000 000 000 000 000 000 000 000 000 000 000 000 000 000 000 000 000 000 000 000 000 000 000 000 000 000 000 000 000 000 000 000 000 000 000 000 000 000 000 000 000 000 000 000 000 000 000 000 000 000 000 000 000 000 000 000 000 000 000 000 000 000 000 000 000 000 000 000 000 000 000 000 000 000 000 000 000 000 000 000 000 000 000 000 000 000 000 000 000 000 000 000 000 000 000 000 000 000 000 000 000 000 000 000 000 000 000 000 000 000 000 000 000 000 000 000 000 000 000 000 000 000 000 000 000 000 000 000 000 000 000 000 000 000 000 000 000 000 000 000 000 000 000 000 000 000 000 000 000 000 000 000 000 000 000 000 000 000 000 000 000 000 000 000 000 000 000 000 000 000 000 000 000 000 000 000 000 000 000 000 000 000 000 000 000 000 000 000 000 000 000 000 000 000 000 000 000 000 000 000 000 000 000 000 000 000 000 000 000 000 000 000 000 000 000 000 000 000 000 000 000 000 000 000 000 000 000 000 000 000 000 000 000 255 205 000 255 205 000 255 205 000 255 205 000 255 205 000 255 205 000 255 205 000 255 205 000 255 205 000 255 205 000 255 205 000 255 205 000 255 205 000 255 205 000 255 205 000 255 205 000 255 205 000 255 205 000 255 205 000 255 205 000 255 205 000 255 205 000 255 205 000 255 205 000 255 205 000 255 205 000 255 205 000 255 205 000 255 205 000 255 205 000 255 205 000 255 205 000 255 205 000 255 205 000 255 205 000 255 205 000 000 151 057 000 151 057 000 151 057 000 151 057 000 151 057 000 151 057 000 151 057 000 151 057 255 205 000 255 205 000 255 205 000 255 205 000 255 205 000 255 205 000 255 205 000 255 205 000 255 205 000 255 205 000 255 205 000 255 205 000 255 205 000 255 205 000 255 205 000 255 205 000 255 205 000 255 205 000 255 205 000 255 205 000 255 205 000 255 205 000 255 205 000 255 205 000 255 205 000 255 205 000 255 205 000 255 205 000 255 205 000 255 205 000 255 205 000 255 205 000 255 205 000 255 205 000 255 205 000 255 205 000 000 000 000 000 000 000 000 000 000 000 000 000 000 000 000 000 000 000 000 000 000 000 000 000 000 000 000 000 000 000 000 000 000 000 000 000 000 000 000 000 000 000 000 000 000 000 000 000 000 000 000 000 000 000 000 000 000 000 000 000 000 000 000 000 000 000 000 000 000 000 000 000 000 000 000 000 000 000 000 000 000 000 000 000 000 000 000 000 000 000 000 000 000 000 000 000 000 000 000 000 000 000 000 000 000 000 000 000 000 000 000 000 000 000 000 000 000 000 000 000 000 000 000 000 000 000 000 000 000 000 000 000 000 000 000 000 000 000 000 000 000 000 000 000 000 000 000 000 000 000 000 000 000 000 000 000 000 000 000 000 000 000 000 000 000 000 000 000 000 000 000 000 000 000 000 000 000 000 000 000 000 000 000 000 000 000 000 000 000 000 000 000 000 000 000 000 000 000 000 000 000 000 000 000 000 000 000 000 000 000 000 000 000 000 000 000 000 000 000 000 000 000 000 000 000 000 000 000 000 000 000 000 000 000 000 000 000 000 000 000 000 000 000 000 000 000 000 000 000 000 000 000 000 000 000 000 000 000 000 000 000 000 000 000 000 000 000 000 000 000 000 000 000 000 000 000 000 000 000 000 000 000 000 000 000 000 000 000 000 000 000 000 000 000 000 000 000 000 000 000 000 000 000 000 000 000 000 000 000 000 000 000 000 000 000 000 000 000 000 000 000 000 000 000 000 000 000 000 000 000 000 000 000 000 000 000 000 000 000 000 000 000 000 000 000 000 000 000 000 000 000 000 000 000 255 205 000 255 205 000 255 205 000 255 205 000 255 205 000 255 205 000 255 205 000 255 205 000 255 205 000 255 205 000 255 205 000 255 205 000 255 205 000 255 205 000 255 205 000 255 205 000 255 205 000 255 205 000 255 205 000 255 205 000 255 205 000 255 205 000 255 205 000 255 205 000 255 205 000 255 205 000 255 205 000 255 205 000 255 205 000 255 205 000 255 205 000 255 205 000 255 205 000 255 205 000 255 205 000 255 205 000 000 151 057 000 151 057 000 151 057 000 151 057 000 151 057 000 151 057 000 151 057 000 151 057 000 151 057 000 151 057 000 151 057 000 151 057 255 205 000 255 205 000 255 205 000 255 205 000 255 205 000 255 205 000 255 205 000 255 205 000 255 205 000 255 205 000 255 205 000 255 205 000 255 205 000 255 205 000 255 205 000 255 205 000 255 205 000 255 205 000 255 205 000 255 205 000 255 205 000 255 205 000 255 205 000 255 205 000 255 205 000 255 205 000 255 205 000 255 205 000 255 205 000 255 205 000 255 205 000 255 205 000 255 205 000 255 205 000 255 205 000 255 205 000 000 000 000 000 000 000 000 000 000 000 000 000 000 000 000 000 000 000 000 000 000 000 000 000 000 000 000 000 000 000 000 000 000 000 000 000 000 000 000 000 000 000 000 000 000 000 000 000 000 000 000 000 000 000 000 000 000 000 000 000 000 000 000 000 000 000 000 000 000 000 000 000 000 000 000 000 000 000 000 000 000 000 000 000 000 000 000 000 000 000 000 000 000 000 000 000 000 000 000 000 000 000 000 000 000 000 000 000 000 000 000 000 000 000 000 000 000 000 000 000 000 000 000 000 000 000 000 000 000 000 000 000 000 000 000 000 000 000 000 000 000 000 000 000 000 000 000 000 000 000 000 000 000 000 000 000 000 000 000 000 000 000 000 000 000 000 000 000 000 000 000 000 000 000 000 000 000 000 000 000 000 000 000 000 000 000 000 000 000 000 000 000 000 000 000 000 000 000 000 000 000 000 000 000 000 000 000 000 000 000 000 000 000 000 000 000 000 000 000 000 000 000 000 000 000 000 000 000 000 000 000 000 000 000 000 000 000 000 000 000 000 000 000 000 000 000 000 000 000 000 000 000 000 000 000 000 000 000 000 000 000 000 000 000 000 000 000 000 000 000 000 000 000 000 000 000 000 000 000 000 000 000 000 000 000 000 000 000 000 000 000 000 000 000 000 000 000 000 000 000 000 000 000 000 000 000 000 000 000 000 000 000 000 000 000 000 000 000 000 000 000 000 000 000 000 000 000 000 000 000 000 000 000 000 000 000 000 000 000 000 000 000 255 205 000 255 205 000 255 205 000 255 205 000 255 205 000 255 205 000 255 205 000 255 205 000 255 205 000 255 205 000 255 205 000 255 205 000 255 205 000 255 205 000 255 205 000 255 205 000 255 205 000 255 205 000 255 205 000 255 205 000 255 205 000 255 205 000 255 205 000 255 205 000 255 205 000 255 205 000 255 205 000 255 205 000 255 205 000 255 205 000 255 205 000 255 205 000 255 205 000 255 205 000 255 205 000 255 205 000 000 151 057 000 151 057 000 151 057 000 151 057 000 151 057 000 151 057 000 151 057 000 151 057 000 151 057 000 151 057 000 151 057 000 151 057 000 151 057 000 151 057 000 151 057 000 151 057 255 205 000 255 205 000 255 205 000 255 205 000 255 205 000 255 205 000 255 205 000 255 205 000 255 205 000 255 205 000 255 205 000 255 205 000 255 205 000 255 205 000 255 205 000 255 205 000 255 205 000 255 205 000 255 205 000 255 205 000 255 205 000 255 205 000 255 205 000 255 205 000 255 205 000 255 205 000 255 205 000 255 205 000 255 205 000 255 205 000 255 205 000 255 205 000 255 205 000 255 205 000 255 205 000 255 205 000 000 000 000 000 000 000 000 000 000 000 000 000 000 000 000 000 000 000 000 000 000 000 000 000 000 000 000 000 000 000 000 000 000 000 000 000 000 000 000 000 000 000 000 000 000 000 000 000 000 000 000 000 000 000 000 000 000 000 000 000 000 000 000 000 000 000 000 000 000 000 000 000 000 000 000 000 000 000 000 000 000 000 000 000 000 000 000 000 000 000 000 000 000 000 000 000 000 000 000 000 000 000 000 000 000 000 000 000 000 000 000 000 000 000 000 000 000 000 000 000 000 000 000 000 000 000 000 000 000 000 000 000 000 000 000 000 000 000 000 000 000 000 000 000 000 000 000 000 000 000 000 000 000 000 000 000 000 000 000 000 000 000 000 000 000 000 000 000 000 000 000 000 000 000 000 000 000 000 000 000 000 000 000 000 000 000 000 000 000 000 000 000 000 000 000 000 000 000 000 000 000 000 000 000 000 000 000 000 000 000 000 000 000 000 000 000 000 000 000 000 000 000 000 000 000 000 000 000 000 000 000 000 000 000 000 000 000 000 000 000 000 000 000 000 000 000 000 000 000 000 000 000 000 000 000 000 000 000 000 000 000 000 000 000 000 000 000 000 000 000 000 000 000 000 000 000 000 000 000 000 000 000 000 000 000 000 000 000 000 000 000 000 000 000 000 000 000 000 000 000 000 000 000 000 000 000 000 000 000 000 000 000 000 000 000 000 000 000 000 000 000 000 000 000 000 000 000 000 000 000 255 205 000 255 205 000 255 205 000 255 205 000 255 205 000 255 205 000 255 205 000 255 205 000 255 205 000 255 205 000 255 205 000 255 205 000 255 205 000 255 205 000 255 205 000 255 205 000 255 205 000 255 205 000 255 205 000 255 205 000 255 205 000 255 205 000 255 205 000 255 205 000 255 205 000 255 205 000 255 205 000 255 205 000 255 205 000 255 205 000 255 205 000 255 205 000 255 205 000 255 205 000 255 205 000 255 205 000 000 151 057 000 151 057 000 151 057 000 151 057 000 151 057 000 151 057 000 151 057 000 151 057 000 151 057 000 151 057 000 151 057 000 151 057 000 151 057 000 151 057 000 151 057 000 151 057 000 151 057 000 151 057 000 151 057 000 151 057 255 205 000 255 205 000 255 205 000 255 205 000 255 205 000 255 205 000 255 205 000 255 205 000 255 205 000 255 205 000 255 205 000 255 205 000 255 205 000 255 205 000 255 205 000 255 205 000 255 205 000 255 205 000 255 205 000 255 205 000 255 205 000 255 205 000 255 205 000 255 205 000 255 205 000 255 205 000 255 205 000 255 205 000 255 205 000 255 205 000 255 205 000 255 205 000 255 205 000 255 205 000 255 205 000 255 205 000 000 000 000 000 000 000 000 000 000 000 000 000 000 000 000 000 000 000 000 000 000 000 000 000 000 000 000 000 000 000 000 000 000 000 000 000 000 000 000 000 000 000 000 000 000 000 000 000 000 000 000 000 000 000 000 000 000 000 000 000 000 000 000 000 000 000 000 000 000 000 000 000 000 000 000 000 000 000 000 000 000 000 000 000 000 000 000 000 000 000 000 000 000 000 000 000 000 000 000 000 000 000 000 000 000 000 000 000 000 000 000 000 000 000 000 000 000 000 000 000 000 000 000 000 000 000 000 000 000 000 000 000 000 000 000 000 000 000 000 000 000 000 000 000 000 000 000 000 000 000 000 000 000 000 000 000 000 000 000 000 000 000 000 000 000 000 000 000 000 000 000 000 000 000 000 000 000 000 000 000 000 000 000 000 000 000 000 000 000 000 000 000 000 000 000 000 000 000 000 000 000 000 000 000 000 000 000 000 000 000 000 000 000 000 000 000 000 000 000 000 000 000 000 000 000 000 000 000 000 000 000 000 000 000 000 000 000 000 000 000 000 000 000 000 000 000 000 000 000 000 000 000 000 000 000 000 000 000 000 000 000 000 000 000 000 000 000 000 000 000 000 000 000 000 000 000 000 000 000 000 000 000 000 000 000 000 000 000 000 000 000 000 000 000 000 000 000 000 000 000 000 000 000 000 000 000 000 000 000 000 000 000 000 000 000 000 000 000 255 205 000 255 205 000 255 205 000 255 205 000 255 205 000 255 205 000 255 205 000 255 205 000 255 205 000 255 205 000 255 205 000 255 205 000 255 205 000 255 205 000 255 205 000 255 205 000 255 205 000 255 205 000 255 205 000 255 205 000 255 205 000 255 205 000 255 205 000 255 205 000 255 205 000 255 205 000 255 205 000 255 205 000 255 205 000 255 205 000 255 205 000 255 205 000 255 205 000 255 205 000 255 205 000 255 205 000 000 151 057 000 151 057 000 151 057 000 151 057 000 151 057 000 151 057 000 151 057 000 151 057 000 151 057 000 151 057 000 151 057 000 151 057 000 151 057 000 151 057 000 151 057 000 151 057 000 151 057 000 151 057 000 151 057 000 151 057 000 151 057 000 151 057 000 151 057 000 151 057 255 205 000 255 205 000 255 205 000 255 205 000 255 205 000 255 205 000 255 205 000 255 205 000 255 205 000 255 205 000 255 205 000 255 205 000 255 205 000 255 205 000 255 205 000 255 205 000 255 205 000 255 205 000 255 205 000 255 205 000 255 205 000 255 205 000 255 205 000 255 205 000 255 205 000 255 205 000 255 205 000 255 205 000 255 205 000 255 205 000 255 205 000 255 205 000 255 205 000 255 205 000 255 205 000 255 205 000 000 000 000 000 000 000 000 000 000 000 000 000 000 000 000 000 000 000 000 000 000 000 000 000 000 000 000 000 000 000 000 000 000 000 000 000 000 000 000 000 000 000 000 000 000 000 000 000 000 000 000 000 000 000 000 000 000 000 000 000 000 000 000 000 000 000 000 000 000 000 000 000 000 000 000 000 000 000 000 000 000 000 000 000 000 000 000 000 000 000 000 000 000 000 000 000 000 000 000 000 000 000 000 000 000 000 000 000 000 000 000 000 000 000 000 000 000 000 000 000 000 000 000 000 000 000 000 000 000 000 000 000 000 000 000 000 000 000 000 000 000 000 000 000 000 000 000 000 000 000 000 000 000 000 000 000 000 000 000 000 000 000 000 000 000 000 000 000 000 000 000 000 000 000 000 000 000 000 000 000 000 000 000 000 000 000 000 000 000 000 000 000 000 000 000 000 000 000 000 000 000 000 000 000 000 000 000 000 000 000 000 000 000 000 000 000 000 000 000 000 000 000 000 000 000 000 000 000 000 000 000 000 000 000 000 000 000 000 000 000 000 000 000 000 000 000 000 000 000 000 000 000 000 000 000 000 000 000 000 000 000 000 000 000 000 000 000 000 000 000 000 000 000 000 000 000 000 000 000 000 000 000 000 000 000 000 000 000 000 000 000 000 000 000 000 000 000 000 000 000 000 000 000 000 000 000 255 205 000 255 205 000 255 205 000 255 205 000 255 205 000 255 205 000 255 205 000 255 205 000 255 205 000 255 205 000 255 205 000 255 205 000 255 205 000 255 205 000 255 205 000 255 205 000 255 205 000 255 205 000 255 205 000 255 205 000 255 205 000 255 205 000 255 205 000 255 205 000 255 205 000 255 205 000 255 205 000 255 205 000 255 205 000 255 205 000 255 205 000 255 205 000 255 205 000 255 205 000 255 205 000 255 205 000 000 151 057 000 151 057 000 151 057 000 151 057 000 151 057 000 151 057 000 151 057 000 151 057 000 151 057 000 151 057 000 151 057 000 151 057 000 151 057 000 151 057 000 151 057 000 151 057 000 151 057 000 151 057 000 151 057 000 151 057 000 151 057 000 151 057 000 151 057 000 151 057 000 151 057 000 151 057 000 151 057 000 151 057 255 205 000 255 205 000 255 205 000 255 205 000 255 205 000 255 205 000 255 205 000 255 205 000 255 205 000 255 205 000 255 205 000 255 205 000 255 205 000 255 205 000 255 205 000 255 205 000 255 205 000 255 205 000 255 205 000 255 205 000 255 205 000 255 205 000 255 205 000 255 205 000 255 205 000 255 205 000 255 205 000 255 205 000 255 205 000 255 205 000 255 205 000 255 205 000 255 205 000 255 205 000 255 205 000 255 205 000 000 000 000 000 000 000 000 000 000 000 000 000 000 000 000 000 000 000 000 000 000 000 000 000 000 000 000 000 000 000 000 000 000 000 000 000 000 000 000 000 000 000 000 000 000 000 000 000 000 000 000 000 000 000 000 000 000 000 000 000 000 000 000 000 000 000 000 000 000 000 000 000 000 000 000 000 000 000 000 000 000 000 000 000 000 000 000 000 000 000 000 000 000 000 000 000 000 000 000 000 000 000 000 000 000 000 000 000 000 000 000 000 000 000 000 000 000 000 000 000 000 000 000 000 000 000 000 000 000 000 000 000 000 000 000 000 000 000 000 000 000 000 000 000 000 000 000 000 000 000 000 000 000 000 000 000 000 000 000 000 000 000 000 000 000 000 000 000 000 000 000 000 000 000 000 000 000 000 000 000 000 000 000 000 000 000 000 000 000 000 000 000 000 000 000 000 000 000 000 000 000 000 000 000 000 000 000 000 000 000 000 000 000 000 000 000 000 000 000 000 000 000 000 000 000 000 000 000 000 000 000 000 000 000 000 000 000 000 000 000 000 000 000 000 000 000 000 000 000 000 000 000 000 000 000 000 000 000 000 000 000 000 000 000 000 000 000 000 000 000 000 000 000 000 000 000 000 000 000 000 000 000 000 000 000 000 000 000 000 000 000 000 000 000 255 205 000 255 205 000 255 205 000 255 205 000 255 205 000 255 205 000 255 205 000 255 205 000 255 205 000 255 205 000 255 205 000 255 205 000 255 205 000 255 205 000 255 205 000 255 205 000 255 205 000 255 205 000 255 205 000 255 205 000 255 205 000 255 205 000 255 205 000 255 205 000 255 205 000 255 205 000 255 205 000 255 205 000 255 205 000 255 205 000 255 205 000 255 205 000 255 205 000 255 205 000 255 205 000 255 205 000 000 151 057 000 151 057 000 151 057 000 151 057 000 151 057 000 151 057 000 151 057 000 151 057 000 151 057 000 151 057 000 151 057 000 151 057 000 151 057 000 151 057 000 151 057 000 151 057 000 151 057 000 151 057 000 151 057 000 151 057 000 151 057 000 151 057 000 151 057 000 151 057 000 151 057 000 151 057 000 151 057 000 151 057 000 151 057 000 151 057 000 151 057 000 151 057 255 205 000 255 205 000 255 205 000 255 205 000 255 205 000 255 205 000 255 205 000 255 205 000 255 205 000 255 205 000 255 205 000 255 205 000 255 205 000 255 205 000 255 205 000 255 205 000 255 205 000 255 205 000 255 205 000 255 205 000 255 205 000 255 205 000 255 205 000 255 205 000 255 205 000 255 205 000 255 205 000 255 205 000 255 205 000 255 205 000 255 205 000 255 205 000 255 205 000 255 205 000 255 205 000 255 205 000 000 000 000 000 000 000 000 000 000 000 000 000 000 000 000 000 000 000 000 000 000 000 000 000 000 000 000 000 000 000 000 000 000 000 000 000 000 000 000 000 000 000 000 000 000 000 000 000 000 000 000 000 000 000 000 000 000 000 000 000 000 000 000 000 000 000 000 000 000 000 000 000 000 000 000 000 000 000 000 000 000 000 000 000 000 000 000 000 000 000 000 000 000 000 000 000 000 000 000 000 000 000 000 000 000 000 000 000 000 000 000 000 000 000 000 000 000 000 000 000 000 000 000 000 000 000 000 000 000 000 000 000 000 000 000 000 000 000 000 000 000 000 000 000 000 000 000 000 000 000 000 000 000 000 000 000 000 000 000 000 000 000 000 000 000 000 000 000 000 000 000 000 000 000 000 000 000 000 000 000 000 000 000 000 000 000 000 000 000 000 000 000 000 000 000 000 000 000 000 000 000 000 000 000 000 000 000 000 000 000 000 000 000 000 000 000 000 000 000 000 000 000 000 000 000 000 000 000 000 000 000 000 000 000 000 000 000 000 000 000 000 000 000 000 000 000 000 000 000 000 000 000 000 000 000 000 000 000 000 000 000 000 000 000 000 000 000 000 000 000 000 000 000 000 000 000 000 000 000 000 000 000 255 205 000 255 205 000 255 205 000 255 205 000 255 205 000 255 205 000 255 205 000 255 205 000 255 205 000 255 205 000 255 205 000 255 205 000 255 205 000 255 205 000 255 205 000 255 205 000 255 205 000 255 205 000 255 205 000 255 205 000 255 205 000 255 205 000 255 205 000 255 205 000 255 205 000 255 205 000 255 205 000 255 205 000 255 205 000 255 205 000 255 205 000 255 205 000 255 205 000 255 205 000 255 205 000 255 205 000 000 151 057 000 151 057 000 151 057 000 151 057 000 151 057 000 151 057 000 151 057 000 151 057 000 151 057 000 151 057 000 151 057 000 151 057 000 151 057 000 151 057 000 151 057 000 151 057 000 151 057 000 151 057 000 151 057 000 151 057 000 151 057 000 151 057 000 151 057 000 151 057 000 151 057 000 151 057 000 151 057 000 151 057 000 151 057 000 151 057 000 151 057 000 151 057 000 151 057 000 151 057 000 151 057 000 151 057 255 205 000 255 205 000 255 205 000 255 205 000 255 205 000 255 205 000 255 205 000 255 205 000 255 205 000 255 205 000 255 205 000 255 205 000 255 205 000 255 205 000 255 205 000 255 205 000 255 205 000 255 205 000 255 205 000 255 205 000 255 205 000 255 205 000 255 205 000 255 205 000 255 205 000 255 205 000 255 205 000 255 205 000 255 205 000 255 205 000 255 205 000 255 205 000 255 205 000 255 205 000 255 205 000 255 205 000 000 000 000 000 000 000 000 000 000 000 000 000 000 000 000 000 000 000 000 000 000 000 000 000 000 000 000 000 000 000 000 000 000 000 000 000 000 000 000 000 000 000 000 000 000 000 000 000 000 000 000 000 000 000 000 000 000 000 000 000 000 000 000 000 000 000 000 000 000 000 000 000 000 000 000 000 000 000 000 000 000 000 000 000 000 000 000 000 000 000 000 000 000 000 000 000 000 000 000 000 000 000 000 000 000 000 000 000 000 000 000 000 000 000 000 000 000 000 000 000 000 000 000 000 000 000 000 000 000 000 000 000 000 000 000 000 000 000 000 000 000 000 000 000 000 000 000 000 000 000 000 000 000 000 000 000 000 000 000 000 000 000 000 000 000 000 000 000 000 000 000 000 000 000 000 000 000 000 000 000 000 000 000 000 000 000 000 000 000 000 000 000 000 000 000 000 000 000 000 000 000 000 000 000 000 000 000 000 000 000 000 000 000 000 000 000 000 000 000 000 000 000 000 000 000 000 000 000 000 000 000 000 000 000 000 000 000 000 000 000 000 000 000 000 000 000 000 000 000 000 000 000 000 000 000 000 000 000 000 000 000 000 000 000 000 000 000 000 000 000 255 205 000 255 205 000 255 205 000 255 205 000 255 205 000 255 205 000 255 205 000 255 205 000 255 205 000 255 205 000 255 205 000 255 205 000 255 205 000 255 205 000 255 205 000 255 205 000 255 205 000 255 205 000 255 205 000 255 205 000 255 205 000 255 205 000 255 205 000 255 205 000 255 205 000 255 205 000 255 205 000 255 205 000 255 205 000 255 205 000 255 205 000 255 205 000 255 205 000 255 205 000 255 205 000 255 205 000 000 151 057 000 151 057 000 151 057 000 151 057 000 151 057 000 151 057 000 151 057 000 151 057 000 151 057 000 151 057 000 151 057 000 151 057 000 151 057 000 151 057 000 151 057 000 151 057 000 151 057 000 151 057 000 151 057 000 151 057 000 151 057 000 151 057 000 151 057 000 151 057 000 151 057 000 151 057 000 151 057 000 151 057 000 151 057 000 151 057 000 151 057 000 151 057 000 151 057 000 151 057 000 151 057 000 151 057 000 151 057 000 151 057 000 151 057 000 151 057 255 205 000 255 205 000 255 205 000 255 205 000 255 205 000 255 205 000 255 205 000 255 205 000 255 205 000 255 205 000 255 205 000 255 205 000 255 205 000 255 205 000 255 205 000 255 205 000 255 205 000 255 205 000 255 205 000 255 205 000 255 205 000 255 205 000 255 205 000 255 205 000 255 205 000 255 205 000 255 205 000 255 205 000 255 205 000 255 205 000 255 205 000 255 205 000 255 205 000 255 205 000 255 205 000 255 205 000 000 000 000 000 000 000 000 000 000 000 000 000 000 000 000 000 000 000 000 000 000 000 000 000 000 000 000 000 000 000 000 000 000 000 000 000 000 000 000 000 000 000 000 000 000 000 000 000 000 000 000 000 000 000 000 000 000 000 000 000 000 000 000 000 000 000 000 000 000 000 000 000 000 000 000 000 000 000 000 000 000 000 000 000 000 000 000 000 000 000 000 000 000 000 000 000 000 000 000 000 000 000 000 000 000 000 000 000 000 000 000 000 000 000 000 000 000 000 000 000 000 000 000 000 000 000 000 000 000 000 000 000 000 000 000 000 000 000 000 000 000 000 000 000 000 000 000 000 000 000 000 000 000 000 000 000 000 000 000 000 000 000 000 000 000 000 000 000 000 000 000 000 000 000 000 000 000 000 000 000 000 000 000 000 000 000 000 000 000 000 000 000 000 000 000 000 000 000 000 000 000 000 000 000 000 000 000 000 000 000 000 000 000 000 000 000 000 000 000 000 000 000 000 000 000 000 000 000 000 000 000 000 000 000 000 000 000 000 000 000 000 000 000 000 000 000 000 000 000 000 000 000 000 000 000 000 000 000 255 205 000 255 205 000 255 205 000 255 205 000 255 205 000 255 205 000 255 205 000 255 205 000 255 205 000 255 205 000 255 205 000 255 205 000 255 205 000 255 205 000 255 205 000 255 205 000 255 205 000 255 205 000 255 205 000 255 205 000 255 205 000 255 205 000 255 205 000 255 205 000 255 205 000 255 205 000 255 205 000 255 205 000 255 205 000 255 205 000 255 205 000 255 205 000 255 205 000 255 205 000 255 205 000 255 205 000 000 151 057 000 151 057 000 151 057 000 151 057 000 151 057 000 151 057 000 151 057 000 151 057 000 151 057 000 151 057 000 151 057 000 151 057 000 151 057 000 151 057 000 151 057 000 151 057 000 151 057 000 151 057 000 151 057 000 151 057 000 151 057 000 151 057 000 151 057 000 151 057 000 151 057 000 151 057 000 151 057 000 151 057 000 151 057 000 151 057 000 151 057 000 151 057 000 151 057 000 151 057 000 151 057 000 151 057 000 151 057 000 151 057 000 151 057 000 151 057 000 151 057 000 151 057 000 151 057 000 151 057 255 205 000 255 205 000 255 205 000 255 205 000 255 205 000 255 205 000 255 205 000 255 205 000 255 205 000 255 205 000 255 205 000 255 205 000 255 205 000 255 205 000 255 205 000 255 205 000 255 205 000 255 205 000 255 205 000 255 205 000 255 205 000 255 205 000 255 205 000 255 205 000 255 205 000 255 205 000 255 205 000 255 205 000 255 205 000 255 205 000 255 205 000 255 205 000 255 205 000 255 205 000 255 205 000 255 205 000 000 000 000 000 000 000 000 000 000 000 000 000 000 000 000 000 000 000 000 000 000 000 000 000 000 000 000 000 000 000 000 000 000 000 000 000 000 000 000 000 000 000 000 000 000 000 000 000 000 000 000 000 000 000 000 000 000 000 000 000 000 000 000 000 000 000 000 000 000 000 000 000 000 000 000 000 000 000 000 000 000 000 000 000 000 000 000 000 000 000 000 000 000 000 000 000 000 000 000 000 000 000 000 000 000 000 000 000 000 000 000 000 000 000 000 000 000 000 000 000 000 000 000 000 000 000 000 000 000 000 000 000 000 000 000 000 000 000 000 000 000 000 000 000 000 000 000 000 000 000 000 000 000 000 000 000 000 000 000 000 000 000 000 000 000 000 000 000 000 000 000 000 000 000 000 000 000 000 000 000 000 000 000 000 000 000 000 000 000 000 000 000 000 000 000 000 000 000 000 000 000 000 000 000 000 000 000 000 000 000 000 000 000 000 000 000 000 000 000 000 000 000 000 000 000 000 000 000 000 000 000 000 000 000 000 000 000 000 000 000 000 000 000 000 000 000 255 205 000 255 205 000 255 205 000 255 205 000 255 205 000 255 205 000 255 205 000 255 205 000 255 205 000 255 205 000 255 205 000 255 205 000 255 205 000 255 205 000 255 205 000 255 205 000 255 205 000 255 205 000 255 205 000 255 205 000 255 205 000 255 205 000 255 205 000 255 205 000 255 205 000 255 205 000 255 205 000 255 205 000 255 205 000 255 205 000 255 205 000 255 205 000 255 205 000 255 205 000 255 205 000 255 205 000 000 151 057 000 151 057 000 151 057 000 151 057 000 151 057 000 151 057 000 151 057 000 151 057 000 151 057 000 151 057 000 151 057 000 151 057 000 151 057 000 151 057 000 151 057 000 151 057 000 151 057 000 151 057 000 151 057 000 151 057 000 151 057 000 151 057 000 151 057 000 151 057 000 151 057 000 151 057 000 151 057 000 151 057 000 151 057 000 151 057 000 151 057 000 151 057 000 151 057 000 151 057 000 151 057 000 151 057 000 151 057 000 151 057 000 151 057 000 151 057 000 151 057 000 151 057 000 151 057 000 151 057 000 151 057 000 151 057 000 151 057 000 151 057 255 205 000 255 205 000 255 205 000 255 205 000 255 205 000 255 205 000 255 205 000 255 205 000 255 205 000 255 205 000 255 205 000 255 205 000 255 205 000 255 205 000 255 205 000 255 205 000 255 205 000 255 205 000 255 205 000 255 205 000 255 205 000 255 205 000 255 205 000 255 205 000 255 205 000 255 205 000 255 205 000 255 205 000 255 205 000 255 205 000 255 205 000 255 205 000 255 205 000 255 205 000 255 205 000 255 205 000 000 000 000 000 000 000 000 000 000 000 000 000 000 000 000 000 000 000 000 000 000 000 000 000 000 000 000 000 000 000 000 000 000 000 000 000 000 000 000 000 000 000 000 000 000 000 000 000 000 000 000 000 000 000 000 000 000 000 000 000 000 000 000 000 000 000 000 000 000 000 000 000 000 000 000 000 000 000 000 000 000 000 000 000 000 000 000 000 000 000 000 000 000 000 000 000 000 000 000 000 000 000 000 000 000 000 000 000 000 000 000 000 000 000 000 000 000 000 000 000 000 000 000 000 000 000 000 000 000 000 000 000 000 000 000 000 000 000 000 000 000 000 000 000 000 000 000 000 000 000 000 000 000 000 000 000 000 000 000 000 000 000 000 000 000 000 000 000 000 000 000 000 000 000 000 000 000 000 000 000 000 000 000 000 000 000 000 000 000 000 000 000 000 000 000 000 000 000 000 000 000 000 000 000 000 000 000 000 000 000 000 000 000 000 000 000 000 000 000 000 000 000 000 000 000 000 000 000 000 000 000 000 000 000 255 205 000 255 205 000 255 205 000 255 205 000 255 205 000 255 205 000 255 205 000 255 205 000 255 205 000 255 205 000 255 205 000 255 205 000 255 205 000 255 205 000 255 205 000 255 205 000 255 205 000 255 205 000 255 205 000 255 205 000 255 205 000 255 205 000 255 205 000 255 205 000 255 205 000 255 205 000 255 205 000 255 205 000 255 205 000 255 205 000 255 205 000 255 205 000 255 205 000 255 205 000 255 205 000 255 205 000 000 151 057 000 151 057 000 151 057 000 151 057 000 151 057 000 151 057 000 151 057 000 151 057 000 151 057 000 151 057 000 151 057 000 151 057 000 151 057 000 151 057 000 151 057 000 151 057 000 151 057 000 151 057 000 151 057 000 151 057 000 151 057 000 151 057 000 151 057 000 151 057 000 151 057 000 151 057 000 151 057 000 151 057 000 151 057 000 151 057 000 151 057 000 151 057 000 151 057 000 151 057 000 151 057 000 151 057 000 151 057 000 151 057 000 151 057 000 151 057 000 151 057 000 151 057 000 151 057 000 151 057 000 151 057 000 151 057 000 151 057 000 151 057 000 151 057 000 151 057 000 151 057 000 151 057 255 205 000 255 205 000 255 205 000 255 205 000 255 205 000 255 205 000 255 205 000 255 205 000 255 205 000 255 205 000 255 205 000 255 205 000 255 205 000 255 205 000 255 205 000 255 205 000 255 205 000 255 205 000 255 205 000 255 205 000 255 205 000 255 205 000 255 205 000 255 205 000 255 205 000 255 205 000 255 205 000 255 205 000 255 205 000 255 205 000 255 205 000 255 205 000 255 205 000 255 205 000 255 205 000 255 205 000 000 000 000 000 000 000 000 000 000 000 000 000 000 000 000 000 000 000 000 000 000 000 000 000 000 000 000 000 000 000 000 000 000 000 000 000 000 000 000 000 000 000 000 000 000 000 000 000 000 000 000 000 000 000 000 000 000 000 000 000 000 000 000 000 000 000 000 000 000 000 000 000 000 000 000 000 000 000 000 000 000 000 000 000 000 000 000 000 000 000 000 000 000 000 000 000 000 000 000 000 000 000 000 000 000 000 000 000 000 000 000 000 000 000 000 000 000 000 000 000 000 000 000 000 000 000 000 000 000 000 000 000 000 000 000 000 000 000 000 000 000 000 000 000 000 000 000 000 000 000 000 000 000 000 000 000 000 000 000 000 000 000 000 000 000 000 000 000 000 000 000 000 000 000 000 000 000 000 000 000 000 000 000 000 000 000 000 000 000 000 000 000 000 000 000 000 000 000 000 000 000 000 000 000 000 000 000 000 000 000 000 000 000 000 000 000 000 000 000 000 000 000 255 205 000 255 205 000 255 205 000 255 205 000 255 205 000 255 205 000 255 205 000 255 205 000 255 205 000 255 205 000 255 205 000 255 205 000 255 205 000 255 205 000 255 205 000 255 205 000 255 205 000 255 205 000 255 205 000 255 205 000 255 205 000 255 205 000 255 205 000 255 205 000 255 205 000 255 205 000 255 205 000 255 205 000 255 205 000 255 205 000 255 205 000 255 205 000 255 205 000 255 205 000 255 205 000 255 205 000 000 151 057 000 151 057 000 151 057 000 151 057 000 151 057 000 151 057 000 151 057 000 151 057 000 151 057 000 151 057 000 151 057 000 151 057 000 151 057 000 151 057 000 151 057 000 151 057 000 151 057 000 151 057 000 151 057 000 151 057 000 151 057 000 151 057 000 151 057 000 151 057 000 151 057 000 151 057 000 151 057 000 151 057 000 151 057 000 151 057 000 151 057 000 151 057 000 151 057 000 151 057 000 151 057 000 151 057 000 151 057 000 151 057 000 151 057 000 151 057 000 151 057 000 151 057 000 151 057 000 151 057 000 151 057 000 151 057 000 151 057 000 151 057 000 151 057 000 151 057 000 151 057 000 151 057 000 151 057 000 151 057 000 151 057 000 151 057 255 205 000 255 205 000 255 205 000 255 205 000 255 205 000 255 205 000 255 205 000 255 205 000 255 205 000 255 205 000 255 205 000 255 205 000 255 205 000 255 205 000 255 205 000 255 205 000 255 205 000 255 205 000 255 205 000 255 205 000 255 205 000 255 205 000 255 205 000 255 205 000 255 205 000 255 205 000 255 205 000 255 205 000 255 205 000 255 205 000 255 205 000 255 205 000 255 205 000 255 205 000 255 205 000 255 205 000 000 000 000 000 000 000 000 000 000 000 000 000 000 000 000 000 000 000 000 000 000 000 000 000 000 000 000 000 000 000 000 000 000 000 000 000 000 000 000 000 000 000 000 000 000 000 000 000 000 000 000 000 000 000 000 000 000 000 000 000 000 000 000 000 000 000 000 000 000 000 000 000 000 000 000 000 000 000 000 000 000 000 000 000 000 000 000 000 000 000 000 000 000 000 000 000 000 000 000 000 000 000 000 000 000 000 000 000 000 000 000 000 000 000 000 000 000 000 000 000 000 000 000 000 000 000 000 000 000 000 000 000 000 000 000 000 000 000 000 000 000 000 000 000 000 000 000 000 000 000 000 000 000 000 000 000 000 000 000 000 000 000 000 000 000 000 000 000 000 000 000 000 000 000 000 000 000 000 000 000 000 000 000 000 000 000 000 000 000 000 000 000 000 000 000 000 000 000 000 000 000 000 000 000 000 000 000 000 000 000 255 205 000 255 205 000 255 205 000 255 205 000 255 205 000 255 205 000 255 205 000 255 205 000 255 205 000 255 205 000 255 205 000 255 205 000 255 205 000 255 205 000 255 205 000 255 205 000 255 205 000 255 205 000 255 205 000 255 205 000 255 205 000 255 205 000 255 205 000 255 205 000 255 205 000 255 205 000 255 205 000 255 205 000 255 205 000 255 205 000 255 205 000 255 205 000 255 205 000 255 205 000 255 205 000 255 205 000 000 151 057 000 151 057 000 151 057 000 151 057 000 151 057 000 151 057 000 151 057 000 151 057 000 151 057 000 151 057 000 151 057 000 151 057 000 151 057 000 151 057 000 151 057 000 151 057 000 151 057 000 151 057 000 151 057 000 151 057 000 151 057 000 151 057 000 151 057 000 151 057 000 151 057 000 151 057 000 151 057 000 151 057 000 151 057 000 151 057 000 151 057 000 151 057 000 151 057 000 151 057 000 151 057 000 151 057 000 151 057 000 151 057 000 151 057 000 151 057 000 151 057 000 151 057 000 151 057 000 151 057 000 151 057 000 151 057 000 151 057 000 151 057 000 151 057 000 151 057 000 151 057 000 151 057 000 151 057 000 151 057 000 151 057 000 151 057 000 151 057 000 151 057 000 151 057 000 151 057 255 205 000 255 205 000 255 205 000 255 205 000 255 205 000 255 205 000 255 205 000 255 205 000 255 205 000 255 205 000 255 205 000 255 205 000 255 205 000 255 205 000 255 205 000 255 205 000 255 205 000 255 205 000 255 205 000 255 205 000 255 205 000 255 205 000 255 205 000 255 205 000 255 205 000 255 205 000 255 205 000 255 205 000 255 205 000 255 205 000 255 205 000 255 205 000 255 205 000 255 205 000 255 205 000 255 205 000 000 000 000 000 000 000 000 000 000 000 000 000 000 000 000 000 000 000 000 000 000 000 000 000 000 000 000 000 000 000 000 000 000 000 000 000 000 000 000 000 000 000 000 000 000 000 000 000 000 000 000 000 000 000 000 000 000 000 000 000 000 000 000 000 000 000 000 000 000 000 000 000 000 000 000 000 000 000 000 000 000 000 000 000 000 000 000 000 000 000 000 000 000 000 000 000 000 000 000 000 000 000 000 000 000 000 000 000 000 000 000 000 000 000 000 000 000 000 000 000 000 000 000 000 000 000 000 000 000 000 000 000 000 000 000 000 000 000 000 000 000 000 000 000 000 000 000 000 000 000 000 000 000 000 000 000 000 000 000 000 000 000 000 000 000 000 000 000 000 000 000 000 000 000 000 000 000 000 000 000 000 000 000 000 000 000 000 000 000 000 000 000 000 000 000 000 000 000 255 205 000 255 205 000 255 205 000 255 205 000 255 205 000 255 205 000 255 205 000 255 205 000 255 205 000 255 205 000 255 205 000 255 205 000 255 205 000 255 205 000 255 205 000 255 205 000 255 205 000 255 205 000 255 205 000 255 205 000 255 205 000 255 205 000 255 205 000 255 205 000 255 205 000 255 205 000 255 205 000 255 205 000 255 205 000 255 205 000 255 205 000 255 205 000 255 205 000 255 205 000 255 205 000 255 205 000 000 151 057 000 151 057 000 151 057 000 151 057 000 151 057 000 151 057 000 151 057 000 151 057 000 151 057 000 151 057 000 151 057 000 151 057 000 151 057 000 151 057 000 151 057 000 151 057 000 151 057 000 151 057 000 151 057 000 151 057 000 151 057 000 151 057 000 151 057 000 151 057 000 151 057 000 151 057 000 151 057 000 151 057 000 151 057 000 151 057 000 151 057 000 151 057 000 151 057 000 151 057 000 151 057 000 151 057 000 151 057 000 151 057 000 151 057 000 151 057 000 151 057 000 151 057 000 151 057 000 151 057 000 151 057 000 151 057 000 151 057 000 151 057 000 151 057 000 151 057 000 151 057 000 151 057 000 151 057 000 151 057 000 151 057 000 151 057 000 151 057 000 151 057 000 151 057 000 151 057 000 151 057 000 151 057 000 151 057 000 151 057 255 205 000 255 205 000 255 205 000 255 205 000 255 205 000 255 205 000 255 205 000 255 205 000 255 205 000 255 205 000 255 205 000 255 205 000 255 205 000 255 205 000 255 205 000 255 205 000 255 205 000 255 205 000 255 205 000 255 205 000 255 205 000 255 205 000 255 205 000 255 205 000 255 205 000 255 205 000 255 205 000 255 205 000 255 205 000 255 205 000 255 205 000 255 205 000 255 205 000 255 205 000 255 205 000 255 205 000 000 000 000 000 000 000 000 000 000 000 000 000 000 000 000 000 000 000 000 000 000 000 000 000 000 000 000 000 000 000 000 000 000 000 000 000 000 000 000 000 000 000 000 000 000 000 000 000 000 000 000 000 000 000 000 000 000 000 000 000 000 000 000 000 000 000 000 000 000 000 000 000 000 000 000 000 000 000 000 000 000 000 000 000 000 000 000 000 000 000 000 000 000 000 000 000 000 000 000 000 000 000 000 000 000 000 000 000 000 000 000 000 000 000 000 000 000 000 000 000 000 000 000 000 000 000 000 000 000 000 000 000 000 000 000 000 000 000 000 000 000 000 000 000 000 000 000 000 000 000 000 000 000 000 000 000 000 000 000 000 000 000 000 000 000 000 000 000 000 000 000 000 000 000 000 000 000 000 000 000 000 000 000 000 000 000 255 205 000 255 205 000 255 205 000 255 205 000 255 205 000 255 205 000 255 205 000 255 205 000 255 205 000 255 205 000 255 205 000 255 205 000 255 205 000 255 205 000 255 205 000 255 205 000 255 205 000 255 205 000 255 205 000 255 205 000 255 205 000 255 205 000 255 205 000 255 205 000 255 205 000 255 205 000 255 205 000 255 205 000 255 205 000 255 205 000 255 205 000 255 205 000 255 205 000 255 205 000 255 205 000 255 205 000 000 151 057 000 151 057 000 151 057 000 151 057 000 151 057 000 151 057 000 151 057 000 151 057 000 151 057 000 151 057 000 151 057 000 151 057 000 151 057 000 151 057 000 151 057 000 151 057 000 151 057 000 151 057 000 151 057 000 151 057 000 151 057 000 151 057 000 151 057 000 151 057 000 151 057 000 151 057 000 151 057 000 151 057 000 151 057 000 151 057 000 151 057 000 151 057 000 151 057 000 151 057 000 151 057 000 151 057 000 151 057 000 151 057 000 151 057 000 151 057 000 151 057 000 151 057 000 151 057 000 151 057 000 151 057 000 151 057 000 151 057 000 151 057 000 151 057 000 151 057 000 151 057 000 151 057 000 151 057 000 151 057 000 151 057 000 151 057 000 151 057 000 151 057 000 151 057 000 151 057 000 151 057 000 151 057 000 151 057 000 151 057 000 151 057 000 151 057 000 151 057 000 151 057 255 205 000 255 205 000 255 205 000 255 205 000 255 205 000 255 205 000 255 205 000 255 205 000 255 205 000 255 205 000 255 205 000 255 205 000 255 205 000 255 205 000 255 205 000 255 205 000 255 205 000 255 205 000 255 205 000 255 205 000 255 205 000 255 205 000 255 205 000 255 205 000 255 205 000 255 205 000 255 205 000 255 205 000 255 205 000 255 205 000 255 205 000 255 205 000 255 205 000 255 205 000 255 205 000 255 205 000 000 000 000 000 000 000 000 000 000 000 000 000 000 000 000 000 000 000 000 000 000 000 000 000 000 000 000 000 000 000 000 000 000 000 000 000 000 000 000 000 000 000 000 000 000 000 000 000 000 000 000 000 000 000 000 000 000 000 000 000 000 000 000 000 000 000 000 000 000 000 000 000 000 000 000 000 000 000 000 000 000 000 000 000 000 000 000 000 000 000 000 000 000 000 000 000 000 000 000 000 000 000 000 000 000 000 000 000 000 000 000 000 000 000 000 000 000 000 000 000 000 000 000 000 000 000 000 000 000 000 000 000 000 000 000 000 000 000 000 000 000 000 000 000 000 000 000 000 000 000 000 000 000 000 000 000 000 000 000 000 000 000 000 000 000 000 000 000 000 000 000 000 000 000 255 205 000 255 205 000 255 205 000 255 205 000 255 205 000 255 205 000 255 205 000 255 205 000 255 205 000 255 205 000 255 205 000 255 205 000 255 205 000 255 205 000 255 205 000 255 205 000 255 205 000 255 205 000 255 205 000 255 205 000 255 205 000 255 205 000 255 205 000 255 205 000 255 205 000 255 205 000 255 205 000 255 205 000 255 205 000 255 205 000 255 205 000 255 205 000 255 205 000 255 205 000 255 205 000 255 205 000 000 151 057 000 151 057 000 151 057 000 151 057 000 151 057 000 151 057 000 151 057 000 151 057 000 151 057 000 151 057 000 151 057 000 151 057 000 151 057 000 151 057 000 151 057 000 151 057 000 151 057 000 151 057 000 151 057 000 151 057 000 151 057 000 151 057 000 151 057 000 151 057 000 151 057 000 151 057 000 151 057 000 151 057 000 151 057 000 151 057 000 151 057 000 151 057 000 151 057 000 151 057 000 151 057 000 151 057 000 151 057 000 151 057 000 151 057 000 151 057 000 151 057 000 151 057 000 151 057 000 151 057 000 151 057 000 151 057 000 151 057 000 151 057 000 151 057 000 151 057 000 151 057 000 151 057 000 151 057 000 151 057 000 151 057 000 151 057 000 151 057 000 151 057 000 151 057 000 151 057 000 151 057 000 151 057 000 151 057 000 151 057 000 151 057 000 151 057 000 151 057 000 151 057 000 151 057 000 151 057 000 151 057 000 151 057 255 205 000 255 205 000 255 205 000 255 205 000 255 205 000 255 205 000 255 205 000 255 205 000 255 205 000 255 205 000 255 205 000 255 205 000 255 205 000 255 205 000 255 205 000 255 205 000 255 205 000 255 205 000 255 205 000 255 205 000 255 205 000 255 205 000 255 205 000 255 205 000 255 205 000 255 205 000 255 205 000 255 205 000 255 205 000 255 205 000 255 205 000 255 205 000 255 205 000 255 205 000 255 205 000 255 205 000 000 000 000 000 000 000 000 000 000 000 000 000 000 000 000 000 000 000 000 000 000 000 000 000 000 000 000 000 000 000 000 000 000 000 000 000 000 000 000 000 000 000 000 000 000 000 000 000 000 000 000 000 000 000 000 000 000 000 000 000 000 000 000 000 000 000 000 000 000 000 000 000 000 000 000 000 000 000 000 000 000 000 000 000 000 000 000 000 000 000 000 000 000 000 000 000 000 000 000 000 000 000 000 000 000 000 000 000 000 000 000 000 000 000 000 000 000 000 000 000 000 000 000 000 000 000 000 000 000 000 000 000 000 000 000 000 000 000 000 000 000 000 000 000 000 000 000 000 000 000 000 000 000 000 000 000 000 000 000 000 000 000 255 205 000 255 205 000 255 205 000 255 205 000 255 205 000 255 205 000 255 205 000 255 205 000 255 205 000 255 205 000 255 205 000 255 205 000 255 205 000 255 205 000 255 205 000 255 205 000 255 205 000 255 205 000 255 205 000 255 205 000 255 205 000 255 205 000 255 205 000 255 205 000 255 205 000 255 205 000 255 205 000 255 205 000 255 205 000 255 205 000 255 205 000 255 205 000 255 205 000 255 205 000 255 205 000 255 205 000 000 151 057 000 151 057 000 151 057 000 151 057 000 151 057 000 151 057 000 151 057 000 151 057 000 151 057 000 151 057 000 151 057 000 151 057 000 151 057 000 151 057 000 151 057 000 151 057 000 151 057 000 151 057 000 151 057 000 151 057 000 151 057 000 151 057 000 151 057 000 151 057 000 151 057 000 151 057 000 151 057 000 151 057 000 151 057 000 151 057 000 151 057 000 151 057 000 151 057 000 151 057 000 151 057 000 151 057 000 151 057 000 151 057 000 151 057 000 151 057 000 151 057 000 151 057 000 151 057 000 151 057 000 151 057 000 151 057 000 151 057 000 151 057 000 151 057 000 151 057 000 151 057 000 151 057 000 151 057 000 151 057 000 151 057 000 151 057 000 151 057 000 151 057 000 151 057 000 151 057 000 151 057 000 151 057 000 151 057 000 151 057 000 151 057 000 151 057 000 151 057 000 151 057 000 151 057 000 151 057 000 151 057 000 151 057 000 151 057 000 151 057 000 151 057 000 151 057 255 205 000 255 205 000 255 205 000 255 205 000 255 205 000 255 205 000 255 205 000 255 205 000 255 205 000 255 205 000 255 205 000 255 205 000 255 205 000 255 205 000 255 205 000 255 205 000 255 205 000 255 205 000 255 205 000 255 205 000 255 205 000 255 205 000 255 205 000 255 205 000 255 205 000 255 205 000 255 205 000 255 205 000 255 205 000 255 205 000 255 205 000 255 205 000 255 205 000 255 205 000 255 205 000 255 205 000 000 000 000 000 000 000 000 000 000 000 000 000 000 000 000 000 000 000 000 000 000 000 000 000 000 000 000 000 000 000 000 000 000 000 000 000 000 000 000 000 000 000 000 000 000 000 000 000 000 000 000 000 000 000 000 000 000 000 000 000 000 000 000 000 000 000 000 000 000 000 000 000 000 000 000 000 000 000 000 000 000 000 000 000 000 000 000 000 000 000 000 000 000 000 000 000 000 000 000 000 000 000 000 000 000 000 000 000 000 000 000 000 000 000 000 000 000 000 000 000 000 000 000 000 000 000 000 000 000 000 000 000 000 000 000 000 000 000 000 000 000 000 000 000 000 000 000 000 000 000 255 205 000 255 205 000 255 205 000 255 205 000 255 205 000 255 205 000 255 205 000 255 205 000 255 205 000 255 205 000 255 205 000 255 205 000 255 205 000 255 205 000 255 205 000 255 205 000 255 205 000 255 205 000 255 205 000 255 205 000 255 205 000 255 205 000 255 205 000 255 205 000 255 205 000 255 205 000 255 205 000 255 205 000 255 205 000 255 205 000 255 205 000 255 205 000 255 205 000 255 205 000 255 205 000 255 205 000 000 151 057 000 151 057 000 151 057 000 151 057 000 151 057 000 151 057 000 151 057 000 151 057 000 151 057 000 151 057 000 151 057 000 151 057 000 151 057 000 151 057 000 151 057 000 151 057 000 151 057 000 151 057 000 151 057 000 151 057 000 151 057 000 151 057 000 151 057 000 151 057 000 151 057 000 151 057 000 151 057 000 151 057 000 151 057 000 151 057 000 151 057 000 151 057 000 151 057 000 151 057 000 151 057 000 151 057 000 151 057 000 151 057 000 151 057 000 151 057 000 151 057 000 151 057 000 151 057 000 151 057 000 151 057 000 151 057 000 151 057 000 151 057 000 151 057 000 151 057 000 151 057 000 151 057 000 151 057 000 151 057 000 151 057 000 151 057 000 151 057 000 151 057 000 151 057 000 151 057 000 151 057 000 151 057 000 151 057 000 151 057 000 151 057 000 151 057 000 151 057 000 151 057 000 151 057 000 151 057 000 151 057 000 151 057 000 151 057 000 151 057 000 151 057 000 151 057 000 151 057 000 151 057 000 151 057 000 151 057 255 205 000 255 205 000 255 205 000 255 205 000 255 205 000 255 205 000 255 205 000 255 205 000 255 205 000 255 205 000 255 205 000 255 205 000 255 205 000 255 205 000 255 205 000 255 205 000 255 205 000 255 205 000 255 205 000 255 205 000 255 205 000 255 205 000 255 205 000 255 205 000 255 205 000 255 205 000 255 205 000 255 205 000 255 205 000 255 205 000 255 205 000 255 205 000 255 205 000 255 205 000 255 205 000 255 205 000 000 000 000 000 000 000 000 000 000 000 000 000 000 000 000 000 000 000 000 000 000 000 000 000 000 000 000 000 000 000 000 000 000 000 000 000 000 000 000 000 000 000 000 000 000 000 000 000 000 000 000 000 000 000 000 000 000 000 000 000 000 000 000 000 000 000 000 000 000 000 000 000 000 000 000 000 000 000 000 000 000 000 000 000 000 000 000 000 000 000 000 000 000 000 000 000 000 000 000 000 000 000 000 000 000 000 000 000 000 000 000 000 000 000 000 000 000 000 000 000 000 000 000 000 000 000 000 000 000 000 000 000 000 000 000 000 000 000 255 205 000 255 205 000 255 205 000 255 205 000 255 205 000 255 205 000 255 205 000 255 205 000 255 205 000 255 205 000 255 205 000 255 205 000 255 205 000 255 205 000 255 205 000 255 205 000 255 205 000 255 205 000 255 205 000 255 205 000 255 205 000 255 205 000 255 205 000 255 205 000 255 205 000 255 205 000 255 205 000 255 205 000 255 205 000 255 205 000 255 205 000 255 205 000 255 205 000 255 205 000 255 205 000 255 205 000 000 151 057 000 151 057 000 151 057 000 151 057 000 151 057 000 151 057 000 151 057 000 151 057 000 151 057 000 151 057 000 151 057 000 151 057 000 151 057 000 151 057 000 151 057 000 151 057 000 151 057 000 151 057 000 151 057 000 151 057 000 151 057 000 151 057 000 151 057 000 151 057 000 151 057 000 151 057 000 151 057 000 151 057 000 151 057 000 151 057 000 151 057 000 151 057 000 151 057 000 151 057 000 151 057 000 151 057 000 151 057 000 151 057 000 151 057 000 151 057 000 151 057 000 151 057 000 151 057 000 151 057 000 151 057 000 151 057 000 151 057 000 151 057 000 151 057 000 151 057 000 151 057 000 151 057 000 151 057 000 151 057 000 151 057 000 151 057 000 151 057 000 151 057 000 151 057 000 151 057 000 151 057 000 151 057 000 151 057 000 151 057 000 151 057 000 151 057 000 151 057 000 151 057 000 151 057 000 151 057 000 151 057 000 151 057 000 151 057 000 151 057 000 151 057 000 151 057 000 151 057 000 151 057 000 151 057 000 151 057 000 151 057 000 151 057 000 151 057 000 151 057 255 205 000 255 205 000 255 205 000 255 205 000 255 205 000 255 205 000 255 205 000 255 205 000 255 205 000 255 205 000 255 205 000 255 205 000 255 205 000 255 205 000 255 205 000 255 205 000 255 205 000 255 205 000 255 205 000 255 205 000 255 205 000 255 205 000 255 205 000 255 205 000 255 205 000 255 205 000 255 205 000 255 205 000 255 205 000 255 205 000 255 205 000 255 205 000 255 205 000 255 205 000 255 205 000 255 205 000 000 000 000 000 000 000 000 000 000 000 000 000 000 000 000 000 000 000 000 000 000 000 000 000 000 000 000 000 000 000 000 000 000 000 000 000 000 000 000 000 000 000 000 000 000 000 000 000 000 000 000 000 000 000 000 000 000 000 000 000 000 000 000 000 000 000 000 000 000 000 000 000 000 000 000 000 000 000 000 000 000 000 000 000 000 000 000 000 000 000 000 000 000 000 000 000 000 000 000 000 000 000 000 000 000 000 000 000 000 000 000 000 000 000 000 000 000 000 000 000 000 000 000 000 000 000 255 205 000 255 205 000 255 205 000 255 205 000 255 205 000 255 205 000 255 205 000 255 205 000 255 205 000 255 205 000 255 205 000 255 205 000 255 205 000 255 205 000 255 205 000 255 205 000 255 205 000 255 205 000 255 205 000 255 205 000 255 205 000 255 205 000 255 205 000 255 205 000 255 205 000 255 205 000 255 205 000 255 205 000 255 205 000 255 205 000 255 205 000 255 205 000 255 205 000 255 205 000 255 205 000 255 205 000 000 151 057 000 151 057 000 151 057 000 151 057 000 151 057 000 151 057 000 151 057 000 151 057 000 151 057 000 151 057 000 151 057 000 151 057 000 151 057 000 151 057 000 151 057 000 151 057 000 151 057 000 151 057 000 151 057 000 151 057 000 151 057 000 151 057 000 151 057 000 151 057 000 151 057 000 151 057 000 151 057 000 151 057 000 151 057 000 151 057 000 151 057 000 151 057 000 151 057 000 151 057 000 151 057 000 151 057 000 151 057 000 151 057 000 151 057 000 151 057 000 151 057 000 151 057 000 151 057 000 151 057 000 151 057 000 151 057 000 151 057 000 151 057 000 151 057 000 151 057 000 151 057 000 151 057 000 151 057 000 151 057 000 151 057 000 151 057 000 151 057 000 151 057 000 151 057 000 151 057 000 151 057 000 151 057 000 151 057 000 151 057 000 151 057 000 151 057 000 151 057 000 151 057 000 151 057 000 151 057 000 151 057 000 151 057 000 151 057 000 151 057 000 151 057 000 151 057 000 151 057 000 151 057 000 151 057 000 151 057 000 151 057 000 151 057 000 151 057 000 151 057 000 151 057 000 151 057 000 151 057 000 151 057 255 205 000 255 205 000 255 205 000 255 205 000 255 205 000 255 205 000 255 205 000 255 205 000 255 205 000 255 205 000 255 205 000 255 205 000 255 205 000 255 205 000 255 205 000 255 205 000 255 205 000 255 205 000 255 205 000 255 205 000 255 205 000 255 205 000 255 205 000 255 205 000 255 205 000 255 205 000 255 205 000 255 205 000 255 205 000 255 205 000 255 205 000 255 205 000 255 205 000 255 205 000 255 205 000 255 205 000 000 000 000 000 000 000 000 000 000 000 000 000 000 000 000 000 000 000 000 000 000 000 000 000 000 000 000 000 000 000 000 000 000 000 000 000 000 000 000 000 000 000 000 000 000 000 000 000 000 000 000 000 000 000 000 000 000 000 000 000 000 000 000 000 000 000 000 000 000 000 000 000 000 000 000 000 000 000 000 000 000 000 000 000 000 000 000 000 000 000 000 000 000 000 000 000 000 000 000 000 000 000 000 000 000 000 000 000 000 000 000 000 000 000 255 205 000 255 205 000 255 205 000 255 205 000 255 205 000 255 205 000 255 205 000 255 205 000 255 205 000 255 205 000 255 205 000 255 205 000 255 205 000 255 205 000 255 205 000 255 205 000 255 205 000 255 205 000 255 205 000 255 205 000 255 205 000 255 205 000 255 205 000 255 205 000 255 205 000 255 205 000 255 205 000 255 205 000 255 205 000 255 205 000 255 205 000 255 205 000 255 205 000 255 205 000 255 205 000 255 205 000 000 151 057 000 151 057 000 151 057 000 151 057 000 151 057 000 151 057 000 151 057 000 151 057 000 151 057 000 151 057 000 151 057 000 151 057 000 151 057 000 151 057 000 151 057 000 151 057 000 151 057 000 151 057 000 151 057 000 151 057 000 151 057 000 151 057 000 151 057 000 151 057 000 151 057 000 151 057 000 151 057 000 151 057 000 151 057 000 151 057 000 151 057 000 151 057 000 151 057 000 151 057 000 151 057 000 151 057 000 151 057 000 151 057 000 151 057 000 151 057 000 151 057 000 151 057 000 151 057 000 151 057 000 151 057 000 151 057 000 151 057 000 151 057 000 151 057 000 151 057 000 151 057 000 151 057 000 151 057 000 151 057 000 151 057 000 151 057 000 151 057 000 151 057 000 151 057 000 151 057 000 151 057 000 151 057 000 151 057 000 151 057 000 151 057 000 151 057 000 151 057 000 151 057 000 151 057 000 151 057 000 151 057 000 151 057 000 151 057 000 151 057 000 151 057 000 151 057 000 151 057 000 151 057 000 151 057 000 151 057 000 151 057 000 151 057 000 151 057 000 151 057 000 151 057 000 151 057 000 151 057 000 151 057 000 151 057 000 151 057 000 151 057 000 151 057 255 205 000 255 205 000 255 205 000 255 205 000 255 205 000 255 205 000 255 205 000 255 205 000 255 205 000 255 205 000 255 205 000 255 205 000 255 205 000 255 205 000 255 205 000 255 205 000 255 205 000 255 205 000 255 205 000 255 205 000 255 205 000 255 205 000 255 205 000 255 205 000 255 205 000 255 205 000 255 205 000 255 205 000 255 205 000 255 205 000 255 205 000 255 205 000 255 205 000 255 205 000 255 205 000 255 205 000 000 000 000 000 000 000 000 000 000 000 000 000 000 000 000 000 000 000 000 000 000 000 000 000 000 000 000 000 000 000 000 000 000 000 000 000 000 000 000 000 000 000 000 000 000 000 000 000 000 000 000 000 000 000 000 000 000 000 000 000 000 000 000 000 000 000 000 000 000 000 000 000 000 000 000 000 000 000 000 000 000 000 000 000 000 000 000 000 000 000 000 000 000 000 000 000 000 000 000 000 000 000 255 205 000 255 205 000 255 205 000 255 205 000 255 205 000 255 205 000 255 205 000 255 205 000 255 205 000 255 205 000 255 205 000 255 205 000 255 205 000 255 205 000 255 205 000 255 205 000 255 205 000 255 205 000 255 205 000 255 205 000 255 205 000 255 205 000 255 205 000 255 205 000 255 205 000 255 205 000 255 205 000 255 205 000 255 205 000 255 205 000 255 205 000 255 205 000 255 205 000 255 205 000 255 205 000 255 205 000 000 151 057 000 151 057 000 151 057 000 151 057 000 151 057 000 151 057 000 151 057 000 151 057 000 151 057 000 151 057 000 151 057 000 151 057 000 151 057 000 151 057 000 151 057 000 151 057 000 151 057 000 151 057 000 151 057 000 151 057 000 151 057 000 151 057 000 151 057 000 151 057 000 151 057 000 151 057 000 151 057 000 151 057 000 151 057 000 151 057 000 151 057 000 151 057 000 151 057 000 151 057 000 151 057 000 151 057 000 151 057 000 151 057 000 151 057 000 151 057 000 151 057 000 151 057 000 151 057 000 151 057 000 151 057 000 151 057 000 151 057 000 151 057 000 151 057 000 151 057 000 151 057 000 151 057 000 151 057 000 151 057 000 151 057 000 151 057 000 151 057 000 151 057 000 151 057 000 151 057 000 151 057 000 151 057 000 151 057 000 151 057 000 151 057 000 151 057 000 151 057 000 151 057 000 151 057 000 151 057 000 151 057 000 151 057 000 151 057 000 151 057 000 151 057 000 151 057 000 151 057 000 151 057 000 151 057 000 151 057 000 151 057 000 151 057 000 151 057 000 151 057 000 151 057 000 151 057 000 151 057 000 151 057 000 151 057 000 151 057 000 151 057 000 151 057 000 151 057 000 151 057 000 151 057 000 151 057 255 205 000 255 205 000 255 205 000 255 205 000 255 205 000 255 205 000 255 205 000 255 205 000 255 205 000 255 205 000 255 205 000 255 205 000 255 205 000 255 205 000 255 205 000 255 205 000 255 205 000 255 205 000 255 205 000 255 205 000 255 205 000 255 205 000 255 205 000 255 205 000 255 205 000 255 205 000 255 205 000 255 205 000 255 205 000 255 205 000 255 205 000 255 205 000 255 205 000 255 205 000 255 205 000 255 205 000 000 000 000 000 000 000 000 000 000 000 000 000 000 000 000 000 000 000 000 000 000 000 000 000 000 000 000 000 000 000 000 000 000 000 000 000 000 000 000 000 000 000 000 000 000 000 000 000 000 000 000 000 000 000 000 000 000 000 000 000 000 000 000 000 000 000 000 000 000 000 000 000 000 000 000 000 000 000 000 000 000 000 000 000 000 000 000 000 000 000 255 205 000 255 205 000 255 205 000 255 205 000 255 205 000 255 205 000 255 205 000 255 205 000 255 205 000 255 205 000 255 205 000 255 205 000 255 205 000 255 205 000 255 205 000 255 205 000 255 205 000 255 205 000 255 205 000 255 205 000 255 205 000 255 205 000 255 205 000 255 205 000 255 205 000 255 205 000 255 205 000 255 205 000 255 205 000 255 205 000 255 205 000 255 205 000 255 205 000 255 205 000 255 205 000 255 205 000 000 151 057 000 151 057 000 151 057 000 151 057 000 151 057 000 151 057 000 151 057 000 151 057 000 151 057 000 151 057 000 151 057 000 151 057 000 151 057 000 151 057 000 151 057 000 151 057 000 151 057 000 151 057 000 151 057 000 151 057 000 151 057 000 151 057 000 151 057 000 151 057 000 151 057 000 151 057 000 151 057 000 151 057 000 151 057 000 151 057 000 151 057 000 151 057 000 151 057 000 151 057 000 151 057 000 151 057 000 151 057 000 151 057 000 151 057 000 151 057 000 151 057 000 151 057 000 151 057 000 151 057 000 151 057 000 151 057 000 151 057 000 151 057 000 151 057 000 151 057 000 151 057 000 151 057 000 151 057 000 151 057 000 151 057 000 151 057 000 151 057 000 151 057 000 151 057 000 151 057 000 151 057 000 151 057 000 151 057 000 151 057 000 151 057 000 151 057 000 151 057 000 151 057 000 151 057 000 151 057 000 151 057 000 151 057 000 151 057 000 151 057 000 151 057 000 151 057 000 151 057 000 151 057 000 151 057 000 151 057 000 151 057 000 151 057 000 151 057 000 151 057 000 151 057 000 151 057 000 151 057 000 151 057 000 151 057 000 151 057 000 151 057 000 151 057 000 151 057 000 151 057 000 151 057 000 151 057 000 151 057 000 151 057 000 151 057 000 151 057 255 205 000 255 205 000 255 205 000 255 205 000 255 205 000 255 205 000 255 205 000 255 205 000 255 205 000 255 205 000 255 205 000 255 205 000 255 205 000 255 205 000 255 205 000 255 205 000 255 205 000 255 205 000 255 205 000 255 205 000 255 205 000 255 205 000 255 205 000 255 205 000 255 205 000 255 205 000 255 205 000 255 205 000 255 205 000 255 205 000 255 205 000 255 205 000 255 205 000 255 205 000 255 205 000 255 205 000 000 000 000 000 000 000 000 000 000 000 000 000 000 000 000 000 000 000 000 000 000 000 000 000 000 000 000 000 000 000 000 000 000 000 000 000 000 000 000 000 000 000 000 000 000 000 000 000 000 000 000 000 000 000 000 000 000 000 000 000 000 000 000 000 000 000 000 000 000 000 000 000 000 000 000 000 000 000 255 205 000 255 205 000 255 205 000 255 205 000 255 205 000 255 205 000 255 205 000 255 205 000 255 205 000 255 205 000 255 205 000 255 205 000 255 205 000 255 205 000 255 205 000 255 205 000 255 205 000 255 205 000 255 205 000 255 205 000 255 205 000 255 205 000 255 205 000 255 205 000 255 205 000 255 205 000 255 205 000 255 205 000 255 205 000 255 205 000 255 205 000 255 205 000 255 205 000 255 205 000 255 205 000 255 205 000 000 151 057 000 151 057 000 151 057 000 151 057 000 151 057 000 151 057 000 151 057 000 151 057 000 151 057 000 151 057 000 151 057 000 151 057 000 151 057 000 151 057 000 151 057 000 151 057 000 151 057 000 151 057 000 151 057 000 151 057 000 151 057 000 151 057 000 151 057 000 151 057 000 151 057 000 151 057 000 151 057 000 151 057 000 151 057 000 151 057 000 151 057 000 151 057 000 151 057 000 151 057 000 151 057 000 151 057 000 151 057 000 151 057 000 151 057 000 151 057 000 151 057 000 151 057 000 151 057 000 151 057 000 151 057 000 151 057 000 151 057 000 151 057 000 151 057 000 151 057 000 151 057 000 151 057 000 151 057 000 151 057 000 151 057 000 151 057 000 151 057 000 151 057 000 151 057 000 151 057 000 151 057 000 151 057 000 151 057 000 151 057 000 151 057 000 151 057 000 151 057 000 151 057 000 151 057 000 151 057 000 151 057 000 151 057 000 151 057 000 151 057 000 151 057 000 151 057 000 151 057 000 151 057 000 151 057 000 151 057 000 151 057 000 151 057 000 151 057 000 151 057 000 151 057 000 151 057 000 151 057 000 151 057 000 151 057 000 151 057 000 151 057 000 151 057 000 151 057 000 151 057 000 151 057 000 151 057 000 151 057 000 151 057 000 151 057 000 151 057 000 151 057 000 151 057 000 151 057 000 151 057 255 205 000 255 205 000 255 205 000 255 205 000 255 205 000 255 205 000 255 205 000 255 205 000 255 205 000 255 205 000 255 205 000 255 205 000 255 205 000 255 205 000 255 205 000 255 205 000 255 205 000 255 205 000 255 205 000 255 205 000 255 205 000 255 205 000 255 205 000 255 205 000 255 205 000 255 205 000 255 205 000 255 205 000 255 205 000 255 205 000 255 205 000 255 205 000 255 205 000 255 205 000 255 205 000 255 205 000 000 000 000 000 000 000 000 000 000 000 000 000 000 000 000 000 000 000 000 000 000 000 000 000 000 000 000 000 000 000 000 000 000 000 000 000 000 000 000 000 000 000 000 000 000 000 000 000 000 000 000 000 000 000 000 000 000 000 000 000 000 000 000 000 000 000 255 205 000 255 205 000 255 205 000 255 205 000 255 205 000 255 205 000 255 205 000 255 205 000 255 205 000 255 205 000 255 205 000 255 205 000 255 205 000 255 205 000 255 205 000 255 205 000 255 205 000 255 205 000 255 205 000 255 205 000 255 205 000 255 205 000 255 205 000 255 205 000 255 205 000 255 205 000 255 205 000 255 205 000 255 205 000 255 205 000 255 205 000 255 205 000 255 205 000 255 205 000 255 205 000 255 205 000 000 151 057 000 151 057 000 151 057 000 151 057 000 151 057 000 151 057 000 151 057 000 151 057 000 151 057 000 151 057 000 151 057 000 151 057 000 151 057 000 151 057 000 151 057 000 151 057 000 151 057 000 151 057 000 151 057 000 151 057 000 151 057 000 151 057 000 151 057 000 151 057 000 151 057 000 151 057 000 151 057 000 151 057 000 151 057 000 151 057 000 151 057 000 151 057 000 151 057 000 151 057 000 151 057 000 151 057 000 151 057 000 151 057 000 151 057 000 151 057 000 151 057 000 151 057 000 151 057 000 151 057 000 151 057 000 151 057 000 151 057 000 151 057 000 151 057 000 151 057 000 151 057 000 151 057 000 151 057 000 151 057 000 151 057 000 151 057 000 151 057 000 151 057 000 151 057 000 151 057 000 151 057 000 151 057 000 151 057 000 151 057 000 151 057 000 151 057 000 151 057 000 151 057 000 151 057 000 151 057 000 151 057 000 151 057 000 151 057 000 151 057 000 151 057 000 151 057 000 151 057 000 151 057 000 151 057 000 151 057 000 151 057 000 151 057 000 151 057 000 151 057 000 151 057 000 151 057 000 151 057 000 151 057 000 151 057 000 151 057 000 151 057 000 151 057 000 151 057 000 151 057 000 151 057 000 151 057 000 151 057 000 151 057 000 151 057 000 151 057 000 151 057 000 151 057 000 151 057 000 151 057 000 151 057 000 151 057 000 151 057 000 151 057 255 205 000 255 205 000 255 205 000 255 205 000 255 205 000 255 205 000 255 205 000 255 205 000 255 205 000 255 205 000 255 205 000 255 205 000 255 205 000 255 205 000 255 205 000 255 205 000 255 205 000 255 205 000 255 205 000 255 205 000 255 205 000 255 205 000 255 205 000 255 205 000 255 205 000 255 205 000 255 205 000 255 205 000 255 205 000 255 205 000 255 205 000 255 205 000 255 205 000 255 205 000 255 205 000 255 205 000 000 000 000 000 000 000 000 000 000 000 000 000 000 000 000 000 000 000 000 000 000 000 000 000 000 000 000 000 000 000 000 000 000 000 000 000 000 000 000 000 000 000 000 000 000 000 000 000 000 000 000 000 000 000 255 205 000 255 205 000 255 205 000 255 205 000 255 205 000 255 205 000 255 205 000 255 205 000 255 205 000 255 205 000 255 205 000 255 205 000 255 205 000 255 205 000 255 205 000 255 205 000 255 205 000 255 205 000 255 205 000 255 205 000 255 205 000 255 205 000 255 205 000 255 205 000 255 205 000 255 205 000 255 205 000 255 205 000 255 205 000 255 205 000 255 205 000 255 205 000 255 205 000 255 205 000 255 205 000 255 205 000 000 151 057 000 151 057 000 151 057 000 151 057 000 151 057 000 151 057 000 151 057 000 151 057 000 151 057 000 151 057 000 151 057 000 151 057 000 151 057 000 151 057 000 151 057 000 151 057 000 151 057 000 151 057 000 151 057 000 151 057 000 151 057 000 151 057 000 151 057 000 151 057 000 151 057 000 151 057 000 151 057 000 151 057 000 151 057 000 151 057 000 151 057 000 151 057 000 151 057 000 151 057 000 151 057 000 151 057 000 151 057 000 151 057 000 151 057 000 151 057 000 151 057 000 151 057 000 151 057 000 151 057 000 151 057 000 151 057 000 151 057 000 151 057 000 151 057 000 151 057 000 151 057 000 151 057 000 151 057 000 151 057 000 151 057 000 151 057 000 151 057 000 151 057 000 151 057 000 151 057 000 151 057 000 151 057 000 151 057 000 151 057 000 151 057 000 151 057 000 151 057 000 151 057 000 151 057 000 151 057 000 151 057 000 151 057 000 151 057 000 151 057 000 151 057 000 151 057 000 151 057 000 151 057 000 151 057 000 151 057 000 151 057 000 151 057 000 151 057 000 151 057 000 151 057 000 151 057 000 151 057 000 151 057 000 151 057 000 151 057 000 151 057 000 151 057 000 151 057 000 151 057 000 151 057 000 151 057 000 151 057 000 151 057 000 151 057 000 151 057 000 151 057 000 151 057 000 151 057 000 151 057 000 151 057 000 151 057 000 151 057 000 151 057 000 151 057 000 151 057 000 151 057 000 151 057 255 205 000 255 205 000 255 205 000 255 205 000 255 205 000 255 205 000 255 205 000 255 205 000 255 205 000 255 205 000 255 205 000 255 205 000 255 205 000 255 205 000 255 205 000 255 205 000 255 205 000 255 205 000 255 205 000 255 205 000 255 205 000 255 205 000 255 205 000 255 205 000 255 205 000 255 205 000 255 205 000 255 205 000 255 205 000 255 205 000 255 205 000 255 205 000 255 205 000 255 205 000 255 205 000 255 205 000 000 000 000 000 000 000 000 000 000 000 000 000 000 000 000 000 000 000 000 000 000 000 000 000 000 000 000 000 000 000 000 000 000 000 000 000 000 000 000 000 000 000 255 205 000 255 205 000 255 205 000 255 205 000 255 205 000 255 205 000 255 205 000 255 205 000 255 205 000 255 205 000 255 205 000 255 205 000 255 205 000 255 205 000 255 205 000 255 205 000 255 205 000 255 205 000 255 205 000 255 205 000 255 205 000 255 205 000 255 205 000 255 205 000 255 205 000 255 205 000 255 205 000 255 205 000 255 205 000 255 205 000 255 205 000 255 205 000 255 205 000 255 205 000 255 205 000 255 205 000 000 151 057 000 151 057 000 151 057 000 151 057 000 151 057 000 151 057 000 151 057 000 151 057 000 151 057 000 151 057 000 151 057 000 151 057 000 151 057 000 151 057 000 151 057 000 151 057 000 151 057 000 151 057 000 151 057 000 151 057 000 151 057 000 151 057 000 151 057 000 151 057 000 151 057 000 151 057 000 151 057 000 151 057 000 151 057 000 151 057 000 151 057 000 151 057 000 151 057 000 151 057 000 151 057 000 151 057 000 151 057 000 151 057 000 151 057 000 151 057 000 151 057 000 151 057 000 151 057 000 151 057 000 151 057 000 151 057 000 151 057 000 151 057 000 151 057 000 151 057 000 151 057 000 151 057 000 151 057 000 151 057 000 151 057 000 151 057 000 151 057 000 151 057 000 151 057 000 151 057 000 151 057 000 151 057 000 151 057 000 151 057 000 151 057 000 151 057 000 151 057 000 151 057 000 151 057 000 151 057 000 151 057 000 151 057 000 151 057 000 151 057 000 151 057 000 151 057 000 151 057 000 151 057 000 151 057 000 151 057 000 151 057 000 151 057 000 151 057 000 151 057 000 151 057 000 151 057 000 151 057 000 151 057 000 151 057 000 151 057 000 151 057 000 151 057 000 151 057 000 151 057 000 151 057 000 151 057 000 151 057 000 151 057 000 151 057 000 151 057 000 151 057 000 151 057 000 151 057 000 151 057 000 151 057 000 151 057 000 151 057 000 151 057 000 151 057 000 151 057 000 151 057 000 151 057 000 151 057 000 151 057 000 151 057 000 151 057 255 205 000 255 205 000 255 205 000 255 205 000 255 205 000 255 205 000 255 205 000 255 205 000 255 205 000 255 205 000 255 205 000 255 205 000 255 205 000 255 205 000 255 205 000 255 205 000 255 205 000 255 205 000 255 205 000 255 205 000 255 205 000 255 205 000 255 205 000 255 205 000 255 205 000 255 205 000 255 205 000 255 205 000 255 205 000 255 205 000 255 205 000 255 205 000 255 205 000 255 205 000 255 205 000 255 205 000 000 000 000 000 000 000 000 000 000 000 000 000 000 000 000 000 000 000 000 000 000 000 000 000 000 000 000 000 000 000 255 205 000 255 205 000 255 205 000 255 205 000 255 205 000 255 205 000 255 205 000 255 205 000 255 205 000 255 205 000 255 205 000 255 205 000 255 205 000 255 205 000 255 205 000 255 205 000 255 205 000 255 205 000 255 205 000 255 205 000 255 205 000 255 205 000 255 205 000 255 205 000 255 205 000 255 205 000 255 205 000 255 205 000 255 205 000 255 205 000 255 205 000 255 205 000 255 205 000 255 205 000 255 205 000 255 205 000 000 151 057 000 151 057 000 151 057 000 151 057 000 151 057 000 151 057 000 151 057 000 151 057 000 151 057 000 151 057 000 151 057 000 151 057 000 151 057 000 151 057 000 151 057 000 151 057 000 151 057 000 151 057 000 151 057 000 151 057 000 151 057 000 151 057 000 151 057 000 151 057 000 151 057 000 151 057 000 151 057 000 151 057 000 151 057 000 151 057 000 151 057 000 151 057 000 151 057 000 151 057 000 151 057 000 151 057 000 151 057 000 151 057 000 151 057 000 151 057 000 151 057 000 151 057 000 151 057 000 151 057 000 151 057 000 151 057 000 151 057 000 151 057 000 151 057 000 151 057 000 151 057 000 151 057 000 151 057 000 151 057 000 151 057 000 151 057 000 151 057 000 151 057 000 151 057 000 151 057 000 151 057 000 151 057 000 151 057 000 151 057 000 151 057 000 151 057 000 151 057 000 151 057 000 151 057 000 151 057 000 151 057 000 151 057 000 151 057 000 151 057 000 151 057 000 151 057 000 151 057 000 151 057 000 151 057 000 151 057 000 151 057 000 151 057 000 151 057 000 151 057 000 151 057 000 151 057 000 151 057 000 151 057 000 151 057 000 151 057 000 151 057 000 151 057 000 151 057 000 151 057 000 151 057 000 151 057 000 151 057 000 151 057 000 151 057 000 151 057 000 151 057 000 151 057 000 151 057 000 151 057 000 151 057 000 151 057 000 151 057 000 151 057 000 151 057 000 151 057 000 151 057 000 151 057 000 151 057 000 151 057 000 151 057 000 151 057 000 151 057 000 151 057 000 151 057 000 151 057 255 205 000 255 205 000 255 205 000 255 205 000 255 205 000 255 205 000 255 205 000 255 205 000 255 205 000 255 205 000 255 205 000 255 205 000 255 205 000 255 205 000 255 205 000 255 205 000 255 205 000 255 205 000 255 205 000 255 205 000 255 205 000 255 205 000 255 205 000 255 205 000 255 205 000 255 205 000 255 205 000 255 205 000 255 205 000 255 205 000 255 205 000 255 205 000 255 205 000 255 205 000 255 205 000 255 205 000 000 000 000 000 000 000 000 000 000 000 000 000 000 000 000 000 000 000 255 205 000 255 205 000 255 205 000 255 205 000 255 205 000 255 205 000 255 205 000 255 205 000 255 205 000 255 205 000 255 205 000 255 205 000 255 205 000 255 205 000 255 205 000 255 205 000 255 205 000 255 205 000 255 205 000 255 205 000 255 205 000 255 205 000 255 205 000 255 205 000 255 205 000 255 205 000 255 205 000 255 205 000 255 205 000 255 205 000 255 205 000 255 205 000 255 205 000 255 205 000 255 205 000 255 205 000 000 151 057 000 151 057 000 151 057 000 151 057 000 151 057 000 151 057 000 151 057 000 151 057 000 151 057 000 151 057 000 151 057 000 151 057 000 151 057 000 151 057 000 151 057 000 151 057 000 151 057 000 151 057 000 151 057 000 151 057 000 151 057 000 151 057 000 151 057 000 151 057 000 151 057 000 151 057 000 151 057 000 151 057 000 151 057 000 151 057 000 151 057 000 151 057 000 151 057 000 151 057 000 151 057 000 151 057 000 151 057 000 151 057 000 151 057 000 151 057 000 151 057 000 151 057 000 151 057 000 151 057 000 151 057 000 151 057 000 151 057 000 151 057 000 151 057 000 151 057 000 151 057 000 151 057 000 151 057 000 151 057 000 151 057 000 151 057 000 151 057 000 151 057 000 151 057 000 151 057 000 151 057 000 151 057 000 151 057 000 151 057 000 151 057 000 151 057 000 151 057 000 151 057 000 151 057 000 151 057 000 151 057 000 151 057 000 151 057 000 151 057 000 151 057 000 151 057 000 151 057 000 151 057 000 151 057 000 151 057 000 151 057 000 151 057 000 151 057 000 151 057 000 151 057 000 151 057 000 151 057 000 151 057 000 151 057 000 151 057 000 151 057 000 151 057 000 151 057 000 151 057 000 151 057 000 151 057 000 151 057 000 151 057 000 151 057 000 151 057 000 151 057 000 151 057 000 151 057 000 151 057 000 151 057 000 151 057 000 151 057 000 151 057 000 151 057 000 151 057 000 151 057 000 151 057 000 151 057 000 151 057 000 151 057 000 151 057 000 151 057 000 151 057 000 151 057 000 151 057 000 151 057 000 151 057 000 151 057 000 151 057 255 205 000 255 205 000 255 205 000 255 205 000 255 205 000 255 205 000 255 205 000 255 205 000 255 205 000 255 205 000 255 205 000 255 205 000 255 205 000 255 205 000 255 205 000 255 205 000 255 205 000 255 205 000 255 205 000 255 205 000 255 205 000 255 205 000 255 205 000 255 205 000 255 205 000 255 205 000 255 205 000 255 205 000 255 205 000 255 205 000 255 205 000 255 205 000 255 205 000 255 205 000 255 205 000 255 205 000 000 000 000 000 000 000 255 205 000 255 205 000 255 205 000 255 205 000 255 205 000 255 205 000 255 205 000 255 205 000 255 205 000 255 205 000 255 205 000 255 205 000 255 205 000 255 205 000 255 205 000 255 205 000 255 205 000 255 205 000 255 205 000 255 205 000 255 205 000 255 205 000 255 205 000 255 205 000 255 205 000 255 205 000 255 205 000 255 205 000 255 205 000 255 205 000 255 205 000 255 205 000 255 205 000 255 205 000 255 205 000 255 205 000 000 151 057 000 151 057 000 151 057 000 151 057 000 151 057 000 151 057 000 151 057 000 151 057 000 151 057 000 151 057 000 151 057 000 151 057 000 151 057 000 151 057 000 151 057 000 151 057 000 151 057 000 151 057 000 151 057 000 151 057 000 151 057 000 151 057 000 151 057 000 151 057 000 151 057 000 151 057 000 151 057 000 151 057 000 151 057 000 151 057 000 151 057 000 151 057 000 151 057 000 151 057 000 151 057 000 151 057 000 151 057 000 151 057 000 151 057 000 151 057 000 151 057 000 151 057 000 151 057 000 151 057 000 151 057 000 151 057 000 151 057 000 151 057 000 151 057 000 151 057 000 151 057 000 151 057 000 151 057 000 151 057 000 151 057 000 151 057 000 151 057 000 151 057 000 151 057 000 151 057 000 151 057 000 151 057 000 151 057 000 151 057 000 151 057 000 151 057 000 151 057 000 151 057 000 151 057 000 151 057 000 151 057 000 151 057 000 151 057 000 151 057 000 151 057 000 151 057 000 151 057 000 151 057 000 151 057 000 151 057 000 151 057 000 151 057 000 151 057 000 151 057 000 151 057 000 151 057 000 151 057 000 151 057 000 151 057 000 151 057 000 151 057 000 151 057 000 151 057 000 151 057 000 151 057 000 151 057 000 151 057 000 151 057 000 151 057 000 151 057 000 151 057 000 151 057 000 151 057 000 151 057 000 151 057 000 151 057 000 151 057 000 151 057 000 151 057 000 151 057 000 151 057 000 151 057 000 151 057 000 151 057 000 151 057 000 151 057 000 151 057 000 151 057 000 151 057 000 151 057 000 151 057 000 151 057 000 151 057 000 151 057 000 151 057 000 151 057 000 151 057 000 151 057 255 205 000 255 205 000 255 205 000 255 205 000 255 205 000 255 205 000 255 205 000 255 205 000 255 205 000 255 205 000 255 205 000 255 205 000 255 205 000 255 205 000 255 205 000 255 205 000 255 205 000 255 205 000 255 205 000 255 205 000 255 205 000 255 205 000 255 205 000 255 205 000 255 205 000 255 205 000 255 205 000 255 205 000 255 205 000 255 205 000 255 205 000 255 205 000 255 205 000 255 205 000 255 205 000 255 205 000 255 205 000 255 205 000 255 205 000 255 205 000 255 205 000 255 205 000 255 205 000 255 205 000 255 205 000 255 205 000 255 205 000 255 205 000 255 205 000 255 205 000 255 205 000 255 205 000 255 205 000 255 205 000 255 205 000 255 205 000 255 205 000 255 205 000 255 205 000 255 205 000 255 205 000 255 205 000 255 205 000 255 205 000 255 205 000 255 205 000 255 205 000 255 205 000 255 205 000 255 205 000 000 151 057 000 151 057 000 151 057 000 151 057 000 151 057 000 151 057 000 151 057 000 151 057 000 151 057 000 151 057 000 151 057 000 151 057 000 151 057 000 151 057 000 151 057 000 151 057 000 151 057 000 151 057 000 151 057 000 151 057 000 151 057 000 151 057 000 151 057 000 151 057 000 151 057 000 151 057 000 151 057 000 151 057 000 151 057 000 151 057 000 151 057 000 151 057 000 151 057 000 151 057 000 151 057 000 151 057 000 151 057 000 151 057 000 151 057 000 151 057 000 151 057 000 151 057 000 151 057 000 151 057 000 151 057 000 151 057 000 151 057 000 151 057 000 151 057 000 151 057 000 151 057 000 151 057 000 151 057 000 151 057 000 151 057 000 151 057 000 151 057 000 151 057 000 151 057 000 151 057 000 151 057 000 151 057 000 151 057 000 151 057 000 151 057 000 151 057 000 151 057 000 151 057 000 151 057 000 151 057 000 151 057 000 151 057 000 151 057 000 151 057 000 151 057 000 151 057 000 151 057 000 151 057 000 151 057 000 151 057 000 151 057 000 151 057 000 151 057 000 151 057 000 151 057 000 151 057 000 151 057 000 151 057 000 151 057 000 151 057 000 151 057 000 151 057 000 151 057 000 151 057 000 151 057 000 151 057 000 151 057 000 151 057 000 151 057 000 151 057 000 151 057 000 151 057 000 151 057 000 151 057 000 151 057 000 151 057 000 151 057 000 151 057 000 151 057 000 151 057 000 151 057 000 151 057 000 151 057 000 151 057 000 151 057 000 151 057 000 151 057 000 151 057 000 151 057 000 151 057 000 151 057 000 151 057 000 151 057 000 151 057 000 151 057 000 151 057 000 151 057 000 151 057 000 151 057 000 151 057 000 151 057 000 151 057 255 205 000 255 205 000 255 205 000 255 205 000 255 205 000 255 205 000 255 205 000 255 205 000 255 205 000 255 205 000 255 205 000 255 205 000 255 205 000 255 205 000 255 205 000 255 205 000 255 205 000 255 205 000 255 205 000 255 205 000 255 205 000 255 205 000 255 205 000 255 205 000 255 205 000 255 205 000 255 205 000 255 205 000 255 205 000 255 205 000 255 205 000 255 205 000 255 205 000 255 205 000 255 205 000 255 205 000 255 205 000 255 205 000 255 205 000 255 205 000 255 205 000 255 205 000 255 205 000 255 205 000 255 205 000 255 205 000 255 205 000 255 205 000 255 205 000 255 205 000 255 205 000 255 205 000 255 205 000 255 205 000 255 205 000 255 205 000 255 205 000 255 205 000 255 205 000 255 205 000 255 205 000 255 205 000 255 205 000 255 205 000 255 205 000 255 205 000 000 151 057 000 151 057 000 151 057 000 151 057 000 151 057 000 151 057 000 151 057 000 151 057 000 151 057 000 151 057 000 151 057 000 151 057 000 151 057 000 151 057 000 151 057 000 151 057 000 151 057 000 151 057 000 151 057 000 151 057 000 151 057 000 151 057 000 151 057 000 151 057 000 151 057 000 151 057 000 151 057 000 151 057 000 151 057 000 151 057 000 151 057 000 151 057 000 151 057 000 151 057 000 151 057 000 151 057 000 151 057 000 151 057 000 151 057 000 151 057 000 151 057 000 151 057 000 151 057 000 151 057 000 151 057 000 151 057 000 151 057 000 151 057 000 151 057 000 151 057 000 151 057 000 151 057 000 151 057 000 151 057 000 151 057 000 151 057 000 151 057 000 151 057 000 151 057 000 151 057 000 151 057 000 151 057 000 151 057 000 151 057 000 151 057 000 151 057 000 151 057 000 151 057 000 151 057 000 151 057 000 151 057 000 151 057 000 151 057 000 151 057 000 151 057 000 151 057 000 151 057 000 151 057 000 151 057 000 151 057 000 151 057 000 151 057 000 151 057 000 151 057 000 151 057 000 151 057 000 151 057 000 151 057 000 151 057 000 151 057 000 151 057 000 151 057 000 151 057 000 151 057 000 151 057 000 151 057 000 151 057 000 151 057 000 151 057 000 151 057 000 151 057 000 151 057 000 151 057 000 151 057 000 151 057 000 151 057 000 151 057 000 151 057 000 151 057 000 151 057 000 151 057 000 151 057 000 151 057 000 151 057 000 151 057 000 151 057 000 151 057 000 151 057 000 151 057 000 151 057 000 151 057 000 151 057 000 151 057 000 151 057 000 151 057 000 151 057 000 151 057 000 151 057 000 151 057 000 151 057 000 151 057 000 151 057 000 151 057 000 151 057 000 151 057 000 151 057 255 205 000 255 205 000 255 205 000 255 205 000 255 205 000 255 205 000 255 205 000 255 205 000 255 205 000 255 205 000 255 205 000 255 205 000 255 205 000 255 205 000 255 205 000 255 205 000 255 205 000 255 205 000 255 205 000 255 205 000 255 205 000 255 205 000 255 205 000 255 205 000 255 205 000 255 205 000 255 205 000 255 205 000 255 205 000 255 205 000 255 205 000 255 205 000 255 205 000 255 205 000 255 205 000 255 205 000 255 205 000 255 205 000 255 205 000 255 205 000 255 205 000 255 205 000 255 205 000 255 205 000 255 205 000 255 205 000 255 205 000 255 205 000 255 205 000 255 205 000 255 205 000 255 205 000 255 205 000 255 205 000 255 205 000 255 205 000 255 205 000 255 205 000 255 205 000 255 205 000 255 205 000 255 205 000 000 151 057 000 151 057 000 151 057 000 151 057 000 151 057 000 151 057 000 151 057 000 151 057 000 151 057 000 151 057 000 151 057 000 151 057 000 151 057 000 151 057 000 151 057 000 151 057 000 151 057 000 151 057 000 151 057 000 151 057 000 151 057 000 151 057 000 151 057 000 151 057 000 151 057 000 151 057 000 151 057 000 151 057 000 151 057 000 151 057 000 151 057 000 151 057 000 151 057 000 151 057 000 151 057 000 151 057 000 151 057 000 151 057 000 151 057 000 151 057 000 151 057 000 151 057 000 151 057 000 151 057 000 151 057 000 151 057 000 151 057 000 151 057 000 151 057 000 151 057 000 151 057 000 151 057 000 151 057 000 151 057 000 151 057 000 151 057 000 151 057 000 151 057 000 151 057 000 151 057 000 151 057 000 151 057 000 151 057 000 151 057 000 151 057 000 151 057 000 151 057 000 151 057 000 151 057 000 151 057 000 151 057 000 151 057 000 151 057 000 151 057 000 151 057 000 151 057 000 151 057 000 151 057 000 151 057 000 151 057 000 151 057 000 151 057 000 151 057 000 151 057 000 151 057 000 151 057 000 151 057 000 151 057 000 151 057 000 151 057 000 151 057 000 151 057 000 151 057 000 151 057 000 151 057 000 151 057 000 151 057 000 151 057 000 151 057 000 151 057 000 151 057 000 151 057 000 151 057 000 151 057 000 151 057 000 151 057 000 151 057 000 151 057 000 151 057 000 151 057 000 151 057 000 151 057 000 151 057 000 151 057 000 151 057 000 151 057 000 151 057 000 151 057 000 151 057 000 151 057 000 151 057 000 151 057 000 151 057 000 151 057 000 151 057 000 151 057 000 151 057 000 151 057 000 151 057 000 151 057 000 151 057 000 151 057 000 151 057 000 151 057 000 151 057 000 151 057 000 151 057 000 151 057 000 151 057 000 151 057 255 205 000 255 205 000 255 205 000 255 205 000 255 205 000 255 205 000 255 205 000 255 205 000 255 205 000 255 205 000 255 205 000 255 205 000 255 205 000 255 205 000 255 205 000 255 205 000 255 205 000 255 205 000 255 205 000 255 205 000 255 205 000 255 205 000 255 205 000 255 205 000 255 205 000 255 205 000 255 205 000 255 205 000 255 205 000 255 205 000 255 205 000 255 205 000 255 205 000 255 205 000 255 205 000 255 205 000 255 205 000 255 205 000 255 205 000 255 205 000 255 205 000 255 205 000 255 205 000 255 205 000 255 205 000 255 205 000 255 205 000 255 205 000 255 205 000 255 205 000 255 205 000 255 205 000 255 205 000 255 205 000 255 205 000 255 205 000 255 205 000 255 205 000 000 151 057 000 151 057 000 151 057 000 151 057 000 151 057 000 151 057 000 151 057 000 151 057 000 151 057 000 151 057 000 151 057 000 151 057 000 151 057 000 151 057 000 151 057 000 151 057 000 151 057 000 151 057 000 151 057 000 151 057 000 151 057 000 151 057 000 151 057 000 151 057 000 151 057 000 151 057 000 151 057 000 151 057 000 151 057 000 151 057 000 151 057 000 151 057 000 151 057 000 151 057 000 151 057 000 151 057 000 151 057 000 151 057 000 151 057 000 151 057 000 151 057 000 151 057 000 151 057 000 151 057 000 151 057 000 151 057 000 151 057 000 151 057 000 151 057 000 151 057 000 151 057 000 151 057 000 151 057 000 151 057 000 151 057 000 151 057 000 151 057 000 151 057 000 151 057 000 151 057 000 151 057 000 151 057 000 151 057 000 151 057 000 151 057 000 151 057 000 151 057 000 151 057 000 151 057 000 151 057 000 151 057 000 151 057 000 151 057 000 151 057 000 151 057 000 151 057 000 151 057 000 151 057 000 151 057 000 151 057 000 151 057 000 151 057 000 151 057 000 151 057 000 151 057 000 151 057 000 151 057 000 151 057 000 151 057 000 151 057 000 151 057 000 151 057 000 151 057 000 151 057 000 151 057 000 151 057 000 151 057 000 151 057 000 151 057 000 151 057 000 151 057 000 151 057 000 151 057 000 151 057 000 151 057 000 151 057 000 151 057 000 151 057 000 151 057 000 151 057 000 151 057 000 151 057 000 151 057 000 151 057 000 151 057 000 151 057 000 151 057 000 151 057 000 151 057 000 151 057 000 151 057 000 151 057 000 151 057 000 151 057 000 151 057 000 151 057 000 151 057 000 151 057 000 151 057 000 151 057 000 151 057 000 151 057 000 151 057 000 151 057 000 151 057 000 151 057 000 151 057 000 151 057 000 151 057 000 151 057 000 151 057 000 151 057 000 151 057 000 151 057 255 205 000 255 205 000 255 205 000 255 205 000 255 205 000 255 205 000 255 205 000 255 205 000 255 205 000 255 205 000 255 205 000 255 205 000 255 205 000 255 205 000 255 205 000 255 205 000 255 205 000 255 205 000 255 205 000 255 205 000 255 205 000 255 205 000 255 205 000 255 205 000 255 205 000 255 205 000 255 205 000 255 205 000 255 205 000 255 205 000 255 205 000 255 205 000 255 205 000 255 205 000 255 205 000 255 205 000 255 205 000 255 205 000 255 205 000 255 205 000 255 205 000 255 205 000 255 205 000 255 205 000 255 205 000 255 205 000 255 205 000 255 205 000 255 205 000 255 205 000 255 205 000 255 205 000 255 205 000 255 205 000 000 151 057 000 151 057 000 151 057 000 151 057 000 151 057 000 151 057 000 151 057 000 151 057 000 151 057 000 151 057 000 151 057 000 151 057 000 151 057 000 151 057 000 151 057 000 151 057 000 151 057 000 151 057 000 151 057 000 151 057 000 151 057 000 151 057 000 151 057 000 151 057 000 151 057 000 151 057 000 151 057 000 151 057 000 151 057 000 151 057 000 151 057 000 151 057 000 151 057 000 151 057 000 151 057 000 151 057 000 151 057 000 151 057 000 151 057 000 151 057 000 151 057 000 151 057 000 151 057 000 151 057 000 151 057 000 151 057 000 151 057 000 151 057 000 151 057 000 151 057 000 151 057 000 151 057 000 151 057 000 151 057 000 151 057 000 151 057 000 151 057 000 151 057 000 151 057 000 151 057 000 151 057 000 151 057 000 151 057 000 151 057 000 151 057 000 151 057 000 151 057 000 151 057 000 151 057 000 151 057 000 151 057 000 151 057 000 151 057 000 151 057 000 151 057 000 151 057 000 151 057 000 151 057 000 151 057 000 151 057 000 151 057 000 151 057 000 151 057 000 151 057 000 151 057 000 151 057 000 151 057 000 151 057 000 151 057 000 151 057 000 151 057 000 151 057 000 151 057 000 151 057 000 151 057 000 151 057 000 151 057 000 151 057 000 151 057 000 151 057 000 151 057 000 151 057 000 151 057 000 151 057 000 151 057 000 151 057 000 151 057 000 151 057 000 151 057 000 151 057 000 151 057 000 151 057 000 151 057 000 151 057 000 151 057 000 151 057 000 151 057 000 151 057 000 151 057 000 151 057 000 151 057 000 151 057 000 151 057 000 151 057 000 151 057 000 151 057 000 151 057 000 151 057 000 151 057 000 151 057 000 151 057 000 151 057 000 151 057 000 151 057 000 151 057 000 151 057 000 151 057 000 151 057 000 151 057 000 151 057 000 151 057 000 151 057 000 151 057 000 151 057 000 151 057 000 151 057 000 151 057 000 151 057 255 205 000 255 205 000 255 205 000 255 205 000 255 205 000 255 205 000 255 205 000 255 205 000 255 205 000 255 205 000 255 205 000 255 205 000 255 205 000 255 205 000 255 205 000 255 205 000 255 205 000 255 205 000 255 205 000 255 205 000 255 205 000 255 205 000 255 205 000 255 205 000 255 205 000 255 205 000 255 205 000 255 205 000 255 205 000 255 205 000 255 205 000 255 205 000 255 205 000 255 205 000 255 205 000 255 205 000 255 205 000 255 205 000 255 205 000 255 205 000 255 205 000 255 205 000 255 205 000 255 205 000 255 205 000 255 205 000 255 205 000 255 205 000 255 205 000 255 205 000 000 151 057 000 151 057 000 151 057 000 151 057 000 151 057 000 151 057 000 151 057 000 151 057 000 151 057 000 151 057 000 151 057 000 151 057 000 151 057 000 151 057 000 151 057 000 151 057 000 151 057 000 151 057 000 151 057 000 151 057 000 151 057 000 151 057 000 151 057 000 151 057 000 151 057 000 151 057 000 151 057 000 151 057 000 151 057 000 151 057 000 151 057 000 151 057 000 151 057 000 151 057 000 151 057 000 151 057 000 151 057 000 151 057 000 151 057 000 151 057 000 151 057 000 151 057 000 151 057 000 151 057 000 151 057 000 151 057 000 151 057 000 151 057 000 151 057 000 151 057 000 151 057 000 151 057 000 151 057 000 151 057 000 151 057 000 151 057 000 151 057 000 151 057 000 151 057 000 151 057 000 151 057 000 151 057 000 151 057 000 151 057 000 151 057 000 151 057 000 151 057 000 151 057 000 151 057 000 151 057 000 151 057 000 151 057 000 151 057 000 151 057 000 151 057 000 151 057 000 151 057 000 151 057 000 151 057 000 151 057 000 151 057 000 151 057 000 151 057 000 151 057 000 151 057 000 151 057 000 151 057 000 151 057 000 151 057 000 151 057 000 151 057 000 151 057 000 151 057 000 151 057 000 151 057 000 151 057 000 151 057 000 151 057 000 151 057 000 151 057 000 151 057 000 151 057 000 151 057 000 151 057 000 151 057 000 151 057 000 151 057 000 151 057 000 151 057 000 151 057 000 151 057 000 151 057 000 151 057 000 151 057 000 151 057 000 151 057 000 151 057 000 151 057 000 151 057 000 151 057 000 151 057 000 151 057 000 151 057 000 151 057 000 151 057 000 151 057 000 151 057 000 151 057 000 151 057 000 151 057 000 151 057 000 151 057 000 151 057 000 151 057 000 151 057 000 151 057 000 151 057 000 151 057 000 151 057 000 151 057 000 151 057 000 151 057 000 151 057 000 151 057 000 151 057 000 151 057 000 151 057 000 151 057 000 151 057 000 151 057 000 151 057 000 151 057 255 205 000 255 205 000 255 205 000 255 205 000 255 205 000 255 205 000 255 205 000 255 205 000 255 205 000 255 205 000 255 205 000 255 205 000 255 205 000 255 205 000 255 205 000 255 205 000 255 205 000 255 205 000 255 205 000 255 205 000 255 205 000 255 205 000 255 205 000 255 205 000 255 205 000 255 205 000 255 205 000 255 205 000 255 205 000 255 205 000 255 205 000 255 205 000 255 205 000 255 205 000 255 205 000 255 205 000 255 205 000 255 205 000 255 205 000 255 205 000 255 205 000 255 205 000 255 205 000 255 205 000 255 205 000 255 205 000 000 151 057 000 151 057 000 151 057 000 151 057 000 151 057 000 151 057 000 151 057 000 151 057 000 151 057 000 151 057 000 151 057 000 151 057 000 151 057 000 151 057 000 151 057 000 151 057 000 151 057 000 151 057 000 151 057 000 151 057 000 151 057 000 151 057 000 151 057 000 151 057 000 151 057 000 151 057 000 151 057 000 151 057 000 151 057 000 151 057 000 151 057 000 151 057 000 151 057 000 151 057 000 151 057 000 151 057 000 151 057 000 151 057 000 151 057 000 151 057 000 151 057 000 151 057 000 151 057 000 151 057 000 151 057 000 151 057 000 151 057 000 151 057 000 151 057 000 151 057 000 151 057 000 151 057 000 151 057 000 151 057 000 151 057 000 151 057 000 151 057 000 151 057 000 151 057 000 151 057 000 151 057 000 151 057 000 151 057 000 151 057 000 151 057 000 151 057 000 151 057 000 151 057 000 151 057 000 151 057 000 151 057 000 151 057 000 151 057 000 151 057 000 151 057 000 151 057 000 151 057 000 151 057 000 151 057 000 151 057 000 151 057 000 151 057 000 151 057 000 151 057 000 151 057 000 151 057 000 151 057 000 151 057 000 151 057 000 151 057 000 151 057 000 151 057 000 151 057 000 151 057 000 151 057 000 151 057 000 151 057 000 151 057 000 151 057 000 151 057 000 151 057 000 151 057 000 151 057 000 151 057 000 151 057 000 151 057 000 151 057 000 151 057 000 151 057 000 151 057 000 151 057 000 151 057 000 151 057 000 151 057 000 151 057 000 151 057 000 151 057 000 151 057 000 151 057 000 151 057 000 151 057 000 151 057 000 151 057 000 151 057 000 151 057 000 151 057 000 151 057 000 151 057 000 151 057 000 151 057 000 151 057 000 151 057 000 151 057 000 151 057 000 151 057 000 151 057 000 151 057 000 151 057 000 151 057 000 151 057 000 151 057 000 151 057 000 151 057 000 151 057 000 151 057 000 151 057 000 151 057 000 151 057 000 151 057 000 151 057 000 151 057 000 151 057 000 151 057 000 151 057 000 151 057 000 151 057 255 205 000 255 205 000 255 205 000 255 205 000 255 205 000 255 205 000 255 205 000 255 205 000 255 205 000 255 205 000 255 205 000 255 205 000 255 205 000 255 205 000 255 205 000 255 205 000 255 205 000 255 205 000 255 205 000 255 205 000 255 205 000 255 205 000 255 205 000 255 205 000 255 205 000 255 205 000 255 205 000 255 205 000 255 205 000 255 205 000 255 205 000 255 205 000 255 205 000 255 205 000 255 205 000 255 205 000 255 205 000 255 205 000 255 205 000 255 205 000 255 205 000 255 205 000 000 151 057 000 151 057 000 151 057 000 151 057 000 151 057 000 151 057 000 151 057 000 151 057 000 151 057 000 151 057 000 151 057 000 151 057 000 151 057 000 151 057 000 151 057 000 151 057 000 151 057 000 151 057 000 151 057 000 151 057 000 151 057 000 151 057 000 151 057 000 151 057 000 151 057 000 151 057 000 151 057 000 151 057 000 151 057 000 151 057 000 151 057 000 151 057 000 151 057 000 151 057 000 151 057 000 151 057 000 151 057 000 151 057 000 151 057 000 151 057 000 151 057 000 151 057 000 151 057 000 151 057 000 151 057 000 151 057 000 151 057 000 151 057 000 151 057 000 151 057 000 151 057 000 151 057 000 151 057 000 151 057 000 151 057 000 151 057 000 151 057 000 151 057 000 151 057 000 151 057 000 151 057 000 151 057 000 151 057 000 151 057 000 151 057 000 151 057 000 151 057 000 151 057 000 151 057 000 151 057 000 151 057 000 151 057 000 151 057 000 151 057 000 151 057 000 151 057 000 151 057 000 151 057 000 151 057 000 151 057 000 151 057 000 151 057 000 151 057 000 151 057 000 151 057 000 151 057 000 151 057 000 151 057 000 151 057 000 151 057 000 151 057 000 151 057 000 151 057 000 151 057 000 151 057 000 151 057 000 151 057 000 151 057 000 151 057 000 151 057 000 151 057 000 151 057 000 151 057 000 151 057 000 151 057 000 151 057 000 151 057 000 151 057 000 151 057 000 151 057 000 151 057 000 151 057 000 151 057 000 151 057 000 151 057 000 151 057 000 151 057 000 151 057 000 151 057 000 151 057 000 151 057 000 151 057 000 151 057 000 151 057 000 151 057 000 151 057 000 151 057 000 151 057 000 151 057 000 151 057 000 151 057 000 151 057 000 151 057 000 151 057 000 151 057 000 151 057 000 151 057 000 151 057 000 151 057 000 151 057 000 151 057 000 151 057 000 151 057 000 151 057 000 151 057 000 151 057 000 151 057 000 151 057 000 151 057 000 151 057 000 151 057 000 151 057 000 151 057 000 151 057 000 151 057 000 151 057 000 151 057 000 151 057 000 151 057 000 151 057 255 205 000 255 205 000 255 205 000 255 205 000 255 205 000 255 205 000 255 205 000 255 205 000 255 205 000 255 205 000 255 205 000 255 205 000 255 205 000 255 205 000 255 205 000 255 205 000 255 205 000 255 205 000 255 205 000 255 205 000 