P3
200 200
255
123 200 40 123 200 40 123 200 40 123 200 40 123 200 40 123 200 40 123 200 40 123 200 40 123 200 40 123 200 40 123 200 40 123 200 40 123 200 40 123 200 40 123 200 40 123 200 40 123 200 40 123 200 40 123 200 40 123 200 40 123 200 40 123 200 40 123 200 40 123 200 40 123 200 40 123 200 40 123 200 40 123 200 40 123 200 40 123 200 40 123 200 40 123 200 40 123 200 40 123 200 40 123 200 40 123 200 40 123 200 40 123 200 40 123 200 40 123 200 40 123 200 40 123 200 40 123 200 40 123 200 40 123 200 40 123 200 40 123 200 40 123 200 40 123 200 40 123 200 40 123 200 40 123 200 40 123 200 40 123 200 40 123 200 40 123 200 40 123 200 40 123 200 40 123 200 40 123 200 40 123 200 40 123 200 40 123 200 40 123 200 40 123 200 40 123 200 40 123 200 40 123 200 40 123 200 40 123 200 40 123 200 40 123 200 40 123 200 40 123 200 40 123 200 40 123 200 40 123 200 40 123 200 40 123 200 40 123 200 40 123 200 40 123 200 40 123 200 40 123 200 40 123 200 40 123 200 40 123 200 40 123 200 40 123 200 40 123 200 40 123 200 40 123 200 40 123 200 40 123 200 40 123 200 40 123 200 40 123 200 40 123 200 40 123 200 40 123 200 40 123 200 40 123 200 40 123 200 40 123 200 40 123 200 40 123 200 40 123 200 40 123 200 40 123 200 40 123 200 40 123 200 40 123 200 40 123 200 40 123 200 40 123 200 40 123 200 40 123 200 40 123 200 40 123 200 40 123 200 40 123 200 40 123 200 40 123 200 40 123 200 40 123 200 40 123 200 40 123 200 40 123 200 40 123 200 40 123 200 40 123 200 40 123 200 40 123 200 40 123 200 40 123 200 40 123 200 40 123 200 40 123 200 40 123 200 40 123 200 40 123 200 40 123 200 40 123 200 40 123 200 40 123 200 40 123 200 40 123 200 40 123 200 40 123 200 40 123 200 40 123 200 40 123 200 40 123 200 40 123 200 40 123 200 40 123 200 40 123 200 40 123 200 40 123 200 40 123 200 40 123 200 40 123 200 40 123 200 40 123 200 40 123 200 40 123 200 40 123 200 40 123 200 40 123 200 40 123 200 40 123 200 40 123 200 40 123 200 40 123 200 40 123 200 40 123 200 40 123 200 40 123 200 40 123 200 40 123 200 40 123 200 40 123 200 40 123 200 40 123 200 40 123 200 40 123 200 40 123 200 40 123 200 40 123 200 40 123 200 40 123 200 40 123 200 40 123 200 40 123 200 40 123 200 40 123 200 40 123 200 40 123 200 40 123 200 40 123 200 40 46 60 50 46 60 50 46 60 50 46 60 50 46 60 50 46 60 50 46 60 50 46 60 50 46 60 50 46 60 50 46 60 50 46 60 50 46 60 50 46 60 50 46 60 50 46 60 50 46 60 50 46 60 50 46 60 50 46 60 50 46 60 50 46 60 50 46 60 50 46 60 50 46 60 50 46 60 50 46 60 50 46 60 50 46 60 50 46 60 50 46 60 50 46 60 50 46 60 50 46 60 50 46 60 50 46 60 50 46 60 50 46 60 50 46 60 50 46 60 50 46 60 50 46 60 50 46 60 50 46 60 50 46 60 50 46 60 50 46 60 50 46 60 50 46 60 50 46 60 50 46 60 50 46 60 50 46 60 50 46 60 50 46 60 50 46 60 50 46 60 50 46 60 50 46 60 50 46 60 50 46 60 50 46 60 50 46 60 50 46 60 50 46 60 50 46 60 50 46 60 50 46 60 50 46 60 50 46 60 50 46 60 50 46 60 50 46 60 50 46 60 50 46 60 50 46 60 50 46 60 50 46 60 50 46 60 50 46 60 50 46 60 50 46 60 50 46 60 50 46 60 50 46 60 50 46 60 50 46 60 50 46 60 50 46 60 50 46 60 50 46 60 50 46 60 50 46 60 50 46 60 50 46 60 50 46 60 50 46 60 50 46 60 50 46 60 50 46 60 50 46 60 50 46 60 50 46 60 50 46 60 50 46 60 50 46 60 50 46 60 50 46 60 50 46 60 50 46 60 50 46 60 50 46 60 50 46 60 50 46 60 50 46 60 50 46 60 50 46 60 50 46 60 50 46 60 50 46 60 50 46 60 50 46 60 50 46 60 50 46 60 50 46 60 50 46 60 50 46 60 50 46 60 50 46 60 50 46 60 50 46 60 50 46 60 50 46 60 50 46 60 50 46 60 50 46 60 50 46 60 50 46 60 50 46 60 50 46 60 50 46 60 50 46 60 50 46 60 50 46 60 50 46 60 50 46 60 50 46 60 50 46 60 50 46 60 50 46 60 50 46 60 50 46 60 50 46 60 50 46 60 50 46 60 50 46 60 50 46 60 50 46 60 50 46 60 50 46 60 50 46 60 50 46 60 50 46 60 50 46 60 50 46 60 50 46 60 50 46 60 50 46 60 50 46 60 50 46 60 50 46 60 50 46 60 50 46 60 50 46 60 50 46 60 50 46 60 50 46 60 50 46 60 50 46 60 50 46 60 50 46 60 50 46 60 50 46 60 50 46 60 50 46 60 50 46 60 50 46 60 50 46 60 50 46 60 50 46 60 50 46 60 50 46 60 50 46 60 50 46 60 50 46 60 50 46 60 50 46 60 50 46 60 50 46 60 50 46 60 50 123 200 40 123 200 40 123 200 40 123 200 40 123 200 40 123 200 40 123 200 40 123 200 40 123 200 40 123 200 40 123 200 40 123 200 40 123 200 40 123 200 40 123 200 40 123 200 40 123 200 40 123 200 40 123 200 40 123 200 40 123 200 40 123 200 40 123 200 40 123 200 40 123 200 40 123 200 40 123 200 40 123 200 40 123 200 40 123 200 40 123 200 40 123 200 40 123 200 40 123 200 40 123 200 40 123 200 40 123 200 40 123 200 40 123 200 40 123 200 40 123 200 40 123 200 40 123 200 40 123 200 40 123 200 40 123 200 40 123 200 40 123 200 40 123 200 40 123 200 40 123 200 40 123 200 40 123 200 40 123 200 40 123 200 40 123 200 40 123 200 40 123 200 40 123 200 40 123 200 40 123 200 40 123 200 40 123 200 40 123 200 40 123 200 40 123 200 40 123 200 40 123 200 40 123 200 40 123 200 40 123 200 40 123 200 40 123 200 40 123 200 40 123 200 40 123 200 40 123 200 40 123 200 40 123 200 40 123 200 40 123 200 40 123 200 40 123 200 40 123 200 40 123 200 40 123 200 40 123 200 40 123 200 40 123 200 40 123 200 40 123 200 40 123 200 40 123 200 40 123 200 40 123 200 40 123 200 40 123 200 40 123 200 40 123 200 40 123 200 40 123 200 40 123 200 40 123 200 40 123 200 40 123 200 40 123 200 40 123 200 40 123 200 40 123 200 40 123 200 40 123 200 40 123 200 40 123 200 40 123 200 40 123 200 40 123 200 40 123 200 40 123 200 40 123 200 40 123 200 40 123 200 40 123 200 40 123 200 40 123 200 40 123 200 40 123 200 40 123 200 40 123 200 40 123 200 40 123 200 40 123 200 40 123 200 40 123 200 40 123 200 40 123 200 40 123 200 40 123 200 40 123 200 40 123 200 40 123 200 40 123 200 40 123 200 40 123 200 40 123 200 40 123 200 40 123 200 40 123 200 40 123 200 40 123 200 40 123 200 40 123 200 40 123 200 40 123 200 40 123 200 40 123 200 40 123 200 40 123 200 40 123 200 40 123 200 40 123 200 40 123 200 40 123 200 40 123 200 40 123 200 40 123 200 40 123 200 40 123 200 40 123 200 40 123 200 40 123 200 40 123 200 40 123 200 40 123 200 40 123 200 40 123 200 40 123 200 40 123 200 40 123 200 40 123 200 40 123 200 40 123 200 40 123 200 40 123 200 40 123 200 40 123 200 40 123 200 40 123 200 40 123 200 40 123 200 40 123 200 40 123 200 40 123 200 40 123 200 40 123 200 40 123 200 40 123 200 40 123 200 40 123 200 40 123 200 40 123 200 40 44 64 154 44 64 154 44 64 154 44 64 154 44 64 154 44 64 154 44 64 154 44 64 154 44 64 154 44 64 154 44 64 154 44 64 154 44 64 154 44 64 154 44 64 154 44 64 154 44 64 154 44 64 154 44 64 154 44 64 154 44 64 154 44 64 154 44 64 154 44 64 154 44 64 154 44 64 154 44 64 154 44 64 154 44 64 154 44 64 154 44 64 154 44 64 154 44 64 154 44 64 154 44 64 154 44 64 154 44 64 154 44 64 154 44 64 154 44 64 154 44 64 154 44 64 154 44 64 154 44 64 154 44 64 154 44 64 154 44 64 154 44 64 154 44 64 154 44 64 154 44 64 154 44 64 154 44 64 154 44 64 154 44 64 154 44 64 154 44 64 154 44 64 154 44 64 154 44 64 154 44 64 154 44 64 154 44 64 154 44 64 154 44 64 154 44 64 154 44 64 154 44 64 154 44 64 154 44 64 154 44 64 154 44 64 154 44 64 154 44 64 154 44 64 154 44 64 154 44 64 154 44 64 154 44 64 154 44 64 154 44 64 154 44 64 154 44 64 154 44 64 154 44 64 154 44 64 154 44 64 154 44 64 154 44 64 154 44 64 154 44 64 154 44 64 154 44 64 154 44 64 154 44 64 154 44 64 154 44 64 154 44 64 154 44 64 154 44 64 154 44 64 154 44 64 154 44 64 154 44 64 154 44 64 154 44 64 154 44 64 154 44 64 154 44 64 154 44 64 154 44 64 154 44 64 154 44 64 154 44 64 154 44 64 154 44 64 154 44 64 154 44 64 154 44 64 154 44 64 154 44 64 154 44 64 154 44 64 154 44 64 154 44 64 154 44 64 154 44 64 154 44 64 154 44 64 154 44 64 154 44 64 154 44 64 154 44 64 154 44 64 154 44 64 154 44 64 154 44 64 154 44 64 154 44 64 154 44 64 154 44 64 154 44 64 154 44 64 154 44 64 154 44 64 154 44 64 154 44 64 154 44 64 154 44 64 154 44 64 154 44 64 154 44 64 154 44 64 154 44 64 154 44 64 154 44 64 154 44 64 154 44 64 154 44 64 154 44 64 154 44 64 154 44 64 154 44 64 154 44 64 154 44 64 154 44 64 154 44 64 154 44 64 154 44 64 154 44 64 154 44 64 154 44 64 154 44 64 154 44 64 154 44 64 154 44 64 154 44 64 154 44 64 154 44 64 154 44 64 154 44 64 154 44 64 154 44 64 154 44 64 154 44 64 154 44 64 154 44 64 154 44 64 154 44 64 154 44 64 154 44 64 154 44 64 154 44 64 154 44 64 154 44 64 154 44 64 154 44 64 154 44 64 154 44 64 154 44 64 154 123 200 40 123 200 40 123 200 40 123 200 40 123 200 40 123 200 40 123 200 40 123 200 40 123 200 40 123 200 40 123 200 40 123 200 40 123 200 40 123 200 40 123 200 40 123 200 40 123 200 40 123 200 40 123 200 40 123 200 40 123 200 40 123 200 40 123 200 40 123 200 40 123 200 40 123 200 40 123 200 40 123 200 40 123 200 40 123 200 40 123 200 40 123 200 40 123 200 40 123 200 40 123 200 40 123 200 40 123 200 40 123 200 40 123 200 40 123 200 40 123 200 40 123 200 40 123 200 40 123 200 40 123 200 40 123 200 40 123 200 40 123 200 40 123 200 40 123 200 40 123 200 40 123 200 40 123 200 40 123 200 40 123 200 40 123 200 40 123 200 40 123 200 40 123 200 40 123 200 40 123 200 40 123 200 40 123 200 40 123 200 40 123 200 40 123 200 40 123 200 40 123 200 40 123 200 40 123 200 40 123 200 40 123 200 40 123 200 40 123 200 40 123 200 40 123 200 40 123 200 40 123 200 40 123 200 40 123 200 40 123 200 40 123 200 40 123 200 40 123 200 40 123 200 40 123 200 40 123 200 40 123 200 40 123 200 40 123 200 40 123 200 40 123 200 40 123 200 40 123 200 40 123 200 40 123 200 40 123 200 40 123 200 40 123 200 40 123 200 40 123 200 40 123 200 40 123 200 40 123 200 40 123 200 40 123 200 40 123 200 40 123 200 40 123 200 40 123 200 40 123 200 40 123 200 40 123 200 40 123 200 40 123 200 40 123 200 40 123 200 40 123 200 40 123 200 40 123 200 40 123 200 40 123 200 40 123 200 40 123 200 40 123 200 40 123 200 40 123 200 40 123 200 40 123 200 40 123 200 40 123 200 40 123 200 40 123 200 40 123 200 40 123 200 40 123 200 40 123 200 40 123 200 40 123 200 40 123 200 40 123 200 40 123 200 40 123 200 40 123 200 40 123 200 40 123 200 40 123 200 40 123 200 40 123 200 40 123 200 40 123 200 40 123 200 40 123 200 40 123 200 40 123 200 40 123 200 40 123 200 40 123 200 40 123 200 40 123 200 40 123 200 40 123 200 40 123 200 40 123 200 40 123 200 40 123 200 40 123 200 40 123 200 40 123 200 40 123 200 40 123 200 40 123 200 40 123 200 40 123 200 40 123 200 40 123 200 40 123 200 40 123 200 40 123 200 40 123 200 40 123 200 40 123 200 40 123 200 40 123 200 40 123 200 40 123 200 40 123 200 40 123 200 40 123 200 40 123 200 40 123 200 40 123 200 40 123 200 40 123 200 40 123 200 40 123 200 40 123 200 40 123 200 40 123 200 40 123 200 40 51 24 246 51 24 246 51 24 246 51 24 246 51 24 246 51 24 246 51 24 246 51 24 246 51 24 246 51 24 246 51 24 246 51 24 246 51 24 246 51 24 246 51 24 246 51 24 246 51 24 246 51 24 246 51 24 246 51 24 246 51 24 246 51 24 246 51 24 246 51 24 246 51 24 246 51 24 246 51 24 246 51 24 246 51 24 246 51 24 246 51 24 246 51 24 246 51 24 246 51 24 246 51 24 246 51 24 246 51 24 246 51 24 246 51 24 246 51 24 246 51 24 246 51 24 246 51 24 246 51 24 246 51 24 246 51 24 246 51 24 246 51 24 246 51 24 246 51 24 246 51 24 246 51 24 246 51 24 246 51 24 246 51 24 246 51 24 246 51 24 246 51 24 246 51 24 246 51 24 246 51 24 246 51 24 246 51 24 246 51 24 246 51 24 246 51 24 246 51 24 246 51 24 246 51 24 246 51 24 246 51 24 246 51 24 246 51 24 246 51 24 246 51 24 246 51 24 246 51 24 246 51 24 246 51 24 246 51 24 246 51 24 246 51 24 246 51 24 246 51 24 246 51 24 246 51 24 246 51 24 246 51 24 246 51 24 246 51 24 246 51 24 246 51 24 246 51 24 246 51 24 246 51 24 246 51 24 246 51 24 246 51 24 246 51 24 246 51 24 246 51 24 246 51 24 246 51 24 246 51 24 246 51 24 246 51 24 246 51 24 246 51 24 246 51 24 246 51 24 246 51 24 246 51 24 246 51 24 246 51 24 246 51 24 246 51 24 246 51 24 246 51 24 246 51 24 246 51 24 246 51 24 246 51 24 246 51 24 246 51 24 246 51 24 246 51 24 246 51 24 246 51 24 246 51 24 246 51 24 246 51 24 246 51 24 246 51 24 246 51 24 246 51 24 246 51 24 246 51 24 246 51 24 246 51 24 246 51 24 246 51 24 246 51 24 246 51 24 246 51 24 246 51 24 246 51 24 246 51 24 246 51 24 246 51 24 246 51 24 246 51 24 246 51 24 246 51 24 246 51 24 246 51 24 246 51 24 246 51 24 246 51 24 246 51 24 246 51 24 246 51 24 246 51 24 246 51 24 246 51 24 246 51 24 246 51 24 246 51 24 246 51 24 246 51 24 246 51 24 246 51 24 246 51 24 246 51 24 246 51 24 246 51 24 246 51 24 246 51 24 246 51 24 246 51 24 246 51 24 246 51 24 246 51 24 246 51 24 246 51 24 246 51 24 246 51 24 246 51 24 246 51 24 246 51 24 246 51 24 246 51 24 246 51 24 246 51 24 246 51 24 246 51 24 246 51 24 246 51 24 246 51 24 246 51 24 246 51 24 246 123 200 40 123 200 40 123 200 40 123 200 40 123 200 40 123 200 40 123 200 40 123 200 40 123 200 40 123 200 40 123 200 40 123 200 40 123 200 40 123 200 40 123 200 40 123 200 40 123 200 40 123 200 40 123 200 40 123 200 40 123 200 40 123 200 40 123 200 40 123 200 40 123 200 40 123 200 40 123 200 40 123 200 40 123 200 40 123 200 40 123 200 40 123 200 40 123 200 40 123 200 40 123 200 40 123 200 40 123 200 40 123 200 40 123 200 40 123 200 40 123 200 40 123 200 40 123 200 40 123 200 40 123 200 40 123 200 40 123 200 40 123 200 40 123 200 40 123 200 40 123 200 40 123 200 40 123 200 40 123 200 40 123 200 40 123 200 40 123 200 40 123 200 40 123 200 40 123 200 40 123 200 40 123 200 40 123 200 40 123 200 40 123 200 40 123 200 40 123 200 40 123 200 40 123 200 40 123 200 40 123 200 40 123 200 40 123 200 40 123 200 40 123 200 40 123 200 40 123 200 40 123 200 40 123 200 40 123 200 40 123 200 40 123 200 40 123 200 40 123 200 40 123 200 40 123 200 40 123 200 40 123 200 40 123 200 40 123 200 40 123 200 40 123 200 40 123 200 40 123 200 40 123 200 40 123 200 40 123 200 40 123 200 40 123 200 40 123 200 40 123 200 40 123 200 40 123 200 40 123 200 40 123 200 40 123 200 40 123 200 40 123 200 40 123 200 40 123 200 40 123 200 40 123 200 40 123 200 40 123 200 40 123 200 40 123 200 40 123 200 40 123 200 40 123 200 40 123 200 40 123 200 40 123 200 40 123 200 40 123 200 40 123 200 40 123 200 40 123 200 40 123 200 40 123 200 40 123 200 40 123 200 40 123 200 40 123 200 40 123 200 40 123 200 40 123 200 40 123 200 40 123 200 40 123 200 40 123 200 40 123 200 40 123 200 40 123 200 40 123 200 40 123 200 40 123 200 40 123 200 40 123 200 40 123 200 40 123 200 40 123 200 40 123 200 40 123 200 40 123 200 40 123 200 40 123 200 40 123 200 40 123 200 40 123 200 40 123 200 40 123 200 40 123 200 40 123 200 40 123 200 40 123 200 40 123 200 40 123 200 40 123 200 40 123 200 40 123 200 40 123 200 40 123 200 40 123 200 40 123 200 40 123 200 40 123 200 40 123 200 40 123 200 40 123 200 40 123 200 40 123 200 40 123 200 40 123 200 40 123 200 40 123 200 40 123 200 40 123 200 40 123 200 40 123 200 40 123 200 40 123 200 40 123 200 40 123 200 40 123 200 40 123 200 40 123 200 40 123 200 40 123 200 40 123 200 40 123 200 40 158 209 52 158 209 52 158 209 52 158 209 52 158 209 52 158 209 52 158 209 52 158 209 52 158 209 52 158 209 52 158 209 52 158 209 52 158 209 52 158 209 52 158 209 52 158 209 52 158 209 52 158 209 52 158 209 52 158 209 52 158 209 52 158 209 52 158 209 52 158 209 52 158 209 52 158 209 52 158 209 52 158 209 52 158 209 52 158 209 52 158 209 52 158 209 52 158 209 52 158 209 52 158 209 52 158 209 52 158 209 52 158 209 52 158 209 52 158 209 52 158 209 52 158 209 52 158 209 52 158 209 52 158 209 52 158 209 52 158 209 52 158 209 52 158 209 52 158 209 52 158 209 52 158 209 52 158 209 52 158 209 52 158 209 52 158 209 52 158 209 52 158 209 52 158 209 52 158 209 52 158 209 52 158 209 52 158 209 52 158 209 52 158 209 52 158 209 52 158 209 52 158 209 52 158 209 52 158 209 52 158 209 52 158 209 52 158 209 52 158 209 52 158 209 52 158 209 52 158 209 52 158 209 52 158 209 52 158 209 52 158 209 52 158 209 52 158 209 52 158 209 52 158 209 52 158 209 52 158 209 52 158 209 52 158 209 52 158 209 52 158 209 52 158 209 52 158 209 52 158 209 52 158 209 52 158 209 52 158 209 52 158 209 52 158 209 52 158 209 52 158 209 52 158 209 52 158 209 52 158 209 52 158 209 52 158 209 52 158 209 52 158 209 52 158 209 52 158 209 52 158 209 52 158 209 52 158 209 52 158 209 52 158 209 52 158 209 52 158 209 52 158 209 52 158 209 52 158 209 52 158 209 52 158 209 52 158 209 52 158 209 52 158 209 52 158 209 52 158 209 52 158 209 52 158 209 52 158 209 52 158 209 52 158 209 52 158 209 52 158 209 52 158 209 52 158 209 52 158 209 52 158 209 52 158 209 52 158 209 52 158 209 52 158 209 52 158 209 52 158 209 52 158 209 52 158 209 52 158 209 52 158 209 52 158 209 52 158 209 52 158 209 52 158 209 52 158 209 52 158 209 52 158 209 52 158 209 52 158 209 52 158 209 52 158 209 52 158 209 52 158 209 52 158 209 52 158 209 52 158 209 52 158 209 52 158 209 52 158 209 52 158 209 52 158 209 52 158 209 52 158 209 52 158 209 52 158 209 52 158 209 52 158 209 52 158 209 52 158 209 52 158 209 52 158 209 52 158 209 52 158 209 52 158 209 52 158 209 52 158 209 52 158 209 52 158 209 52 158 209 52 158 209 52 158 209 52 158 209 52 158 209 52 158 209 52 158 209 52 158 209 52 158 209 52 158 209 52 158 209 52 158 209 52 158 209 52 158 209 52 123 200 40 123 200 40 123 200 40 123 200 40 123 200 40 123 200 40 123 200 40 123 200 40 123 200 40 123 200 40 123 200 40 123 200 40 123 200 40 123 200 40 123 200 40 123 200 40 123 200 40 123 200 40 123 200 40 123 200 40 123 200 40 123 200 40 123 200 40 123 200 40 123 200 40 123 200 40 123 200 40 123 200 40 123 200 40 123 200 40 123 200 40 123 200 40 123 200 40 123 200 40 123 200 40 123 200 40 123 200 40 123 200 40 123 200 40 123 200 40 123 200 40 123 200 40 123 200 40 123 200 40 123 200 40 123 200 40 123 200 40 123 200 40 123 200 40 123 200 40 123 200 40 123 200 40 123 200 40 123 200 40 123 200 40 123 200 40 123 200 40 123 200 40 123 200 40 123 200 40 123 200 40 123 200 40 123 200 40 123 200 40 123 200 40 123 200 40 123 200 40 123 200 40 123 200 40 123 200 40 123 200 40 123 200 40 123 200 40 123 200 40 123 200 40 123 200 40 123 200 40 123 200 40 123 200 40 123 200 40 123 200 40 123 200 40 123 200 40 123 200 40 123 200 40 123 200 40 123 200 40 123 200 40 123 200 40 123 200 40 123 200 40 123 200 40 123 200 40 123 200 40 123 200 40 123 200 40 123 200 40 123 200 40 123 200 40 123 200 40 123 200 40 123 200 40 123 200 40 123 200 40 123 200 40 123 200 40 123 200 40 123 200 40 123 200 40 123 200 40 123 200 40 123 200 40 123 200 40 123 200 40 123 200 40 123 200 40 123 200 40 123 200 40 123 200 40 123 200 40 123 200 40 123 200 40 123 200 40 123 200 40 123 200 40 123 200 40 123 200 40 123 200 40 123 200 40 123 200 40 123 200 40 123 200 40 123 200 40 123 200 40 123 200 40 123 200 40 123 200 40 123 200 40 123 200 40 123 200 40 123 200 40 123 200 40 123 200 40 123 200 40 123 200 40 123 200 40 123 200 40 123 200 40 123 200 40 123 200 40 123 200 40 123 200 40 123 200 40 123 200 40 123 200 40 123 200 40 123 200 40 123 200 40 123 200 40 123 200 40 123 200 40 123 200 40 123 200 40 123 200 40 123 200 40 123 200 40 123 200 40 123 200 40 123 200 40 123 200 40 123 200 40 123 200 40 123 200 40 123 200 40 123 200 40 123 200 40 123 200 40 123 200 40 123 200 40 123 200 40 123 200 40 123 200 40 123 200 40 123 200 40 123 200 40 123 200 40 123 200 40 123 200 40 123 200 40 123 200 40 123 200 40 123 200 40 123 200 40 123 200 40 123 200 40 123 200 40 123 200 40 123 200 40 123 200 40 123 200 40 141 166 1 141 166 1 141 166 1 141 166 1 141 166 1 141 166 1 141 166 1 141 166 1 141 166 1 141 166 1 141 166 1 141 166 1 141 166 1 141 166 1 141 166 1 141 166 1 141 166 1 141 166 1 141 166 1 141 166 1 141 166 1 141 166 1 141 166 1 141 166 1 141 166 1 141 166 1 141 166 1 141 166 1 141 166 1 141 166 1 141 166 1 141 166 1 141 166 1 141 166 1 141 166 1 141 166 1 141 166 1 141 166 1 141 166 1 141 166 1 141 166 1 141 166 1 141 166 1 141 166 1 141 166 1 141 166 1 141 166 1 141 166 1 141 166 1 141 166 1 141 166 1 141 166 1 141 166 1 141 166 1 141 166 1 141 166 1 141 166 1 141 166 1 141 166 1 141 166 1 141 166 1 141 166 1 141 166 1 141 166 1 141 166 1 141 166 1 141 166 1 141 166 1 141 166 1 141 166 1 141 166 1 141 166 1 141 166 1 141 166 1 141 166 1 141 166 1 141 166 1 141 166 1 141 166 1 141 166 1 141 166 1 141 166 1 141 166 1 141 166 1 141 166 1 141 166 1 141 166 1 141 166 1 141 166 1 141 166 1 141 166 1 141 166 1 141 166 1 141 166 1 141 166 1 141 166 1 141 166 1 141 166 1 141 166 1 141 166 1 141 166 1 141 166 1 141 166 1 141 166 1 141 166 1 141 166 1 141 166 1 141 166 1 141 166 1 141 166 1 141 166 1 141 166 1 141 166 1 141 166 1 141 166 1 141 166 1 141 166 1 141 166 1 141 166 1 141 166 1 141 166 1 141 166 1 141 166 1 141 166 1 141 166 1 141 166 1 141 166 1 141 166 1 141 166 1 141 166 1 141 166 1 141 166 1 141 166 1 141 166 1 141 166 1 141 166 1 141 166 1 141 166 1 141 166 1 141 166 1 141 166 1 141 166 1 141 166 1 141 166 1 141 166 1 141 166 1 141 166 1 141 166 1 141 166 1 141 166 1 141 166 1 141 166 1 141 166 1 141 166 1 141 166 1 141 166 1 141 166 1 141 166 1 141 166 1 141 166 1 141 166 1 141 166 1 141 166 1 141 166 1 141 166 1 141 166 1 141 166 1 141 166 1 141 166 1 141 166 1 141 166 1 141 166 1 141 166 1 141 166 1 141 166 1 141 166 1 141 166 1 141 166 1 141 166 1 141 166 1 141 166 1 141 166 1 141 166 1 141 166 1 141 166 1 141 166 1 141 166 1 141 166 1 141 166 1 141 166 1 141 166 1 141 166 1 141 166 1 141 166 1 141 166 1 141 166 1 141 166 1 141 166 1 141 166 1 141 166 1 123 200 40 123 200 40 123 200 40 123 200 40 123 200 40 123 200 40 123 200 40 123 200 40 123 200 40 123 200 40 123 200 40 123 200 40 123 200 40 123 200 40 123 200 40 123 200 40 123 200 40 123 200 40 123 200 40 123 200 40 123 200 40 123 200 40 123 200 40 123 200 40 123 200 40 123 200 40 123 200 40 123 200 40 123 200 40 123 200 40 123 200 40 123 200 40 123 200 40 123 200 40 123 200 40 123 200 40 123 200 40 123 200 40 123 200 40 123 200 40 123 200 40 123 200 40 123 200 40 123 200 40 123 200 40 123 200 40 123 200 40 123 200 40 123 200 40 123 200 40 123 200 40 123 200 40 123 200 40 123 200 40 123 200 40 123 200 40 123 200 40 123 200 40 123 200 40 123 200 40 123 200 40 123 200 40 123 200 40 123 200 40 123 200 40 123 200 40 123 200 40 123 200 40 123 200 40 123 200 40 123 200 40 123 200 40 123 200 40 123 200 40 123 200 40 123 200 40 123 200 40 123 200 40 123 200 40 123 200 40 123 200 40 123 200 40 123 200 40 123 200 40 123 200 40 123 200 40 123 200 40 123 200 40 123 200 40 123 200 40 123 200 40 123 200 40 123 200 40 123 200 40 123 200 40 123 200 40 123 200 40 123 200 40 123 200 40 123 200 40 123 200 40 123 200 40 123 200 40 123 200 40 123 200 40 123 200 40 123 200 40 123 200 40 123 200 40 123 200 40 123 200 40 123 200 40 123 200 40 123 200 40 123 200 40 123 200 40 123 200 40 123 200 40 123 200 40 123 200 40 123 200 40 123 200 40 123 200 40 123 200 40 123 200 40 123 200 40 123 200 40 123 200 40 123 200 40 123 200 40 123 200 40 123 200 40 123 200 40 123 200 40 123 200 40 123 200 40 123 200 40 123 200 40 123 200 40 123 200 40 123 200 40 123 200 40 123 200 40 123 200 40 123 200 40 123 200 40 123 200 40 123 200 40 123 200 40 123 200 40 123 200 40 123 200 40 123 200 40 123 200 40 123 200 40 123 200 40 123 200 40 123 200 40 123 200 40 123 200 40 123 200 40 123 200 40 123 200 40 123 200 40 123 200 40 123 200 40 123 200 40 123 200 40 123 200 40 123 200 40 123 200 40 123 200 40 123 200 40 123 200 40 123 200 40 123 200 40 123 200 40 123 200 40 123 200 40 123 200 40 123 200 40 123 200 40 123 200 40 123 200 40 123 200 40 123 200 40 123 200 40 123 200 40 123 200 40 123 200 40 123 200 40 123 200 40 123 200 40 123 200 40 123 200 40 123 200 40 123 200 40 123 200 40 123 200 40 123 200 40 5 75 194 5 75 194 5 75 194 5 75 194 5 75 194 5 75 194 5 75 194 5 75 194 5 75 194 5 75 194 5 75 194 5 75 194 5 75 194 5 75 194 5 75 194 5 75 194 5 75 194 5 75 194 5 75 194 5 75 194 5 75 194 5 75 194 5 75 194 5 75 194 5 75 194 5 75 194 5 75 194 5 75 194 5 75 194 5 75 194 5 75 194 5 75 194 5 75 194 5 75 194 5 75 194 5 75 194 5 75 194 5 75 194 5 75 194 5 75 194 5 75 194 5 75 194 5 75 194 5 75 194 5 75 194 5 75 194 5 75 194 5 75 194 5 75 194 5 75 194 5 75 194 5 75 194 5 75 194 5 75 194 5 75 194 5 75 194 5 75 194 5 75 194 5 75 194 5 75 194 5 75 194 5 75 194 5 75 194 5 75 194 5 75 194 5 75 194 5 75 194 5 75 194 5 75 194 5 75 194 5 75 194 5 75 194 5 75 194 5 75 194 5 75 194 5 75 194 5 75 194 5 75 194 5 75 194 5 75 194 5 75 194 5 75 194 5 75 194 5 75 194 5 75 194 5 75 194 5 75 194 5 75 194 5 75 194 5 75 194 5 75 194 5 75 194 5 75 194 5 75 194 5 75 194 5 75 194 5 75 194 5 75 194 5 75 194 5 75 194 5 75 194 5 75 194 5 75 194 5 75 194 5 75 194 5 75 194 5 75 194 5 75 194 5 75 194 5 75 194 5 75 194 5 75 194 5 75 194 5 75 194 5 75 194 5 75 194 5 75 194 5 75 194 5 75 194 5 75 194 5 75 194 5 75 194 5 75 194 5 75 194 5 75 194 5 75 194 5 75 194 5 75 194 5 75 194 5 75 194 5 75 194 5 75 194 5 75 194 5 75 194 5 75 194 5 75 194 5 75 194 5 75 194 5 75 194 5 75 194 5 75 194 5 75 194 5 75 194 5 75 194 5 75 194 5 75 194 5 75 194 5 75 194 5 75 194 5 75 194 5 75 194 5 75 194 5 75 194 5 75 194 5 75 194 5 75 194 5 75 194 5 75 194 5 75 194 5 75 194 5 75 194 5 75 194 5 75 194 5 75 194 5 75 194 5 75 194 5 75 194 5 75 194 5 75 194 5 75 194 5 75 194 5 75 194 5 75 194 5 75 194 5 75 194 5 75 194 5 75 194 5 75 194 5 75 194 5 75 194 5 75 194 5 75 194 5 75 194 5 75 194 5 75 194 5 75 194 5 75 194 5 75 194 5 75 194 5 75 194 5 75 194 5 75 194 5 75 194 5 75 194 5 75 194 5 75 194 5 75 194 5 75 194 5 75 194 5 75 194 123 200 40 123 200 40 123 200 40 123 200 40 123 200 40 123 200 40 123 200 40 123 200 40 123 200 40 123 200 40 123 200 40 123 200 40 123 200 40 123 200 40 123 200 40 123 200 40 123 200 40 123 200 40 123 200 40 123 200 40 123 200 40 123 200 40 123 200 40 123 200 40 123 200 40 123 200 40 123 200 40 123 200 40 123 200 40 123 200 40 123 200 40 123 200 40 123 200 40 123 200 40 123 200 40 123 200 40 123 200 40 123 200 40 123 200 40 123 200 40 123 200 40 123 200 40 123 200 40 123 200 40 123 200 40 123 200 40 123 200 40 123 200 40 123 200 40 123 200 40 123 200 40 123 200 40 123 200 40 123 200 40 123 200 40 123 200 40 123 200 40 123 200 40 123 200 40 123 200 40 123 200 40 123 200 40 123 200 40 123 200 40 123 200 40 123 200 40 123 200 40 123 200 40 123 200 40 123 200 40 123 200 40 123 200 40 123 200 40 123 200 40 123 200 40 123 200 40 123 200 40 123 200 40 123 200 40 123 200 40 123 200 40 123 200 40 123 200 40 123 200 40 123 200 40 123 200 40 123 200 40 123 200 40 123 200 40 123 200 40 123 200 40 123 200 40 123 200 40 123 200 40 123 200 40 123 200 40 123 200 40 123 200 40 123 200 40 123 200 40 123 200 40 123 200 40 123 200 40 123 200 40 123 200 40 123 200 40 123 200 40 123 200 40 123 200 40 123 200 40 123 200 40 123 200 40 123 200 40 123 200 40 123 200 40 123 200 40 123 200 40 123 200 40 123 200 40 123 200 40 123 200 40 123 200 40 123 200 40 123 200 40 123 200 40 123 200 40 123 200 40 123 200 40 123 200 40 123 200 40 123 200 40 123 200 40 123 200 40 123 200 40 123 200 40 123 200 40 123 200 40 123 200 40 123 200 40 123 200 40 123 200 40 123 200 40 123 200 40 123 200 40 123 200 40 123 200 40 123 200 40 123 200 40 123 200 40 123 200 40 123 200 40 123 200 40 123 200 40 123 200 40 123 200 40 123 200 40 123 200 40 123 200 40 123 200 40 123 200 40 123 200 40 123 200 40 123 200 40 123 200 40 123 200 40 123 200 40 123 200 40 123 200 40 123 200 40 123 200 40 123 200 40 123 200 40 123 200 40 123 200 40 123 200 40 123 200 40 123 200 40 123 200 40 123 200 40 123 200 40 123 200 40 123 200 40 123 200 40 123 200 40 123 200 40 123 200 40 123 200 40 123 200 40 123 200 40 123 200 40 123 200 40 123 200 40 123 200 40 123 200 40 123 200 40 123 200 40 123 200 40 123 200 40 123 200 40 123 200 40 200 148 156 200 148 156 200 148 156 200 148 156 200 148 156 200 148 156 200 148 156 200 148 156 200 148 156 200 148 156 200 148 156 200 148 156 200 148 156 200 148 156 200 148 156 200 148 156 200 148 156 200 148 156 200 148 156 200 148 156 200 148 156 200 148 156 200 148 156 200 148 156 200 148 156 200 148 156 200 148 156 200 148 156 200 148 156 200 148 156 200 148 156 200 148 156 200 148 156 200 148 156 200 148 156 200 148 156 200 148 156 200 148 156 200 148 156 200 148 156 200 148 156 200 148 156 200 148 156 200 148 156 200 148 156 200 148 156 200 148 156 200 148 156 200 148 156 200 148 156 200 148 156 200 148 156 200 148 156 200 148 156 200 148 156 200 148 156 200 148 156 200 148 156 200 148 156 200 148 156 200 148 156 200 148 156 200 148 156 200 148 156 200 148 156 200 148 156 200 148 156 200 148 156 200 148 156 200 148 156 200 148 156 200 148 156 200 148 156 200 148 156 200 148 156 200 148 156 200 148 156 200 148 156 200 148 156 200 148 156 200 148 156 200 148 156 200 148 156 200 148 156 200 148 156 200 148 156 200 148 156 200 148 156 200 148 156 200 148 156 200 148 156 200 148 156 200 148 156 200 148 156 200 148 156 200 148 156 200 148 156 200 148 156 200 148 156 200 148 156 200 148 156 200 148 156 200 148 156 200 148 156 200 148 156 200 148 156 200 148 156 200 148 156 200 148 156 200 148 156 200 148 156 200 148 156 200 148 156 200 148 156 200 148 156 200 148 156 200 148 156 200 148 156 200 148 156 200 148 156 200 148 156 200 148 156 200 148 156 200 148 156 200 148 156 200 148 156 200 148 156 200 148 156 200 148 156 200 148 156 200 148 156 200 148 156 200 148 156 200 148 156 200 148 156 200 148 156 200 148 156 200 148 156 200 148 156 200 148 156 200 148 156 200 148 156 200 148 156 200 148 156 200 148 156 200 148 156 200 148 156 200 148 156 200 148 156 200 148 156 200 148 156 200 148 156 200 148 156 200 148 156 200 148 156 200 148 156 200 148 156 200 148 156 200 148 156 200 148 156 200 148 156 200 148 156 200 148 156 200 148 156 200 148 156 200 148 156 200 148 156 200 148 156 200 148 156 200 148 156 200 148 156 200 148 156 200 148 156 200 148 156 200 148 156 200 148 156 200 148 156 200 148 156 200 148 156 200 148 156 200 148 156 200 148 156 200 148 156 200 148 156 200 148 156 200 148 156 200 148 156 200 148 156 200 148 156 200 148 156 200 148 156 200 148 156 200 148 156 200 148 156 200 148 156 200 148 156 200 148 156 200 148 156 200 148 156 200 148 156 123 200 40 123 200 40 123 200 40 123 200 40 123 200 40 123 200 40 123 200 40 123 200 40 123 200 40 123 200 40 123 200 40 123 200 40 123 200 40 123 200 40 123 200 40 123 200 40 123 200 40 123 200 40 123 200 40 123 200 40 123 200 40 123 200 40 123 200 40 123 200 40 123 200 40 123 200 40 123 200 40 123 200 40 123 200 40 123 200 40 123 200 40 123 200 40 123 200 40 123 200 40 123 200 40 123 200 40 123 200 40 123 200 40 123 200 40 123 200 40 123 200 40 123 200 40 123 200 40 123 200 40 123 200 40 123 200 40 123 200 40 123 200 40 123 200 40 123 200 40 123 200 40 123 200 40 123 200 40 123 200 40 123 200 40 123 200 40 123 200 40 123 200 40 123 200 40 123 200 40 123 200 40 123 200 40 123 200 40 123 200 40 123 200 40 123 200 40 123 200 40 123 200 40 123 200 40 123 200 40 123 200 40 123 200 40 123 200 40 123 200 40 123 200 40 123 200 40 123 200 40 123 200 40 123 200 40 123 200 40 123 200 40 123 200 40 123 200 40 123 200 40 123 200 40 123 200 40 123 200 40 123 200 40 123 200 40 123 200 40 123 200 40 123 200 40 123 200 40 123 200 40 123 200 40 123 200 40 123 200 40 123 200 40 123 200 40 123 200 40 123 200 40 123 200 40 123 200 40 123 200 40 123 200 40 123 200 40 123 200 40 123 200 40 123 200 40 123 200 40 123 200 40 123 200 40 123 200 40 123 200 40 123 200 40 123 200 40 123 200 40 123 200 40 123 200 40 123 200 40 123 200 40 123 200 40 123 200 40 123 200 40 123 200 40 123 200 40 123 200 40 123 200 40 123 200 40 123 200 40 123 200 40 123 200 40 123 200 40 123 200 40 123 200 40 123 200 40 123 200 40 123 200 40 123 200 40 123 200 40 123 200 40 123 200 40 123 200 40 123 200 40 123 200 40 123 200 40 123 200 40 123 200 40 123 200 40 123 200 40 123 200 40 123 200 40 123 200 40 123 200 40 123 200 40 123 200 40 123 200 40 123 200 40 123 200 40 123 200 40 123 200 40 123 200 40 123 200 40 123 200 40 123 200 40 123 200 40 123 200 40 123 200 40 123 200 40 123 200 40 123 200 40 123 200 40 123 200 40 123 200 40 123 200 40 123 200 40 123 200 40 123 200 40 123 200 40 123 200 40 123 200 40 123 200 40 123 200 40 123 200 40 123 200 40 123 200 40 123 200 40 123 200 40 123 200 40 123 200 40 123 200 40 123 200 40 123 200 40 123 200 40 123 200 40 123 200 40 123 200 40 123 200 40 123 200 40 123 200 40 165 8 149 165 8 149 165 8 149 165 8 149 165 8 149 165 8 149 165 8 149 165 8 149 165 8 149 165 8 149 165 8 149 165 8 149 165 8 149 165 8 149 165 8 149 165 8 149 165 8 149 165 8 149 165 8 149 165 8 149 165 8 149 165 8 149 165 8 149 165 8 149 165 8 149 165 8 149 165 8 149 165 8 149 165 8 149 165 8 149 165 8 149 165 8 149 165 8 149 165 8 149 165 8 149 165 8 149 165 8 149 165 8 149 165 8 149 165 8 149 165 8 149 165 8 149 165 8 149 165 8 149 165 8 149 165 8 149 165 8 149 165 8 149 165 8 149 165 8 149 165 8 149 165 8 149 165 8 149 165 8 149 165 8 149 165 8 149 165 8 149 165 8 149 165 8 149 165 8 149 165 8 149 165 8 149 165 8 149 165 8 149 165 8 149 165 8 149 165 8 149 165 8 149 165 8 149 165 8 149 165 8 149 165 8 149 165 8 149 165 8 149 165 8 149 165 8 149 165 8 149 165 8 149 165 8 149 165 8 149 165 8 149 165 8 149 165 8 149 165 8 149 165 8 149 165 8 149 165 8 149 165 8 149 165 8 149 165 8 149 165 8 149 165 8 149 165 8 149 165 8 149 165 8 149 165 8 149 165 8 149 165 8 149 165 8 149 165 8 149 165 8 149 165 8 149 165 8 149 165 8 149 165 8 149 165 8 149 165 8 149 165 8 149 165 8 149 165 8 149 165 8 149 165 8 149 165 8 149 165 8 149 165 8 149 165 8 149 165 8 149 165 8 149 165 8 149 165 8 149 165 8 149 165 8 149 165 8 149 165 8 149 165 8 149 165 8 149 165 8 149 165 8 149 165 8 149 165 8 149 165 8 149 165 8 149 165 8 149 165 8 149 165 8 149 165 8 149 165 8 149 165 8 149 165 8 149 165 8 149 165 8 149 165 8 149 165 8 149 165 8 149 165 8 149 165 8 149 165 8 149 165 8 149 165 8 149 165 8 149 165 8 149 165 8 149 165 8 149 165 8 149 165 8 149 165 8 149 165 8 149 165 8 149 165 8 149 165 8 149 165 8 149 165 8 149 165 8 149 165 8 149 165 8 149 165 8 149 165 8 149 165 8 149 165 8 149 165 8 149 165 8 149 165 8 149 165 8 149 165 8 149 165 8 149 165 8 149 165 8 149 165 8 149 165 8 149 165 8 149 165 8 149 165 8 149 165 8 149 165 8 149 165 8 149 165 8 149 165 8 149 165 8 149 165 8 149 165 8 149 165 8 149 165 8 149 165 8 149 165 8 149 165 8 149 165 8 149 165 8 149 165 8 149 165 8 149 165 8 149 123 200 40 123 200 40 123 200 40 123 200 40 123 200 40 123 200 40 123 200 40 123 200 40 123 200 40 123 200 40 123 200 40 123 200 40 123 200 40 123 200 40 123 200 40 123 200 40 123 200 40 123 200 40 123 200 40 123 200 40 123 200 40 123 200 40 123 200 40 123 200 40 123 200 40 123 200 40 123 200 40 123 200 40 123 200 40 123 200 40 123 200 40 123 200 40 123 200 40 123 200 40 123 200 40 123 200 40 123 200 40 123 200 40 123 200 40 123 200 40 123 200 40 123 200 40 123 200 40 123 200 40 123 200 40 123 200 40 123 200 40 123 200 40 123 200 40 123 200 40 123 200 40 123 200 40 123 200 40 123 200 40 123 200 40 123 200 40 123 200 40 123 200 40 123 200 40 123 200 40 123 200 40 123 200 40 123 200 40 123 200 40 123 200 40 123 200 40 123 200 40 123 200 40 123 200 40 123 200 40 123 200 40 123 200 40 123 200 40 123 200 40 123 200 40 123 200 40 123 200 40 123 200 40 123 200 40 123 200 40 123 200 40 123 200 40 123 200 40 123 200 40 123 200 40 123 200 40 123 200 40 123 200 40 123 200 40 123 200 40 123 200 40 123 200 40 123 200 40 123 200 40 123 200 40 123 200 40 123 200 40 123 200 40 123 200 40 123 200 40 123 200 40 123 200 40 123 200 40 123 200 40 123 200 40 123 200 40 123 200 40 123 200 40 123 200 40 123 200 40 123 200 40 123 200 40 123 200 40 123 200 40 123 200 40 123 200 40 123 200 40 123 200 40 123 200 40 123 200 40 123 200 40 123 200 40 123 200 40 123 200 40 123 200 40 123 200 40 123 200 40 123 200 40 123 200 40 123 200 40 123 200 40 123 200 40 123 200 40 123 200 40 123 200 40 123 200 40 123 200 40 123 200 40 123 200 40 123 200 40 123 200 40 123 200 40 123 200 40 123 200 40 123 200 40 123 200 40 123 200 40 123 200 40 123 200 40 123 200 40 123 200 40 123 200 40 123 200 40 123 200 40 123 200 40 123 200 40 123 200 40 123 200 40 123 200 40 123 200 40 123 200 40 123 200 40 123 200 40 123 200 40 123 200 40 123 200 40 123 200 40 123 200 40 123 200 40 123 200 40 123 200 40 123 200 40 123 200 40 123 200 40 123 200 40 123 200 40 123 200 40 123 200 40 123 200 40 123 200 40 123 200 40 123 200 40 123 200 40 123 200 40 123 200 40 123 200 40 123 200 40 123 200 40 123 200 40 123 200 40 123 200 40 123 200 40 123 200 40 123 200 40 123 200 40 123 200 40 123 200 40 123 200 40 123 200 40 123 200 40 232 122 48 232 122 48 232 122 48 232 122 48 232 122 48 232 122 48 232 122 48 232 122 48 232 122 48 232 122 48 232 122 48 232 122 48 232 122 48 232 122 48 232 122 48 232 122 48 232 122 48 232 122 48 232 122 48 232 122 48 232 122 48 232 122 48 232 122 48 232 122 48 232 122 48 232 122 48 232 122 48 232 122 48 232 122 48 232 122 48 232 122 48 232 122 48 232 122 48 232 122 48 232 122 48 232 122 48 232 122 48 232 122 48 232 122 48 232 122 48 232 122 48 232 122 48 232 122 48 232 122 48 232 122 48 232 122 48 232 122 48 232 122 48 232 122 48 232 122 48 232 122 48 232 122 48 232 122 48 232 122 48 232 122 48 232 122 48 232 122 48 232 122 48 232 122 48 232 122 48 232 122 48 232 122 48 232 122 48 232 122 48 232 122 48 232 122 48 232 122 48 232 122 48 232 122 48 232 122 48 232 122 48 232 122 48 232 122 48 232 122 48 232 122 48 232 122 48 232 122 48 232 122 48 232 122 48 232 122 48 232 122 48 232 122 48 232 122 48 232 122 48 232 122 48 232 122 48 232 122 48 232 122 48 232 122 48 232 122 48 232 122 48 232 122 48 232 122 48 232 122 48 232 122 48 232 122 48 232 122 48 232 122 48 232 122 48 232 122 48 232 122 48 232 122 48 232 122 48 232 122 48 232 122 48 232 122 48 232 122 48 232 122 48 232 122 48 232 122 48 232 122 48 232 122 48 232 122 48 232 122 48 232 122 48 232 122 48 232 122 48 232 122 48 232 122 48 232 122 48 232 122 48 232 122 48 232 122 48 232 122 48 232 122 48 232 122 48 232 122 48 232 122 48 232 122 48 232 122 48 232 122 48 232 122 48 232 122 48 232 122 48 232 122 48 232 122 48 232 122 48 232 122 48 232 122 48 232 122 48 232 122 48 232 122 48 232 122 48 232 122 48 232 122 48 232 122 48 232 122 48 232 122 48 232 122 48 232 122 48 232 122 48 232 122 48 232 122 48 232 122 48 232 122 48 232 122 48 232 122 48 232 122 48 232 122 48 232 122 48 232 122 48 232 122 48 232 122 48 232 122 48 232 122 48 232 122 48 232 122 48 232 122 48 232 122 48 232 122 48 232 122 48 232 122 48 232 122 48 232 122 48 232 122 48 232 122 48 232 122 48 232 122 48 232 122 48 232 122 48 232 122 48 232 122 48 232 122 48 232 122 48 232 122 48 232 122 48 232 122 48 232 122 48 232 122 48 232 122 48 232 122 48 232 122 48 232 122 48 232 122 48 232 122 48 232 122 48 232 122 48 232 122 48 232 122 48 232 122 48 123 200 40 123 200 40 123 200 40 123 200 40 123 200 40 123 200 40 123 200 40 123 200 40 123 200 40 123 200 40 123 200 40 123 200 40 123 200 40 123 200 40 123 200 40 123 200 40 123 200 40 123 200 40 123 200 40 123 200 40 123 200 40 123 200 40 123 200 40 123 200 40 123 200 40 123 200 40 123 200 40 123 200 40 123 200 40 123 200 40 123 200 40 123 200 40 123 200 40 123 200 40 123 200 40 123 200 40 123 200 40 123 200 40 123 200 40 123 200 40 123 200 40 123 200 40 123 200 40 123 200 40 123 200 40 123 200 40 123 200 40 123 200 40 123 200 40 123 200 40 123 200 40 123 200 40 123 200 40 123 200 40 123 200 40 123 200 40 123 200 40 123 200 40 123 200 40 123 200 40 123 200 40 123 200 40 123 200 40 123 200 40 123 200 40 123 200 40 123 200 40 123 200 40 123 200 40 123 200 40 123 200 40 123 200 40 123 200 40 123 200 40 123 200 40 123 200 40 123 200 40 123 200 40 123 200 40 123 200 40 123 200 40 123 200 40 123 200 40 123 200 40 123 200 40 123 200 40 123 200 40 123 200 40 123 200 40 123 200 40 123 200 40 123 200 40 123 200 40 123 200 40 123 200 40 123 200 40 123 200 40 123 200 40 123 200 40 123 200 40 123 200 40 123 200 40 123 200 40 123 200 40 123 200 40 123 200 40 123 200 40 123 200 40 123 200 40 123 200 40 123 200 40 123 200 40 123 200 40 123 200 40 123 200 40 123 200 40 123 200 40 123 200 40 123 200 40 123 200 40 123 200 40 123 200 40 123 200 40 123 200 40 123 200 40 123 200 40 123 200 40 123 200 40 123 200 40 123 200 40 123 200 40 123 200 40 123 200 40 123 200 40 123 200 40 123 200 40 123 200 40 123 200 40 123 200 40 123 200 40 123 200 40 123 200 40 123 200 40 123 200 40 123 200 40 123 200 40 123 200 40 123 200 40 123 200 40 123 200 40 123 200 40 123 200 40 123 200 40 123 200 40 123 200 40 123 200 40 123 200 40 123 200 40 123 200 40 123 200 40 123 200 40 123 200 40 123 200 40 123 200 40 123 200 40 123 200 40 123 200 40 123 200 40 123 200 40 123 200 40 123 200 40 123 200 40 123 200 40 123 200 40 123 200 40 123 200 40 123 200 40 123 200 40 123 200 40 123 200 40 123 200 40 123 200 40 123 200 40 123 200 40 123 200 40 123 200 40 123 200 40 123 200 40 123 200 40 123 200 40 123 200 40 123 200 40 123 200 40 123 200 40 123 200 40 123 200 40 123 200 40 123 200 40 123 200 40 123 200 40 79 253 67 79 253 67 79 253 67 79 253 67 79 253 67 79 253 67 79 253 67 79 253 67 79 253 67 79 253 67 79 253 67 79 253 67 79 253 67 79 253 67 79 253 67 79 253 67 79 253 67 79 253 67 79 253 67 79 253 67 79 253 67 79 253 67 79 253 67 79 253 67 79 253 67 79 253 67 79 253 67 79 253 67 79 253 67 79 253 67 79 253 67 79 253 67 79 253 67 79 253 67 79 253 67 79 253 67 79 253 67 79 253 67 79 253 67 79 253 67 79 253 67 79 253 67 79 253 67 79 253 67 79 253 67 79 253 67 79 253 67 79 253 67 79 253 67 79 253 67 79 253 67 79 253 67 79 253 67 79 253 67 79 253 67 79 253 67 79 253 67 79 253 67 79 253 67 79 253 67 79 253 67 79 253 67 79 253 67 79 253 67 79 253 67 79 253 67 79 253 67 79 253 67 79 253 67 79 253 67 79 253 67 79 253 67 79 253 67 79 253 67 79 253 67 79 253 67 79 253 67 79 253 67 79 253 67 79 253 67 79 253 67 79 253 67 79 253 67 79 253 67 79 253 67 79 253 67 79 253 67 79 253 67 79 253 67 79 253 67 79 253 67 79 253 67 79 253 67 79 253 67 79 253 67 79 253 67 79 253 67 79 253 67 79 253 67 79 253 67 79 253 67 79 253 67 79 253 67 79 253 67 79 253 67 79 253 67 79 253 67 79 253 67 79 253 67 79 253 67 79 253 67 79 253 67 79 253 67 79 253 67 79 253 67 79 253 67 79 253 67 79 253 67 79 253 67 79 253 67 79 253 67 79 253 67 79 253 67 79 253 67 79 253 67 79 253 67 79 253 67 79 253 67 79 253 67 79 253 67 79 253 67 79 253 67 79 253 67 79 253 67 79 253 67 79 253 67 79 253 67 79 253 67 79 253 67 79 253 67 79 253 67 79 253 67 79 253 67 79 253 67 79 253 67 79 253 67 79 253 67 79 253 67 79 253 67 79 253 67 79 253 67 79 253 67 79 253 67 79 253 67 79 253 67 79 253 67 79 253 67 79 253 67 79 253 67 79 253 67 79 253 67 79 253 67 79 253 67 79 253 67 79 253 67 79 253 67 79 253 67 79 253 67 79 253 67 79 253 67 79 253 67 79 253 67 79 253 67 79 253 67 79 253 67 79 253 67 79 253 67 79 253 67 79 253 67 79 253 67 79 253 67 79 253 67 79 253 67 79 253 67 79 253 67 79 253 67 79 253 67 79 253 67 79 253 67 79 253 67 79 253 67 79 253 67 79 253 67 79 253 67 79 253 67 79 253 67 79 253 67 79 253 67 79 253 67 79 253 67 123 200 40 123 200 40 123 200 40 123 200 40 123 200 40 123 200 40 123 200 40 123 200 40 123 200 40 123 200 40 123 200 40 123 200 40 123 200 40 123 200 40 123 200 40 123 200 40 123 200 40 123 200 40 123 200 40 123 200 40 123 200 40 123 200 40 123 200 40 123 200 40 123 200 40 123 200 40 123 200 40 123 200 40 123 200 40 123 200 40 123 200 40 123 200 40 123 200 40 123 200 40 123 200 40 123 200 40 123 200 40 123 200 40 123 200 40 123 200 40 123 200 40 123 200 40 123 200 40 123 200 40 123 200 40 123 200 40 123 200 40 123 200 40 123 200 40 123 200 40 123 200 40 123 200 40 123 200 40 123 200 40 123 200 40 123 200 40 123 200 40 123 200 40 123 200 40 123 200 40 123 200 40 123 200 40 123 200 40 123 200 40 123 200 40 123 200 40 123 200 40 123 200 40 123 200 40 123 200 40 123 200 40 123 200 40 123 200 40 123 200 40 123 200 40 123 200 40 123 200 40 123 200 40 123 200 40 123 200 40 123 200 40 123 200 40 123 200 40 123 200 40 123 200 40 123 200 40 123 200 40 123 200 40 123 200 40 123 200 40 123 200 40 123 200 40 123 200 40 123 200 40 123 200 40 123 200 40 123 200 40 123 200 40 123 200 40 123 200 40 123 200 40 123 200 40 123 200 40 123 200 40 123 200 40 123 200 40 123 200 40 123 200 40 123 200 40 123 200 40 123 200 40 123 200 40 123 200 40 123 200 40 123 200 40 123 200 40 123 200 40 123 200 40 123 200 40 123 200 40 123 200 40 123 200 40 123 200 40 123 200 40 123 200 40 123 200 40 123 200 40 123 200 40 123 200 40 123 200 40 123 200 40 123 200 40 123 200 40 123 200 40 123 200 40 123 200 40 123 200 40 123 200 40 123 200 40 123 200 40 123 200 40 123 200 40 123 200 40 123 200 40 123 200 40 123 200 40 123 200 40 123 200 40 123 200 40 123 200 40 123 200 40 123 200 40 123 200 40 123 200 40 123 200 40 123 200 40 123 200 40 123 200 40 123 200 40 123 200 40 123 200 40 123 200 40 123 200 40 123 200 40 123 200 40 123 200 40 123 200 40 123 200 40 123 200 40 123 200 40 123 200 40 123 200 40 123 200 40 123 200 40 123 200 40 123 200 40 123 200 40 123 200 40 123 200 40 123 200 40 123 200 40 123 200 40 123 200 40 123 200 40 123 200 40 123 200 40 123 200 40 123 200 40 123 200 40 123 200 40 123 200 40 123 200 40 123 200 40 123 200 40 123 200 40 123 200 40 123 200 40 123 200 40 123 200 40 123 200 40 139 48 123 139 48 123 139 48 123 139 48 123 139 48 123 139 48 123 139 48 123 139 48 123 139 48 123 139 48 123 139 48 123 139 48 123 139 48 123 139 48 123 139 48 123 139 48 123 139 48 123 139 48 123 139 48 123 139 48 123 139 48 123 139 48 123 139 48 123 139 48 123 139 48 123 139 48 123 139 48 123 139 48 123 139 48 123 139 48 123 139 48 123 139 48 123 139 48 123 139 48 123 139 48 123 139 48 123 139 48 123 139 48 123 139 48 123 139 48 123 139 48 123 139 48 123 139 48 123 139 48 123 139 48 123 139 48 123 139 48 123 139 48 123 139 48 123 139 48 123 139 48 123 139 48 123 139 48 123 139 48 123 139 48 123 139 48 123 139 48 123 139 48 123 139 48 123 139 48 123 139 48 123 139 48 123 139 48 123 139 48 123 139 48 123 139 48 123 139 48 123 139 48 123 139 48 123 139 48 123 139 48 123 139 48 123 139 48 123 139 48 123 139 48 123 139 48 123 139 48 123 139 48 123 139 48 123 139 48 123 139 48 123 139 48 123 139 48 123 139 48 123 139 48 123 139 48 123 139 48 123 139 48 123 139 48 123 139 48 123 139 48 123 139 48 123 139 48 123 139 48 123 139 48 123 139 48 123 139 48 123 139 48 123 139 48 123 139 48 123 139 48 123 139 48 123 139 48 123 139 48 123 139 48 123 139 48 123 139 48 123 139 48 123 139 48 123 139 48 123 139 48 123 139 48 123 139 48 123 139 48 123 139 48 123 139 48 123 139 48 123 139 48 123 139 48 123 139 48 123 139 48 123 139 48 123 139 48 123 139 48 123 139 48 123 139 48 123 139 48 123 139 48 123 139 48 123 139 48 123 139 48 123 139 48 123 139 48 123 139 48 123 139 48 123 139 48 123 139 48 123 139 48 123 139 48 123 139 48 123 139 48 123 139 48 123 139 48 123 139 48 123 139 48 123 139 48 123 139 48 123 139 48 123 139 48 123 139 48 123 139 48 123 139 48 123 139 48 123 139 48 123 139 48 123 139 48 123 139 48 123 139 48 123 139 48 123 139 48 123 139 48 123 139 48 123 139 48 123 139 48 123 139 48 123 139 48 123 139 48 123 139 48 123 139 48 123 139 48 123 139 48 123 139 48 123 139 48 123 139 48 123 139 48 123 139 48 123 139 48 123 139 48 123 139 48 123 139 48 123 139 48 123 139 48 123 139 48 123 139 48 123 139 48 123 139 48 123 139 48 123 139 48 123 139 48 123 139 48 123 139 48 123 139 48 123 139 48 123 139 48 123 139 48 123 139 48 123 139 48 123 139 48 123 139 48 123 139 48 123 123 200 40 123 200 40 123 200 40 123 200 40 123 200 40 123 200 40 123 200 40 123 200 40 123 200 40 123 200 40 123 200 40 123 200 40 123 200 40 123 200 40 123 200 40 123 200 40 123 200 40 123 200 40 123 200 40 123 200 40 123 200 40 123 200 40 123 200 40 123 200 40 123 200 40 123 200 40 123 200 40 123 200 40 123 200 40 123 200 40 123 200 40 123 200 40 123 200 40 123 200 40 123 200 40 123 200 40 123 200 40 123 200 40 123 200 40 123 200 40 123 200 40 123 200 40 123 200 40 123 200 40 123 200 40 123 200 40 123 200 40 123 200 40 123 200 40 123 200 40 123 200 40 123 200 40 123 200 40 123 200 40 123 200 40 123 200 40 123 200 40 123 200 40 123 200 40 123 200 40 123 200 40 123 200 40 123 200 40 123 200 40 123 200 40 123 200 40 123 200 40 123 200 40 123 200 40 123 200 40 123 200 40 123 200 40 123 200 40 123 200 40 123 200 40 123 200 40 123 200 40 123 200 40 123 200 40 123 200 40 123 200 40 123 200 40 123 200 40 123 200 40 123 200 40 123 200 40 123 200 40 123 200 40 123 200 40 123 200 40 123 200 40 123 200 40 123 200 40 123 200 40 123 200 40 123 200 40 123 200 40 123 200 40 123 200 40 123 200 40 123 200 40 123 200 40 123 200 40 123 200 40 123 200 40 123 200 40 123 200 40 123 200 40 123 200 40 123 200 40 123 200 40 123 200 40 123 200 40 123 200 40 123 200 40 123 200 40 123 200 40 123 200 40 123 200 40 123 200 40 123 200 40 123 200 40 123 200 40 123 200 40 123 200 40 123 200 40 123 200 40 123 200 40 123 200 40 123 200 40 123 200 40 123 200 40 123 200 40 123 200 40 123 200 40 123 200 40 123 200 40 123 200 40 123 200 40 123 200 40 123 200 40 123 200 40 123 200 40 123 200 40 123 200 40 123 200 40 123 200 40 123 200 40 123 200 40 123 200 40 123 200 40 123 200 40 123 200 40 123 200 40 123 200 40 123 200 40 123 200 40 123 200 40 123 200 40 123 200 40 123 200 40 123 200 40 123 200 40 123 200 40 123 200 40 123 200 40 123 200 40 123 200 40 123 200 40 123 200 40 123 200 40 123 200 40 123 200 40 123 200 40 123 200 40 123 200 40 123 200 40 123 200 40 123 200 40 123 200 40 123 200 40 123 200 40 123 200 40 123 200 40 123 200 40 123 200 40 123 200 40 123 200 40 123 200 40 123 200 40 123 200 40 123 200 40 123 200 40 123 200 40 123 200 40 123 200 40 123 200 40 123 200 40 123 200 40 123 200 40 203 202 170 203 202 170 203 202 170 203 202 170 203 202 170 203 202 170 203 202 170 203 202 170 203 202 170 203 202 170 203 202 170 203 202 170 203 202 170 203 202 170 203 202 170 203 202 170 203 202 170 203 202 170 203 202 170 203 202 170 203 202 170 203 202 170 203 202 170 203 202 170 203 202 170 203 202 170 203 202 170 203 202 170 203 202 170 203 202 170 203 202 170 203 202 170 203 202 170 203 202 170 203 202 170 203 202 170 203 202 170 203 202 170 203 202 170 203 202 170 203 202 170 203 202 170 203 202 170 203 202 170 203 202 170 203 202 170 203 202 170 203 202 170 203 202 170 203 202 170 203 202 170 203 202 170 203 202 170 203 202 170 203 202 170 203 202 170 203 202 170 203 202 170 203 202 170 203 202 170 203 202 170 203 202 170 203 202 170 203 202 170 203 202 170 203 202 170 203 202 170 203 202 170 203 202 170 203 202 170 203 202 170 203 202 170 203 202 170 203 202 170 203 202 170 203 202 170 203 202 170 203 202 170 203 202 170 203 202 170 203 202 170 203 202 170 203 202 170 203 202 170 203 202 170 203 202 170 203 202 170 203 202 170 203 202 170 203 202 170 203 202 170 203 202 170 203 202 170 203 202 170 203 202 170 203 202 170 203 202 170 203 202 170 203 202 170 203 202 170 203 202 170 203 202 170 203 202 170 203 202 170 203 202 170 203 202 170 203 202 170 203 202 170 203 202 170 203 202 170 203 202 170 203 202 170 203 202 170 203 202 170 203 202 170 203 202 170 203 202 170 203 202 170 203 202 170 203 202 170 203 202 170 203 202 170 203 202 170 203 202 170 203 202 170 203 202 170 203 202 170 203 202 170 203 202 170 203 202 170 203 202 170 203 202 170 203 202 170 203 202 170 203 202 170 203 202 170 203 202 170 203 202 170 203 202 170 203 202 170 203 202 170 203 202 170 203 202 170 203 202 170 203 202 170 203 202 170 203 202 170 203 202 170 203 202 170 203 202 170 203 202 170 203 202 170 203 202 170 203 202 170 203 202 170 203 202 170 203 202 170 203 202 170 203 202 170 203 202 170 203 202 170 203 202 170 203 202 170 203 202 170 203 202 170 203 202 170 203 202 170 203 202 170 203 202 170 203 202 170 203 202 170 203 202 170 203 202 170 203 202 170 203 202 170 203 202 170 203 202 170 203 202 170 203 202 170 203 202 170 203 202 170 203 202 170 203 202 170 203 202 170 203 202 170 203 202 170 203 202 170 203 202 170 203 202 170 203 202 170 203 202 170 203 202 170 203 202 170 203 202 170 203 202 170 203 202 170 203 202 170 203 202 170 203 202 170 203 202 170 123 200 40 123 200 40 123 200 40 123 200 40 123 200 40 123 200 40 123 200 40 123 200 40 123 200 40 123 200 40 123 200 40 123 200 40 123 200 40 123 200 40 123 200 40 123 200 40 123 200 40 123 200 40 123 200 40 123 200 40 123 200 40 123 200 40 123 200 40 123 200 40 123 200 40 123 200 40 123 200 40 123 200 40 123 200 40 123 200 40 123 200 40 123 200 40 123 200 40 123 200 40 123 200 40 123 200 40 123 200 40 123 200 40 123 200 40 123 200 40 123 200 40 123 200 40 123 200 40 123 200 40 123 200 40 123 200 40 123 200 40 123 200 40 123 200 40 123 200 40 123 200 40 123 200 40 123 200 40 123 200 40 123 200 40 123 200 40 123 200 40 123 200 40 123 200 40 123 200 40 123 200 40 123 200 40 123 200 40 123 200 40 123 200 40 123 200 40 123 200 40 123 200 40 123 200 40 123 200 40 123 200 40 123 200 40 123 200 40 123 200 40 123 200 40 123 200 40 123 200 40 123 200 40 123 200 40 123 200 40 123 200 40 123 200 40 123 200 40 123 200 40 123 200 40 123 200 40 123 200 40 123 200 40 123 200 40 123 200 40 123 200 40 123 200 40 123 200 40 123 200 40 123 200 40 123 200 40 123 200 40 123 200 40 123 200 40 123 200 40 123 200 40 123 200 40 123 200 40 123 200 40 123 200 40 123 200 40 123 200 40 123 200 40 123 200 40 123 200 40 123 200 40 123 200 40 123 200 40 123 200 40 123 200 40 123 200 40 123 200 40 123 200 40 123 200 40 123 200 40 123 200 40 123 200 40 123 200 40 123 200 40 123 200 40 123 200 40 123 200 40 123 200 40 123 200 40 123 200 40 123 200 40 123 200 40 123 200 40 123 200 40 123 200 40 123 200 40 123 200 40 123 200 40 123 200 40 123 200 40 123 200 40 123 200 40 123 200 40 123 200 40 123 200 40 123 200 40 123 200 40 123 200 40 123 200 40 123 200 40 123 200 40 123 200 40 123 200 40 123 200 40 123 200 40 123 200 40 123 200 40 123 200 40 123 200 40 123 200 40 123 200 40 123 200 40 123 200 40 123 200 40 123 200 40 123 200 40 123 200 40 123 200 40 123 200 40 123 200 40 123 200 40 123 200 40 123 200 40 123 200 40 123 200 40 123 200 40 123 200 40 123 200 40 123 200 40 123 200 40 123 200 40 123 200 40 123 200 40 123 200 40 123 200 40 123 200 40 123 200 40 123 200 40 123 200 40 123 200 40 123 200 40 123 200 40 123 200 40 123 200 40 123 200 40 123 200 40 123 200 40 123 200 40 123 200 40 123 200 40 228 192 214 228 192 214 228 192 214 228 192 214 228 192 214 228 192 214 228 192 214 228 192 214 228 192 214 228 192 214 228 192 214 228 192 214 228 192 214 228 192 214 228 192 214 228 192 214 228 192 214 228 192 214 228 192 214 228 192 214 228 192 214 228 192 214 228 192 214 228 192 214 228 192 214 228 192 214 228 192 214 228 192 214 228 192 214 228 192 214 228 192 214 228 192 214 228 192 214 228 192 214 228 192 214 228 192 214 228 192 214 228 192 214 228 192 214 228 192 214 228 192 214 228 192 214 228 192 214 228 192 214 228 192 214 228 192 214 228 192 214 228 192 214 228 192 214 228 192 214 228 192 214 228 192 214 228 192 214 228 192 214 228 192 214 228 192 214 228 192 214 228 192 214 228 192 214 228 192 214 228 192 214 228 192 214 228 192 214 228 192 214 228 192 214 228 192 214 228 192 214 228 192 214 228 192 214 228 192 214 228 192 214 228 192 214 228 192 214 228 192 214 228 192 214 228 192 214 228 192 214 228 192 214 228 192 214 228 192 214 228 192 214 228 192 214 228 192 214 228 192 214 228 192 214 228 192 214 228 192 214 228 192 214 228 192 214 228 192 214 228 192 214 228 192 214 228 192 214 228 192 214 228 192 214 228 192 214 228 192 214 228 192 214 228 192 214 228 192 214 228 192 214 228 192 214 228 192 214 228 192 214 228 192 214 228 192 214 228 192 214 228 192 214 228 192 214 228 192 214 228 192 214 228 192 214 228 192 214 228 192 214 228 192 214 228 192 214 228 192 214 228 192 214 228 192 214 228 192 214 228 192 214 228 192 214 228 192 214 228 192 214 228 192 214 228 192 214 228 192 214 228 192 214 228 192 214 228 192 214 228 192 214 228 192 214 228 192 214 228 192 214 228 192 214 228 192 214 228 192 214 228 192 214 228 192 214 228 192 214 228 192 214 228 192 214 228 192 214 228 192 214 228 192 214 228 192 214 228 192 214 228 192 214 228 192 214 228 192 214 228 192 214 228 192 214 228 192 214 228 192 214 228 192 214 228 192 214 228 192 214 228 192 214 228 192 214 228 192 214 228 192 214 228 192 214 228 192 214 228 192 214 228 192 214 228 192 214 228 192 214 228 192 214 228 192 214 228 192 214 228 192 214 228 192 214 228 192 214 228 192 214 228 192 214 228 192 214 228 192 214 228 192 214 228 192 214 228 192 214 228 192 214 228 192 214 228 192 214 228 192 214 228 192 214 228 192 214 228 192 214 228 192 214 228 192 214 228 192 214 228 192 214 228 192 214 228 192 214 228 192 214 228 192 214 228 192 214 228 192 214 228 192 214 228 192 214 228 192 214 123 200 40 123 200 40 123 200 40 123 200 40 123 200 40 123 200 40 123 200 40 123 200 40 123 200 40 123 200 40 123 200 40 123 200 40 123 200 40 123 200 40 123 200 40 123 200 40 123 200 40 123 200 40 123 200 40 123 200 40 123 200 40 123 200 40 123 200 40 123 200 40 123 200 40 123 200 40 123 200 40 123 200 40 123 200 40 123 200 40 123 200 40 123 200 40 123 200 40 123 200 40 123 200 40 123 200 40 123 200 40 123 200 40 123 200 40 123 200 40 123 200 40 123 200 40 123 200 40 123 200 40 123 200 40 123 200 40 123 200 40 123 200 40 123 200 40 123 200 40 123 200 40 123 200 40 123 200 40 123 200 40 123 200 40 123 200 40 123 200 40 123 200 40 123 200 40 123 200 40 123 200 40 123 200 40 123 200 40 123 200 40 123 200 40 123 200 40 123 200 40 123 200 40 123 200 40 123 200 40 123 200 40 123 200 40 123 200 40 123 200 40 123 200 40 123 200 40 123 200 40 123 200 40 123 200 40 123 200 40 123 200 40 123 200 40 123 200 40 123 200 40 123 200 40 123 200 40 123 200 40 123 200 40 123 200 40 123 200 40 123 200 40 123 200 40 123 200 40 123 200 40 123 200 40 123 200 40 123 200 40 123 200 40 123 200 40 123 200 40 123 200 40 123 200 40 123 200 40 123 200 40 123 200 40 123 200 40 123 200 40 123 200 40 123 200 40 123 200 40 123 200 40 123 200 40 123 200 40 123 200 40 123 200 40 123 200 40 123 200 40 123 200 40 123 200 40 123 200 40 123 200 40 123 200 40 123 200 40 123 200 40 123 200 40 123 200 40 123 200 40 123 200 40 123 200 40 123 200 40 123 200 40 123 200 40 123 200 40 123 200 40 123 200 40 123 200 40 123 200 40 123 200 40 123 200 40 123 200 40 123 200 40 123 200 40 123 200 40 123 200 40 123 200 40 123 200 40 123 200 40 123 200 40 123 200 40 123 200 40 123 200 40 123 200 40 123 200 40 123 200 40 123 200 40 123 200 40 123 200 40 123 200 40 123 200 40 123 200 40 123 200 40 123 200 40 123 200 40 123 200 40 123 200 40 123 200 40 123 200 40 123 200 40 123 200 40 123 200 40 123 200 40 123 200 40 123 200 40 123 200 40 123 200 40 123 200 40 123 200 40 123 200 40 123 200 40 123 200 40 123 200 40 123 200 40 123 200 40 123 200 40 123 200 40 123 200 40 123 200 40 123 200 40 123 200 40 123 200 40 123 200 40 123 200 40 123 200 40 123 200 40 123 200 40 123 200 40 123 200 40 123 200 40 123 200 40 123 200 40 181 244 9 181 244 9 181 244 9 181 244 9 181 244 9 181 244 9 181 244 9 181 244 9 181 244 9 181 244 9 181 244 9 181 244 9 181 244 9 181 244 9 181 244 9 181 244 9 181 244 9 181 244 9 181 244 9 181 244 9 181 244 9 181 244 9 181 244 9 181 244 9 181 244 9 181 244 9 181 244 9 181 244 9 181 244 9 181 244 9 181 244 9 181 244 9 181 244 9 181 244 9 181 244 9 181 244 9 181 244 9 181 244 9 181 244 9 181 244 9 181 244 9 181 244 9 181 244 9 181 244 9 181 244 9 181 244 9 181 244 9 181 244 9 181 244 9 181 244 9 181 244 9 181 244 9 181 244 9 181 244 9 181 244 9 181 244 9 181 244 9 181 244 9 181 244 9 181 244 9 181 244 9 181 244 9 181 244 9 181 244 9 181 244 9 181 244 9 181 244 9 181 244 9 181 244 9 181 244 9 181 244 9 181 244 9 181 244 9 181 244 9 181 244 9 181 244 9 181 244 9 181 244 9 181 244 9 181 244 9 181 244 9 181 244 9 181 244 9 181 244 9 181 244 9 181 244 9 181 244 9 181 244 9 181 244 9 181 244 9 181 244 9 181 244 9 181 244 9 181 244 9 181 244 9 181 244 9 181 244 9 181 244 9 181 244 9 181 244 9 181 244 9 181 244 9 181 244 9 181 244 9 181 244 9 181 244 9 181 244 9 181 244 9 181 244 9 181 244 9 181 244 9 181 244 9 181 244 9 181 244 9 181 244 9 181 244 9 181 244 9 181 244 9 181 244 9 181 244 9 181 244 9 181 244 9 181 244 9 181 244 9 181 244 9 181 244 9 181 244 9 181 244 9 181 244 9 181 244 9 181 244 9 181 244 9 181 244 9 181 244 9 181 244 9 181 244 9 181 244 9 181 244 9 181 244 9 181 244 9 181 244 9 181 244 9 181 244 9 181 244 9 181 244 9 181 244 9 181 244 9 181 244 9 181 244 9 181 244 9 181 244 9 181 244 9 181 244 9 181 244 9 181 244 9 181 244 9 181 244 9 181 244 9 181 244 9 181 244 9 181 244 9 181 244 9 181 244 9 181 244 9 181 244 9 181 244 9 181 244 9 181 244 9 181 244 9 181 244 9 181 244 9 181 244 9 181 244 9 181 244 9 181 244 9 181 244 9 181 244 9 181 244 9 181 244 9 181 244 9 181 244 9 181 244 9 181 244 9 181 244 9 181 244 9 181 244 9 181 244 9 181 244 9 181 244 9 181 244 9 181 244 9 181 244 9 181 244 9 181 244 9 181 244 9 181 244 9 181 244 9 181 244 9 181 244 9 181 244 9 123 200 40 123 200 40 123 200 40 123 200 40 123 200 40 123 200 40 123 200 40 123 200 40 123 200 40 123 200 40 123 200 40 123 200 40 123 200 40 123 200 40 123 200 40 123 200 40 123 200 40 123 200 40 123 200 40 123 200 40 123 200 40 123 200 40 123 200 40 123 200 40 123 200 40 123 200 40 123 200 40 123 200 40 123 200 40 123 200 40 123 200 40 123 200 40 123 200 40 123 200 40 123 200 40 123 200 40 123 200 40 123 200 40 123 200 40 123 200 40 123 200 40 123 200 40 123 200 40 123 200 40 123 200 40 123 200 40 123 200 40 123 200 40 123 200 40 123 200 40 123 200 40 123 200 40 123 200 40 123 200 40 123 200 40 123 200 40 123 200 40 123 200 40 123 200 40 123 200 40 123 200 40 123 200 40 123 200 40 123 200 40 123 200 40 123 200 40 123 200 40 123 200 40 123 200 40 123 200 40 123 200 40 123 200 40 123 200 40 123 200 40 123 200 40 123 200 40 123 200 40 123 200 40 123 200 40 123 200 40 123 200 40 123 200 40 123 200 40 123 200 40 123 200 40 123 200 40 123 200 40 123 200 40 123 200 40 123 200 40 123 200 40 123 200 40 123 200 40 123 200 40 123 200 40 123 200 40 123 200 40 123 200 40 123 200 40 123 200 40 123 200 40 123 200 40 123 200 40 123 200 40 123 200 40 123 200 40 123 200 40 123 200 40 123 200 40 123 200 40 123 200 40 123 200 40 123 200 40 123 200 40 123 200 40 123 200 40 123 200 40 123 200 40 123 200 40 123 200 40 123 200 40 123 200 40 123 200 40 123 200 40 123 200 40 123 200 40 123 200 40 123 200 40 123 200 40 123 200 40 123 200 40 123 200 40 123 200 40 123 200 40 123 200 40 123 200 40 123 200 40 123 200 40 123 200 40 123 200 40 123 200 40 123 200 40 123 200 40 123 200 40 123 200 40 123 200 40 123 200 40 123 200 40 123 200 40 123 200 40 123 200 40 123 200 40 123 200 40 123 200 40 123 200 40 123 200 40 123 200 40 123 200 40 123 200 40 123 200 40 123 200 40 123 200 40 123 200 40 123 200 40 123 200 40 123 200 40 123 200 40 123 200 40 123 200 40 123 200 40 123 200 40 123 200 40 123 200 40 123 200 40 123 200 40 123 200 40 123 200 40 123 200 40 123 200 40 123 200 40 123 200 40 123 200 40 123 200 40 123 200 40 123 200 40 123 200 40 123 200 40 123 200 40 123 200 40 123 200 40 123 200 40 123 200 40 123 200 40 123 200 40 123 200 40 123 200 40 123 200 40 123 200 40 123 200 40 123 200 40 92 246 167 92 246 167 92 246 167 92 246 167 92 246 167 92 246 167 92 246 167 92 246 167 92 246 167 92 246 167 92 246 167 92 246 167 92 246 167 92 246 167 92 246 167 92 246 167 92 246 167 92 246 167 92 246 167 92 246 167 92 246 167 92 246 167 92 246 167 92 246 167 92 246 167 92 246 167 92 246 167 92 246 167 92 246 167 92 246 167 92 246 167 92 246 167 92 246 167 92 246 167 92 246 167 92 246 167 92 246 167 92 246 167 92 246 167 92 246 167 92 246 167 92 246 167 92 246 167 92 246 167 92 246 167 92 246 167 92 246 167 92 246 167 92 246 167 92 246 167 92 246 167 92 246 167 92 246 167 92 246 167 92 246 167 92 246 167 92 246 167 92 246 167 92 246 167 92 246 167 92 246 167 92 246 167 92 246 167 92 246 167 92 246 167 92 246 167 92 246 167 92 246 167 92 246 167 92 246 167 92 246 167 92 246 167 92 246 167 92 246 167 92 246 167 92 246 167 92 246 167 92 246 167 92 246 167 92 246 167 92 246 167 92 246 167 92 246 167 92 246 167 92 246 167 92 246 167 92 246 167 92 246 167 92 246 167 92 246 167 92 246 167 92 246 167 92 246 167 92 246 167 92 246 167 92 246 167 92 246 167 92 246 167 92 246 167 92 246 167 92 246 167 92 246 167 92 246 167 92 246 167 92 246 167 92 246 167 92 246 167 92 246 167 92 246 167 92 246 167 92 246 167 92 246 167 92 246 167 92 246 167 92 246 167 92 246 167 92 246 167 92 246 167 92 246 167 92 246 167 92 246 167 92 246 167 92 246 167 92 246 167 92 246 167 92 246 167 92 246 167 92 246 167 92 246 167 92 246 167 92 246 167 92 246 167 92 246 167 92 246 167 92 246 167 92 246 167 92 246 167 92 246 167 92 246 167 92 246 167 92 246 167 92 246 167 92 246 167 92 246 167 92 246 167 92 246 167 92 246 167 92 246 167 92 246 167 92 246 167 92 246 167 92 246 167 92 246 167 92 246 167 92 246 167 92 246 167 92 246 167 92 246 167 92 246 167 92 246 167 92 246 167 92 246 167 92 246 167 92 246 167 92 246 167 92 246 167 92 246 167 92 246 167 92 246 167 92 246 167 92 246 167 92 246 167 92 246 167 92 246 167 92 246 167 92 246 167 92 246 167 92 246 167 92 246 167 92 246 167 92 246 167 92 246 167 92 246 167 92 246 167 92 246 167 92 246 167 92 246 167 92 246 167 92 246 167 92 246 167 92 246 167 92 246 167 92 246 167 92 246 167 92 246 167 92 246 167 92 246 167 92 246 167 92 246 167 92 246 167 123 200 40 123 200 40 123 200 40 123 200 40 123 200 40 123 200 40 123 200 40 123 200 40 123 200 40 123 200 40 123 200 40 123 200 40 123 200 40 123 200 40 123 200 40 123 200 40 123 200 40 123 200 40 123 200 40 123 200 40 123 200 40 123 200 40 123 200 40 123 200 40 123 200 40 123 200 40 123 200 40 123 200 40 123 200 40 123 200 40 123 200 40 123 200 40 123 200 40 123 200 40 123 200 40 123 200 40 123 200 40 123 200 40 123 200 40 123 200 40 123 200 40 123 200 40 123 200 40 123 200 40 123 200 40 123 200 40 123 200 40 123 200 40 123 200 40 123 200 40 123 200 40 123 200 40 123 200 40 123 200 40 123 200 40 123 200 40 123 200 40 123 200 40 123 200 40 123 200 40 123 200 40 123 200 40 123 200 40 123 200 40 123 200 40 123 200 40 123 200 40 123 200 40 123 200 40 123 200 40 123 200 40 123 200 40 123 200 40 123 200 40 123 200 40 123 200 40 123 200 40 123 200 40 123 200 40 123 200 40 123 200 40 123 200 40 123 200 40 123 200 40 123 200 40 123 200 40 123 200 40 123 200 40 123 200 40 123 200 40 123 200 40 123 200 40 123 200 40 123 200 40 123 200 40 123 200 40 123 200 40 123 200 40 123 200 40 123 200 40 123 200 40 123 200 40 123 200 40 123 200 40 123 200 40 123 200 40 123 200 40 123 200 40 123 200 40 123 200 40 123 200 40 123 200 40 123 200 40 123 200 40 123 200 40 123 200 40 123 200 40 123 200 40 123 200 40 123 200 40 123 200 40 123 200 40 123 200 40 123 200 40 123 200 40 123 200 40 123 200 40 123 200 40 123 200 40 123 200 40 123 200 40 123 200 40 123 200 40 123 200 40 123 200 40 123 200 40 123 200 40 123 200 40 123 200 40 123 200 40 123 200 40 123 200 40 123 200 40 123 200 40 123 200 40 123 200 40 123 200 40 123 200 40 123 200 40 123 200 40 123 200 40 123 200 40 123 200 40 123 200 40 123 200 40 123 200 40 123 200 40 123 200 40 123 200 40 123 200 40 123 200 40 123 200 40 123 200 40 123 200 40 123 200 40 123 200 40 123 200 40 123 200 40 123 200 40 123 200 40 123 200 40 123 200 40 123 200 40 123 200 40 123 200 40 123 200 40 123 200 40 123 200 40 123 200 40 123 200 40 123 200 40 123 200 40 123 200 40 123 200 40 123 200 40 123 200 40 123 200 40 123 200 40 123 200 40 123 200 40 123 200 40 123 200 40 123 200 40 123 200 40 123 200 40 123 200 40 123 200 40 123 200 40 123 200 40 123 200 40 167 184 53 167 184 53 167 184 53 167 184 53 167 184 53 167 184 53 167 184 53 167 184 53 167 184 53 167 184 53 167 184 53 167 184 53 167 184 53 167 184 53 167 184 53 167 184 53 167 184 53 167 184 53 167 184 53 167 184 53 167 184 53 167 184 53 167 184 53 167 184 53 167 184 53 167 184 53 167 184 53 167 184 53 167 184 53 167 184 53 167 184 53 167 184 53 167 184 53 167 184 53 167 184 53 167 184 53 167 184 53 167 184 53 167 184 53 167 184 53 167 184 53 167 184 53 167 184 53 167 184 53 167 184 53 167 184 53 167 184 53 167 184 53 167 184 53 167 184 53 167 184 53 167 184 53 167 184 53 167 184 53 167 184 53 167 184 53 167 184 53 167 184 53 167 184 53 167 184 53 167 184 53 167 184 53 167 184 53 167 184 53 167 184 53 167 184 53 167 184 53 167 184 53 167 184 53 167 184 53 167 184 53 167 184 53 167 184 53 167 184 53 167 184 53 167 184 53 167 184 53 167 184 53 167 184 53 167 184 53 167 184 53 167 184 53 167 184 53 167 184 53 167 184 53 167 184 53 167 184 53 167 184 53 167 184 53 167 184 53 167 184 53 167 184 53 167 184 53 167 184 53 167 184 53 167 184 53 167 184 53 167 184 53 167 184 53 167 184 53 167 184 53 167 184 53 167 184 53 167 184 53 167 184 53 167 184 53 167 184 53 167 184 53 167 184 53 167 184 53 167 184 53 167 184 53 167 184 53 167 184 53 167 184 53 167 184 53 167 184 53 167 184 53 167 184 53 167 184 53 167 184 53 167 184 53 167 184 53 167 184 53 167 184 53 167 184 53 167 184 53 167 184 53 167 184 53 167 184 53 167 184 53 167 184 53 167 184 53 167 184 53 167 184 53 167 184 53 167 184 53 167 184 53 167 184 53 167 184 53 167 184 53 167 184 53 167 184 53 167 184 53 167 184 53 167 184 53 167 184 53 167 184 53 167 184 53 167 184 53 167 184 53 167 184 53 167 184 53 167 184 53 167 184 53 167 184 53 167 184 53 167 184 53 167 184 53 167 184 53 167 184 53 167 184 53 167 184 53 167 184 53 167 184 53 167 184 53 167 184 53 167 184 53 167 184 53 167 184 53 167 184 53 167 184 53 167 184 53 167 184 53 167 184 53 167 184 53 167 184 53 167 184 53 167 184 53 167 184 53 167 184 53 167 184 53 167 184 53 167 184 53 167 184 53 167 184 53 167 184 53 167 184 53 167 184 53 167 184 53 167 184 53 167 184 53 167 184 53 167 184 53 167 184 53 167 184 53 167 184 53 167 184 53 167 184 53 167 184 53 123 200 40 123 200 40 123 200 40 123 200 40 123 200 40 123 200 40 123 200 40 123 200 40 123 200 40 123 200 40 123 200 40 123 200 40 123 200 40 123 200 40 123 200 40 123 200 40 123 200 40 123 200 40 123 200 40 123 200 40 123 200 40 123 200 40 123 200 40 123 200 40 123 200 40 123 200 40 123 200 40 123 200 40 123 200 40 123 200 40 123 200 40 123 200 40 123 200 40 123 200 40 123 200 40 123 200 40 123 200 40 123 200 40 123 200 40 123 200 40 123 200 40 123 200 40 123 200 40 123 200 40 123 200 40 123 200 40 123 200 40 123 200 40 123 200 40 123 200 40 123 200 40 123 200 40 123 200 40 123 200 40 123 200 40 123 200 40 123 200 40 123 200 40 123 200 40 123 200 40 123 200 40 123 200 40 123 200 40 123 200 40 123 200 40 123 200 40 123 200 40 123 200 40 123 200 40 123 200 40 123 200 40 123 200 40 123 200 40 123 200 40 123 200 40 123 200 40 123 200 40 123 200 40 123 200 40 123 200 40 123 200 40 123 200 40 123 200 40 123 200 40 123 200 40 123 200 40 123 200 40 123 200 40 123 200 40 123 200 40 123 200 40 123 200 40 123 200 40 123 200 40 123 200 40 123 200 40 123 200 40 123 200 40 123 200 40 123 200 40 123 200 40 123 200 40 123 200 40 123 200 40 123 200 40 123 200 40 123 200 40 123 200 40 123 200 40 123 200 40 123 200 40 123 200 40 123 200 40 123 200 40 123 200 40 123 200 40 123 200 40 123 200 40 123 200 40 123 200 40 123 200 40 123 200 40 123 200 40 123 200 40 123 200 40 123 200 40 123 200 40 123 200 40 123 200 40 123 200 40 123 200 40 123 200 40 123 200 40 123 200 40 123 200 40 123 200 40 123 200 40 123 200 40 123 200 40 123 200 40 123 200 40 123 200 40 123 200 40 123 200 40 123 200 40 123 200 40 123 200 40 123 200 40 123 200 40 123 200 40 123 200 40 123 200 40 123 200 40 123 200 40 123 200 40 123 200 40 123 200 40 123 200 40 123 200 40 123 200 40 123 200 40 123 200 40 123 200 40 123 200 40 123 200 40 123 200 40 123 200 40 123 200 40 123 200 40 123 200 40 123 200 40 123 200 40 123 200 40 123 200 40 123 200 40 123 200 40 123 200 40 123 200 40 123 200 40 123 200 40 123 200 40 123 200 40 123 200 40 123 200 40 123 200 40 123 200 40 123 200 40 123 200 40 123 200 40 123 200 40 123 200 40 123 200 40 123 200 40 123 200 40 123 200 40 123 200 40 123 200 40 123 200 40 123 200 40 123 200 40 59 84 58 59 84 58 59 84 58 59 84 58 59 84 58 59 84 58 59 84 58 59 84 58 59 84 58 59 84 58 59 84 58 59 84 58 59 84 58 59 84 58 59 84 58 59 84 58 59 84 58 59 84 58 59 84 58 59 84 58 59 84 58 59 84 58 59 84 58 59 84 58 59 84 58 59 84 58 59 84 58 59 84 58 59 84 58 59 84 58 59 84 58 59 84 58 59 84 58 59 84 58 59 84 58 59 84 58 59 84 58 59 84 58 59 84 58 59 84 58 59 84 58 59 84 58 59 84 58 59 84 58 59 84 58 59 84 58 59 84 58 59 84 58 59 84 58 59 84 58 59 84 58 59 84 58 59 84 58 59 84 58 59 84 58 59 84 58 59 84 58 59 84 58 59 84 58 59 84 58 59 84 58 59 84 58 59 84 58 59 84 58 59 84 58 59 84 58 59 84 58 59 84 58 59 84 58 59 84 58 59 84 58 59 84 58 59 84 58 59 84 58 59 84 58 59 84 58 59 84 58 59 84 58 59 84 58 59 84 58 59 84 58 59 84 58 59 84 58 59 84 58 59 84 58 59 84 58 59 84 58 59 84 58 59 84 58 59 84 58 59 84 58 59 84 58 59 84 58 59 84 58 59 84 58 59 84 58 59 84 58 59 84 58 59 84 58 59 84 58 59 84 58 59 84 58 59 84 58 59 84 58 59 84 58 59 84 58 59 84 58 59 84 58 59 84 58 59 84 58 59 84 58 59 84 58 59 84 58 59 84 58 59 84 58 59 84 58 59 84 58 59 84 58 59 84 58 59 84 58 59 84 58 59 84 58 59 84 58 59 84 58 59 84 58 59 84 58 59 84 58 59 84 58 59 84 58 59 84 58 59 84 58 59 84 58 59 84 58 59 84 58 59 84 58 59 84 58 59 84 58 59 84 58 59 84 58 59 84 58 59 84 58 59 84 58 59 84 58 59 84 58 59 84 58 59 84 58 59 84 58 59 84 58 59 84 58 59 84 58 59 84 58 59 84 58 59 84 58 59 84 58 59 84 58 59 84 58 59 84 58 59 84 58 59 84 58 59 84 58 59 84 58 59 84 58 59 84 58 59 84 58 59 84 58 59 84 58 59 84 58 59 84 58 59 84 58 59 84 58 59 84 58 59 84 58 59 84 58 59 84 58 59 84 58 59 84 58 59 84 58 59 84 58 59 84 58 59 84 58 59 84 58 59 84 58 59 84 58 59 84 58 59 84 58 59 84 58 59 84 58 59 84 58 59 84 58 59 84 58 59 84 58 59 84 58 59 84 58 59 84 58 59 84 58 59 84 58 59 84 58 59 84 58 59 84 58 59 84 58 123 200 40 123 200 40 123 200 40 123 200 40 123 200 40 123 200 40 123 200 40 123 200 40 123 200 40 123 200 40 123 200 40 123 200 40 123 200 40 123 200 40 123 200 40 123 200 40 123 200 40 123 200 40 123 200 40 123 200 40 123 200 40 123 200 40 123 200 40 123 200 40 123 200 40 123 200 40 123 200 40 123 200 40 123 200 40 123 200 40 123 200 40 123 200 40 123 200 40 123 200 40 123 200 40 123 200 40 123 200 40 123 200 40 123 200 40 123 200 40 123 200 40 123 200 40 123 200 40 123 200 40 123 200 40 123 200 40 123 200 40 123 200 40 123 200 40 123 200 40 123 200 40 123 200 40 123 200 40 123 200 40 123 200 40 123 200 40 123 200 40 123 200 40 123 200 40 123 200 40 123 200 40 123 200 40 123 200 40 123 200 40 123 200 40 123 200 40 123 200 40 123 200 40 123 200 40 123 200 40 123 200 40 123 200 40 123 200 40 123 200 40 123 200 40 123 200 40 123 200 40 123 200 40 123 200 40 123 200 40 123 200 40 123 200 40 123 200 40 123 200 40 123 200 40 123 200 40 123 200 40 123 200 40 123 200 40 123 200 40 123 200 40 123 200 40 123 200 40 123 200 40 123 200 40 123 200 40 123 200 40 123 200 40 123 200 40 123 200 40 123 200 40 123 200 40 123 200 40 123 200 40 123 200 40 123 200 40 123 200 40 123 200 40 123 200 40 123 200 40 123 200 40 123 200 40 123 200 40 123 200 40 123 200 40 123 200 40 123 200 40 123 200 40 123 200 40 123 200 40 123 200 40 123 200 40 123 200 40 123 200 40 123 200 40 123 200 40 123 200 40 123 200 40 123 200 40 123 200 40 123 200 40 123 200 40 123 200 40 123 200 40 123 200 40 123 200 40 123 200 40 123 200 40 123 200 40 123 200 40 123 200 40 123 200 40 123 200 40 123 200 40 123 200 40 123 200 40 123 200 40 123 200 40 123 200 40 123 200 40 123 200 40 123 200 40 123 200 40 123 200 40 123 200 40 123 200 40 123 200 40 123 200 40 123 200 40 123 200 40 123 200 40 123 200 40 123 200 40 123 200 40 123 200 40 123 200 40 123 200 40 123 200 40 123 200 40 123 200 40 123 200 40 123 200 40 123 200 40 123 200 40 123 200 40 123 200 40 123 200 40 123 200 40 123 200 40 123 200 40 123 200 40 123 200 40 123 200 40 123 200 40 123 200 40 123 200 40 123 200 40 123 200 40 123 200 40 123 200 40 123 200 40 123 200 40 123 200 40 123 200 40 123 200 40 123 200 40 123 200 40 123 200 40 123 200 40 123 200 40 67 233 2 67 233 2 67 233 2 67 233 2 67 233 2 67 233 2 67 233 2 67 233 2 67 233 2 67 233 2 67 233 2 67 233 2 67 233 2 67 233 2 67 233 2 67 233 2 67 233 2 67 233 2 67 233 2 67 233 2 67 233 2 67 233 2 67 233 2 67 233 2 67 233 2 67 233 2 67 233 2 67 233 2 67 233 2 67 233 2 67 233 2 67 233 2 67 233 2 67 233 2 67 233 2 67 233 2 67 233 2 67 233 2 67 233 2 67 233 2 67 233 2 67 233 2 67 233 2 67 233 2 67 233 2 67 233 2 67 233 2 67 233 2 67 233 2 67 233 2 67 233 2 67 233 2 67 233 2 67 233 2 67 233 2 67 233 2 67 233 2 67 233 2 67 233 2 67 233 2 67 233 2 67 233 2 67 233 2 67 233 2 67 233 2 67 233 2 67 233 2 67 233 2 67 233 2 67 233 2 67 233 2 67 233 2 67 233 2 67 233 2 67 233 2 67 233 2 67 233 2 67 233 2 67 233 2 67 233 2 67 233 2 67 233 2 67 233 2 67 233 2 67 233 2 67 233 2 67 233 2 67 233 2 67 233 2 67 233 2 67 233 2 67 233 2 67 233 2 67 233 2 67 233 2 67 233 2 67 233 2 67 233 2 67 233 2 67 233 2 67 233 2 67 233 2 67 233 2 67 233 2 67 233 2 67 233 2 67 233 2 67 233 2 67 233 2 67 233 2 67 233 2 67 233 2 67 233 2 67 233 2 67 233 2 67 233 2 67 233 2 67 233 2 67 233 2 67 233 2 67 233 2 67 233 2 67 233 2 67 233 2 67 233 2 67 233 2 67 233 2 67 233 2 67 233 2 67 233 2 67 233 2 67 233 2 67 233 2 67 233 2 67 233 2 67 233 2 67 233 2 67 233 2 67 233 2 67 233 2 67 233 2 67 233 2 67 233 2 67 233 2 67 233 2 67 233 2 67 233 2 67 233 2 67 233 2 67 233 2 67 233 2 67 233 2 67 233 2 67 233 2 67 233 2 67 233 2 67 233 2 67 233 2 67 233 2 67 233 2 67 233 2 67 233 2 67 233 2 67 233 2 67 233 2 67 233 2 67 233 2 67 233 2 67 233 2 67 233 2 67 233 2 67 233 2 67 233 2 67 233 2 67 233 2 67 233 2 67 233 2 67 233 2 67 233 2 67 233 2 67 233 2 67 233 2 67 233 2 67 233 2 67 233 2 67 233 2 67 233 2 67 233 2 67 233 2 67 233 2 67 233 2 67 233 2 67 233 2 67 233 2 67 233 2 67 233 2 67 233 2 67 233 2 67 233 2 67 233 2 123 200 40 123 200 40 123 200 40 123 200 40 123 200 40 123 200 40 123 200 40 123 200 40 123 200 40 123 200 40 123 200 40 123 200 40 123 200 40 123 200 40 123 200 40 123 200 40 123 200 40 123 200 40 123 200 40 123 200 40 123 200 40 123 200 40 123 200 40 123 200 40 123 200 40 123 200 40 123 200 40 123 200 40 123 200 40 123 200 40 123 200 40 123 200 40 123 200 40 123 200 40 123 200 40 123 200 40 123 200 40 123 200 40 123 200 40 123 200 40 123 200 40 123 200 40 123 200 40 123 200 40 123 200 40 123 200 40 123 200 40 123 200 40 123 200 40 123 200 40 123 200 40 123 200 40 123 200 40 123 200 40 123 200 40 123 200 40 123 200 40 123 200 40 123 200 40 123 200 40 123 200 40 123 200 40 123 200 40 123 200 40 123 200 40 123 200 40 123 200 40 123 200 40 123 200 40 123 200 40 123 200 40 123 200 40 123 200 40 123 200 40 123 200 40 123 200 40 123 200 40 123 200 40 123 200 40 123 200 40 123 200 40 123 200 40 123 200 40 123 200 40 123 200 40 123 200 40 123 200 40 123 200 40 123 200 40 123 200 40 123 200 40 123 200 40 123 200 40 123 200 40 123 200 40 123 200 40 123 200 40 123 200 40 123 200 40 123 200 40 123 200 40 123 200 40 123 200 40 123 200 40 123 200 40 123 200 40 123 200 40 123 200 40 123 200 40 123 200 40 123 200 40 123 200 40 123 200 40 123 200 40 123 200 40 123 200 40 123 200 40 123 200 40 123 200 40 123 200 40 123 200 40 123 200 40 123 200 40 123 200 40 123 200 40 123 200 40 123 200 40 123 200 40 123 200 40 123 200 40 123 200 40 123 200 40 123 200 40 123 200 40 123 200 40 123 200 40 123 200 40 123 200 40 123 200 40 123 200 40 123 200 40 123 200 40 123 200 40 123 200 40 123 200 40 123 200 40 123 200 40 123 200 40 123 200 40 123 200 40 123 200 40 123 200 40 123 200 40 123 200 40 123 200 40 123 200 40 123 200 40 123 200 40 123 200 40 123 200 40 123 200 40 123 200 40 123 200 40 123 200 40 123 200 40 123 200 40 123 200 40 123 200 40 123 200 40 123 200 40 123 200 40 123 200 40 123 200 40 123 200 40 123 200 40 123 200 40 123 200 40 123 200 40 123 200 40 123 200 40 123 200 40 123 200 40 123 200 40 123 200 40 123 200 40 123 200 40 123 200 40 123 200 40 123 200 40 123 200 40 123 200 40 123 200 40 123 200 40 123 200 40 123 200 40 123 200 40 123 200 40 123 200 40 123 200 40 123 200 40 190 25 167 190 25 167 190 25 167 190 25 167 190 25 167 190 25 167 190 25 167 190 25 167 190 25 167 190 25 167 190 25 167 190 25 167 190 25 167 190 25 167 190 25 167 190 25 167 190 25 167 190 25 167 190 25 167 190 25 167 190 25 167 190 25 167 190 25 167 190 25 167 190 25 167 190 25 167 190 25 167 190 25 167 190 25 167 190 25 167 190 25 167 190 25 167 190 25 167 190 25 167 190 25 167 190 25 167 190 25 167 190 25 167 190 25 167 190 25 167 190 25 167 190 25 167 190 25 167 190 25 167 190 25 167 190 25 167 190 25 167 190 25 167 190 25 167 190 25 167 190 25 167 190 25 167 190 25 167 190 25 167 190 25 167 190 25 167 190 25 167 190 25 167 190 25 167 190 25 167 190 25 167 190 25 167 190 25 167 190 25 167 190 25 167 190 25 167 190 25 167 190 25 167 190 25 167 190 25 167 190 25 167 190 25 167 190 25 167 190 25 167 190 25 167 190 25 167 190 25 167 190 25 167 190 25 167 190 25 167 190 25 167 190 25 167 190 25 167 190 25 167 190 25 167 190 25 167 190 25 167 190 25 167 190 25 167 190 25 167 190 25 167 190 25 167 190 25 167 190 25 167 190 25 167 190 25 167 190 25 167 190 25 167 190 25 167 190 25 167 190 25 167 190 25 167 190 25 167 190 25 167 190 25 167 190 25 167 190 25 167 190 25 167 190 25 167 190 25 167 190 25 167 190 25 167 190 25 167 190 25 167 190 25 167 190 25 167 190 25 167 190 25 167 190 25 167 190 25 167 190 25 167 190 25 167 190 25 167 190 25 167 190 25 167 190 25 167 190 25 167 190 25 167 190 25 167 190 25 167 190 25 167 190 25 167 190 25 167 190 25 167 190 25 167 190 25 167 190 25 167 190 25 167 190 25 167 190 25 167 190 25 167 190 25 167 190 25 167 190 25 167 190 25 167 190 25 167 190 25 167 190 25 167 190 25 167 190 25 167 190 25 167 190 25 167 190 25 167 190 25 167 190 25 167 190 25 167 190 25 167 190 25 167 190 25 167 190 25 167 190 25 167 190 25 167 190 25 167 190 25 167 190 25 167 190 25 167 190 25 167 190 25 167 190 25 167 190 25 167 190 25 167 190 25 167 190 25 167 190 25 167 190 25 167 190 25 167 190 25 167 190 25 167 190 25 167 190 25 167 190 25 167 190 25 167 190 25 167 190 25 167 190 25 167 190 25 167 190 25 167 190 25 167 190 25 167 190 25 167 190 25 167 190 25 167 190 25 167 190 25 167 190 25 167 190 25 167 190 25 167 190 25 167 190 25 167 190 25 167 123 200 40 123 200 40 123 200 40 123 200 40 123 200 40 123 200 40 123 200 40 123 200 40 123 200 40 123 200 40 123 200 40 123 200 40 123 200 40 123 200 40 123 200 40 123 200 40 123 200 40 123 200 40 123 200 40 123 200 40 123 200 40 123 200 40 123 200 40 123 200 40 123 200 40 123 200 40 123 200 40 123 200 40 123 200 40 123 200 40 123 200 40 123 200 40 123 200 40 123 200 40 123 200 40 123 200 40 123 200 40 123 200 40 123 200 40 123 200 40 123 200 40 123 200 40 123 200 40 123 200 40 123 200 40 123 200 40 123 200 40 123 200 40 123 200 40 123 200 40 123 200 40 123 200 40 123 200 40 123 200 40 123 200 40 123 200 40 123 200 40 123 200 40 123 200 40 123 200 40 123 200 40 123 200 40 123 200 40 123 200 40 123 200 40 123 200 40 123 200 40 123 200 40 123 200 40 123 200 40 123 200 40 123 200 40 123 200 40 123 200 40 123 200 40 123 200 40 123 200 40 123 200 40 123 200 40 123 200 40 123 200 40 123 200 40 123 200 40 123 200 40 123 200 40 123 200 40 123 200 40 123 200 40 123 200 40 123 200 40 123 200 40 123 200 40 123 200 40 123 200 40 123 200 40 123 200 40 123 200 40 123 200 40 123 200 40 123 200 40 123 200 40 123 200 40 123 200 40 123 200 40 123 200 40 123 200 40 123 200 40 123 200 40 123 200 40 123 200 40 123 200 40 123 200 40 123 200 40 123 200 40 123 200 40 123 200 40 123 200 40 123 200 40 123 200 40 123 200 40 123 200 40 123 200 40 123 200 40 123 200 40 123 200 40 123 200 40 123 200 40 123 200 40 123 200 40 123 200 40 123 200 40 123 200 40 123 200 40 123 200 40 123 200 40 123 200 40 123 200 40 123 200 40 123 200 40 123 200 40 123 200 40 123 200 40 123 200 40 123 200 40 123 200 40 123 200 40 123 200 40 123 200 40 123 200 40 123 200 40 123 200 40 123 200 40 123 200 40 123 200 40 123 200 40 123 200 40 123 200 40 123 200 40 123 200 40 123 200 40 123 200 40 123 200 40 123 200 40 123 200 40 123 200 40 123 200 40 123 200 40 123 200 40 123 200 40 123 200 40 123 200 40 123 200 40 123 200 40 123 200 40 123 200 40 123 200 40 123 200 40 123 200 40 123 200 40 123 200 40 123 200 40 123 200 40 123 200 40 123 200 40 123 200 40 123 200 40 123 200 40 123 200 40 123 200 40 123 200 40 123 200 40 123 200 40 123 200 40 123 200 40 123 200 40 123 200 40 123 200 40 123 200 40 123 200 40 123 200 40 187 92 143 187 92 143 187 92 143 187 92 143 187 92 143 187 92 143 187 92 143 187 92 143 187 92 143 187 92 143 187 92 143 187 92 143 187 92 143 187 92 143 187 92 143 187 92 143 187 92 143 187 92 143 187 92 143 187 92 143 187 92 143 187 92 143 187 92 143 187 92 143 187 92 143 187 92 143 187 92 143 187 92 143 187 92 143 187 92 143 187 92 143 187 92 143 187 92 143 187 92 143 187 92 143 187 92 143 187 92 143 187 92 143 187 92 143 187 92 143 187 92 143 187 92 143 187 92 143 187 92 143 187 92 143 187 92 143 187 92 143 187 92 143 187 92 143 187 92 143 187 92 143 187 92 143 187 92 143 187 92 143 187 92 143 187 92 143 187 92 143 187 92 143 187 92 143 187 92 143 187 92 143 187 92 143 187 92 143 187 92 143 187 92 143 187 92 143 187 92 143 187 92 143 187 92 143 187 92 143 187 92 143 187 92 143 187 92 143 187 92 143 187 92 143 187 92 143 187 92 143 187 92 143 187 92 143 187 92 143 187 92 143 187 92 143 187 92 143 187 92 143 187 92 143 187 92 143 187 92 143 187 92 143 187 92 143 187 92 143 187 92 143 187 92 143 187 92 143 187 92 143 187 92 143 187 92 143 187 92 143 187 92 143 187 92 143 187 92 143 187 92 143 187 92 143 187 92 143 187 92 143 187 92 143 187 92 143 187 92 143 187 92 143 187 92 143 187 92 143 187 92 143 187 92 143 187 92 143 187 92 143 187 92 143 187 92 143 187 92 143 187 92 143 187 92 143 187 92 143 187 92 143 187 92 143 187 92 143 187 92 143 187 92 143 187 92 143 187 92 143 187 92 143 187 92 143 187 92 143 187 92 143 187 92 143 187 92 143 187 92 143 187 92 143 187 92 143 187 92 143 187 92 143 187 92 143 187 92 143 187 92 143 187 92 143 187 92 143 187 92 143 187 92 143 187 92 143 187 92 143 187 92 143 187 92 143 187 92 143 187 92 143 187 92 143 187 92 143 187 92 143 187 92 143 187 92 143 187 92 143 187 92 143 187 92 143 187 92 143 187 92 143 187 92 143 187 92 143 187 92 143 187 92 143 187 92 143 187 92 143 187 92 143 187 92 143 187 92 143 187 92 143 187 92 143 187 92 143 187 92 143 187 92 143 187 92 143 187 92 143 187 92 143 187 92 143 187 92 143 187 92 143 187 92 143 187 92 143 187 92 143 187 92 143 187 92 143 187 92 143 187 92 143 187 92 143 187 92 143 187 92 143 187 92 143 187 92 143 187 92 143 187 92 143 187 92 143 187 92 143 187 92 143 187 92 143 187 92 143 123 200 40 123 200 40 123 200 40 123 200 40 123 200 40 123 200 40 123 200 40 123 200 40 123 200 40 123 200 40 123 200 40 123 200 40 123 200 40 123 200 40 123 200 40 123 200 40 123 200 40 123 200 40 123 200 40 123 200 40 123 200 40 123 200 40 123 200 40 123 200 40 123 200 40 123 200 40 123 200 40 123 200 40 123 200 40 123 200 40 123 200 40 123 200 40 123 200 40 123 200 40 123 200 40 123 200 40 123 200 40 123 200 40 123 200 40 123 200 40 123 200 40 123 200 40 123 200 40 123 200 40 123 200 40 123 200 40 123 200 40 123 200 40 123 200 40 123 200 40 123 200 40 123 200 40 123 200 40 123 200 40 123 200 40 123 200 40 123 200 40 123 200 40 123 200 40 123 200 40 123 200 40 123 200 40 123 200 40 123 200 40 123 200 40 123 200 40 123 200 40 123 200 40 123 200 40 123 200 40 123 200 40 123 200 40 123 200 40 123 200 40 123 200 40 123 200 40 123 200 40 123 200 40 123 200 40 123 200 40 123 200 40 123 200 40 123 200 40 123 200 40 123 200 40 123 200 40 123 200 40 123 200 40 123 200 40 123 200 40 123 200 40 123 200 40 123 200 40 123 200 40 123 200 40 123 200 40 123 200 40 123 200 40 123 200 40 123 200 40 123 200 40 123 200 40 123 200 40 123 200 40 123 200 40 123 200 40 123 200 40 123 200 40 123 200 40 123 200 40 123 200 40 123 200 40 123 200 40 123 200 40 123 200 40 123 200 40 123 200 40 123 200 40 123 200 40 123 200 40 123 200 40 123 200 40 123 200 40 123 200 40 123 200 40 123 200 40 123 200 40 123 200 40 123 200 40 123 200 40 123 200 40 123 200 40 123 200 40 123 200 40 123 200 40 123 200 40 123 200 40 123 200 40 123 200 40 123 200 40 123 200 40 123 200 40 123 200 40 123 200 40 123 200 40 123 200 40 123 200 40 123 200 40 123 200 40 123 200 40 123 200 40 123 200 40 123 200 40 123 200 40 123 200 40 123 200 40 123 200 40 123 200 40 123 200 40 123 200 40 123 200 40 123 200 40 123 200 40 123 200 40 123 200 40 123 200 40 123 200 40 123 200 40 123 200 40 123 200 40 123 200 40 123 200 40 123 200 40 123 200 40 123 200 40 123 200 40 123 200 40 123 200 40 123 200 40 123 200 40 123 200 40 123 200 40 123 200 40 123 200 40 123 200 40 123 200 40 123 200 40 123 200 40 123 200 40 123 200 40 123 200 40 123 200 40 123 200 40 123 200 40 123 200 40 123 200 40 123 200 40 123 200 40 123 200 40 123 200 40 235 216 222 235 216 222 235 216 222 235 216 222 235 216 222 235 216 222 235 216 222 235 216 222 235 216 222 235 216 222 235 216 222 235 216 222 235 216 222 235 216 222 235 216 222 235 216 222 235 216 222 235 216 222 235 216 222 235 216 222 235 216 222 235 216 222 235 216 222 235 216 222 235 216 222 235 216 222 235 216 222 235 216 222 235 216 222 235 216 222 235 216 222 235 216 222 235 216 222 235 216 222 235 216 222 235 216 222 235 216 222 235 216 222 235 216 222 235 216 222 235 216 222 235 216 222 235 216 222 235 216 222 235 216 222 235 216 222 235 216 222 235 216 222 235 216 222 235 216 222 235 216 222 235 216 222 235 216 222 235 216 222 235 216 222 235 216 222 235 216 222 235 216 222 235 216 222 235 216 222 235 216 222 235 216 222 235 216 222 235 216 222 235 216 222 235 216 222 235 216 222 235 216 222 235 216 222 235 216 222 235 216 222 235 216 222 235 216 222 235 216 222 235 216 222 235 216 222 235 216 222 235 216 222 235 216 222 235 216 222 235 216 222 235 216 222 235 216 222 235 216 222 235 216 222 235 216 222 235 216 222 235 216 222 235 216 222 235 216 222 235 216 222 235 216 222 235 216 222 235 216 222 235 216 222 235 216 222 235 216 222 235 216 222 235 216 222 235 216 222 235 216 222 235 216 222 235 216 222 235 216 222 235 216 222 235 216 222 235 216 222 235 216 222 235 216 222 235 216 222 235 216 222 235 216 222 235 216 222 235 216 222 235 216 222 235 216 222 235 216 222 235 216 222 235 216 222 235 216 222 235 216 222 235 216 222 235 216 222 235 216 222 235 216 222 235 216 222 235 216 222 235 216 222 235 216 222 235 216 222 235 216 222 235 216 222 235 216 222 235 216 222 235 216 222 235 216 222 235 216 222 235 216 222 235 216 222 235 216 222 235 216 222 235 216 222 235 216 222 235 216 222 235 216 222 235 216 222 235 216 222 235 216 222 235 216 222 235 216 222 235 216 222 235 216 222 235 216 222 235 216 222 235 216 222 235 216 222 235 216 222 235 216 222 235 216 222 235 216 222 235 216 222 235 216 222 235 216 222 235 216 222 235 216 222 235 216 222 235 216 222 235 216 222 235 216 222 235 216 222 235 216 222 235 216 222 235 216 222 235 216 222 235 216 222 235 216 222 235 216 222 235 216 222 235 216 222 235 216 222 235 216 222 235 216 222 235 216 222 235 216 222 235 216 222 235 216 222 235 216 222 235 216 222 235 216 222 235 216 222 235 216 222 235 216 222 235 216 222 235 216 222 235 216 222 235 216 222 235 216 222 235 216 222 235 216 222 235 216 222 123 200 40 123 200 40 123 200 40 123 200 40 123 200 40 123 200 40 123 200 40 123 200 40 123 200 40 123 200 40 123 200 40 123 200 40 123 200 40 123 200 40 123 200 40 123 200 40 123 200 40 123 200 40 123 200 40 123 200 40 123 200 40 123 200 40 123 200 40 123 200 40 123 200 40 123 200 40 123 200 40 123 200 40 123 200 40 123 200 40 123 200 40 123 200 40 123 200 40 123 200 40 123 200 40 123 200 40 123 200 40 123 200 40 123 200 40 123 200 40 123 200 40 123 200 40 123 200 40 123 200 40 123 200 40 123 200 40 123 200 40 123 200 40 123 200 40 123 200 40 123 200 40 123 200 40 123 200 40 123 200 40 123 200 40 123 200 40 123 200 40 123 200 40 123 200 40 123 200 40 123 200 40 123 200 40 123 200 40 123 200 40 123 200 40 123 200 40 123 200 40 123 200 40 123 200 40 123 200 40 123 200 40 123 200 40 123 200 40 123 200 40 123 200 40 123 200 40 123 200 40 123 200 40 123 200 40 123 200 40 123 200 40 123 200 40 123 200 40 123 200 40 123 200 40 123 200 40 123 200 40 123 200 40 123 200 40 123 200 40 123 200 40 123 200 40 123 200 40 123 200 40 123 200 40 123 200 40 123 200 40 123 200 40 123 200 40 123 200 40 123 200 40 123 200 40 123 200 40 123 200 40 123 200 40 123 200 40 123 200 40 123 200 40 123 200 40 123 200 40 123 200 40 123 200 40 123 200 40 123 200 40 123 200 40 123 200 40 123 200 40 123 200 40 123 200 40 123 200 40 123 200 40 123 200 40 123 200 40 123 200 40 123 200 40 123 200 40 123 200 40 123 200 40 123 200 40 123 200 40 123 200 40 123 200 40 123 200 40 123 200 40 123 200 40 123 200 40 123 200 40 123 200 40 123 200 40 123 200 40 123 200 40 123 200 40 123 200 40 123 200 40 123 200 40 123 200 40 123 200 40 123 200 40 123 200 40 123 200 40 123 200 40 123 200 40 123 200 40 123 200 40 123 200 40 123 200 40 123 200 40 123 200 40 123 200 40 123 200 40 123 200 40 123 200 40 123 200 40 123 200 40 123 200 40 123 200 40 123 200 40 123 200 40 123 200 40 123 200 40 123 200 40 123 200 40 123 200 40 123 200 40 123 200 40 123 200 40 123 200 40 123 200 40 123 200 40 123 200 40 123 200 40 123 200 40 123 200 40 123 200 40 123 200 40 123 200 40 123 200 40 123 200 40 123 200 40 123 200 40 123 200 40 123 200 40 123 200 40 123 200 40 123 200 40 123 200 40 123 200 40 123 200 40 123 200 40 123 200 40 182 130 105 182 130 105 182 130 105 182 130 105 182 130 105 182 130 105 182 130 105 182 130 105 182 130 105 182 130 105 182 130 105 182 130 105 182 130 105 182 130 105 182 130 105 182 130 105 182 130 105 182 130 105 182 130 105 182 130 105 182 130 105 182 130 105 182 130 105 182 130 105 182 130 105 182 130 105 182 130 105 182 130 105 182 130 105 182 130 105 182 130 105 182 130 105 182 130 105 182 130 105 182 130 105 182 130 105 182 130 105 182 130 105 182 130 105 182 130 105 182 130 105 182 130 105 182 130 105 182 130 105 182 130 105 182 130 105 182 130 105 182 130 105 182 130 105 182 130 105 182 130 105 182 130 105 182 130 105 182 130 105 182 130 105 182 130 105 182 130 105 182 130 105 182 130 105 182 130 105 182 130 105 182 130 105 182 130 105 182 130 105 182 130 105 182 130 105 182 130 105 182 130 105 182 130 105 182 130 105 182 130 105 182 130 105 182 130 105 182 130 105 182 130 105 182 130 105 182 130 105 182 130 105 182 130 105 182 130 105 182 130 105 182 130 105 182 130 105 182 130 105 182 130 105 182 130 105 182 130 105 182 130 105 182 130 105 182 130 105 182 130 105 182 130 105 182 130 105 182 130 105 182 130 105 182 130 105 182 130 105 182 130 105 182 130 105 182 130 105 182 130 105 182 130 105 182 130 105 182 130 105 182 130 105 182 130 105 182 130 105 182 130 105 182 130 105 182 130 105 182 130 105 182 130 105 182 130 105 182 130 105 182 130 105 182 130 105 182 130 105 182 130 105 182 130 105 182 130 105 182 130 105 182 130 105 182 130 105 182 130 105 182 130 105 182 130 105 182 130 105 182 130 105 182 130 105 182 130 105 182 130 105 182 130 105 182 130 105 182 130 105 182 130 105 182 130 105 182 130 105 182 130 105 182 130 105 182 130 105 182 130 105 182 130 105 182 130 105 182 130 105 182 130 105 182 130 105 182 130 105 182 130 105 182 130 105 182 130 105 182 130 105 182 130 105 182 130 105 182 130 105 182 130 105 182 130 105 182 130 105 182 130 105 182 130 105 182 130 105 182 130 105 182 130 105 182 130 105 182 130 105 182 130 105 182 130 105 182 130 105 182 130 105 182 130 105 182 130 105 182 130 105 182 130 105 182 130 105 182 130 105 182 130 105 182 130 105 182 130 105 182 130 105 182 130 105 182 130 105 182 130 105 182 130 105 182 130 105 182 130 105 182 130 105 182 130 105 182 130 105 182 130 105 182 130 105 182 130 105 182 130 105 182 130 105 182 130 105 182 130 105 182 130 105 182 130 105 182 130 105 182 130 105 182 130 105 182 130 105 123 200 40 123 200 40 123 200 40 123 200 40 123 200 40 123 200 40 123 200 40 123 200 40 123 200 40 123 200 40 123 200 40 123 200 40 123 200 40 123 200 40 123 200 40 123 200 40 123 200 40 123 200 40 123 200 40 123 200 40 123 200 40 123 200 40 123 200 40 123 200 40 123 200 40 123 200 40 123 200 40 123 200 40 123 200 40 123 200 40 123 200 40 123 200 40 123 200 40 123 200 40 123 200 40 123 200 40 123 200 40 123 200 40 123 200 40 123 200 40 123 200 40 123 200 40 123 200 40 123 200 40 123 200 40 123 200 40 123 200 40 123 200 40 123 200 40 123 200 40 123 200 40 123 200 40 123 200 40 123 200 40 123 200 40 123 200 40 123 200 40 123 200 40 123 200 40 123 200 40 123 200 40 123 200 40 123 200 40 123 200 40 123 200 40 123 200 40 123 200 40 123 200 40 123 200 40 123 200 40 123 200 40 123 200 40 123 200 40 123 200 40 123 200 40 123 200 40 123 200 40 123 200 40 123 200 40 123 200 40 123 200 40 123 200 40 123 200 40 123 200 40 123 200 40 123 200 40 123 200 40 123 200 40 123 200 40 123 200 40 123 200 40 123 200 40 123 200 40 123 200 40 123 200 40 123 200 40 123 200 40 123 200 40 123 200 40 123 200 40 123 200 40 123 200 40 123 200 40 123 200 40 123 200 40 123 200 40 123 200 40 123 200 40 123 200 40 123 200 40 123 200 40 123 200 40 123 200 40 123 200 40 123 200 40 123 200 40 123 200 40 123 200 40 123 200 40 123 200 40 123 200 40 123 200 40 123 200 40 123 200 40 123 200 40 123 200 40 123 200 40 123 200 40 123 200 40 123 200 40 123 200 40 123 200 40 123 200 40 123 200 40 123 200 40 123 200 40 123 200 40 123 200 40 123 200 40 123 200 40 123 200 40 123 200 40 123 200 40 123 200 40 123 200 40 123 200 40 123 200 40 123 200 40 123 200 40 123 200 40 123 200 40 123 200 40 123 200 40 123 200 40 123 200 40 123 200 40 123 200 40 123 200 40 123 200 40 123 200 40 123 200 40 123 200 40 123 200 40 123 200 40 123 200 40 123 200 40 123 200 40 123 200 40 123 200 40 123 200 40 123 200 40 123 200 40 123 200 40 123 200 40 123 200 40 123 200 40 123 200 40 123 200 40 123 200 40 123 200 40 123 200 40 123 200 40 123 200 40 123 200 40 123 200 40 123 200 40 123 200 40 123 200 40 123 200 40 123 200 40 123 200 40 123 200 40 123 200 40 123 200 40 123 200 40 123 200 40 123 200 40 123 200 40 123 200 40 123 200 40 118 88 52 118 88 52 118 88 52 118 88 52 118 88 52 118 88 52 118 88 52 118 88 52 118 88 52 118 88 52 118 88 52 118 88 52 118 88 52 118 88 52 118 88 52 118 88 52 118 88 52 118 88 52 118 88 52 118 88 52 118 88 52 118 88 52 118 88 52 118 88 52 118 88 52 118 88 52 118 88 52 118 88 52 118 88 52 118 88 52 118 88 52 118 88 52 118 88 52 118 88 52 118 88 52 118 88 52 118 88 52 118 88 52 118 88 52 118 88 52 118 88 52 118 88 52 118 88 52 118 88 52 118 88 52 118 88 52 118 88 52 118 88 52 118 88 52 118 88 52 118 88 52 118 88 52 118 88 52 118 88 52 118 88 52 118 88 52 118 88 52 118 88 52 118 88 52 118 88 52 118 88 52 118 88 52 118 88 52 118 88 52 118 88 52 118 88 52 118 88 52 118 88 52 118 88 52 118 88 52 118 88 52 118 88 52 118 88 52 118 88 52 118 88 52 118 88 52 118 88 52 118 88 52 118 88 52 118 88 52 118 88 52 118 88 52 118 88 52 118 88 52 118 88 52 118 88 52 118 88 52 118 88 52 118 88 52 118 88 52 118 88 52 118 88 52 118 88 52 118 88 52 118 88 52 118 88 52 118 88 52 118 88 52 118 88 52 118 88 52 118 88 52 118 88 52 118 88 52 118 88 52 118 88 52 118 88 52 118 88 52 118 88 52 118 88 52 118 88 52 118 88 52 118 88 52 118 88 52 118 88 52 118 88 52 118 88 52 118 88 52 118 88 52 118 88 52 118 88 52 118 88 52 118 88 52 118 88 52 118 88 52 118 88 52 118 88 52 118 88 52 118 88 52 118 88 52 118 88 52 118 88 52 118 88 52 118 88 52 118 88 52 118 88 52 118 88 52 118 88 52 118 88 52 118 88 52 118 88 52 118 88 52 118 88 52 118 88 52 118 88 52 118 88 52 118 88 52 118 88 52 118 88 52 118 88 52 118 88 52 118 88 52 118 88 52 118 88 52 118 88 52 118 88 52 118 88 52 118 88 52 118 88 52 118 88 52 118 88 52 118 88 52 118 88 52 118 88 52 118 88 52 118 88 52 118 88 52 118 88 52 118 88 52 118 88 52 118 88 52 118 88 52 118 88 52 118 88 52 118 88 52 118 88 52 118 88 52 118 88 52 118 88 52 118 88 52 118 88 52 118 88 52 118 88 52 118 88 52 118 88 52 118 88 52 118 88 52 118 88 52 118 88 52 118 88 52 118 88 52 118 88 52 118 88 52 118 88 52 118 88 52 118 88 52 118 88 52 118 88 52 118 88 52 118 88 52 118 88 52 123 200 40 123 200 40 123 200 40 123 200 40 123 200 40 123 200 40 123 200 40 123 200 40 123 200 40 123 200 40 123 200 40 123 200 40 123 200 40 123 200 40 123 200 40 123 200 40 123 200 40 123 200 40 123 200 40 123 200 40 123 200 40 123 200 40 123 200 40 123 200 40 123 200 40 123 200 40 123 200 40 123 200 40 123 200 40 123 200 40 123 200 40 123 200 40 123 200 40 123 200 40 123 200 40 123 200 40 123 200 40 123 200 40 123 200 40 123 200 40 123 200 40 123 200 40 123 200 40 123 200 40 123 200 40 123 200 40 123 200 40 123 200 40 123 200 40 123 200 40 123 200 40 123 200 40 123 200 40 123 200 40 123 200 40 123 200 40 123 200 40 123 200 40 123 200 40 123 200 40 123 200 40 123 200 40 123 200 40 123 200 40 123 200 40 123 200 40 123 200 40 123 200 40 123 200 40 123 200 40 123 200 40 123 200 40 123 200 40 123 200 40 123 200 40 123 200 40 123 200 40 123 200 40 123 200 40 123 200 40 123 200 40 123 200 40 123 200 40 123 200 40 123 200 40 123 200 40 123 200 40 123 200 40 123 200 40 123 200 40 123 200 40 123 200 40 123 200 40 123 200 40 123 200 40 123 200 40 123 200 40 123 200 40 123 200 40 123 200 40 123 200 40 123 200 40 123 200 40 123 200 40 123 200 40 123 200 40 123 200 40 123 200 40 123 200 40 123 200 40 123 200 40 123 200 40 123 200 40 123 200 40 123 200 40 123 200 40 123 200 40 123 200 40 123 200 40 123 200 40 123 200 40 123 200 40 123 200 40 123 200 40 123 200 40 123 200 40 123 200 40 123 200 40 123 200 40 123 200 40 123 200 40 123 200 40 123 200 40 123 200 40 123 200 40 123 200 40 123 200 40 123 200 40 123 200 40 123 200 40 123 200 40 123 200 40 123 200 40 123 200 40 123 200 40 123 200 40 123 200 40 123 200 40 123 200 40 123 200 40 123 200 40 123 200 40 123 200 40 123 200 40 123 200 40 123 200 40 123 200 40 123 200 40 123 200 40 123 200 40 123 200 40 123 200 40 123 200 40 123 200 40 123 200 40 123 200 40 123 200 40 123 200 40 123 200 40 123 200 40 123 200 40 123 200 40 123 200 40 123 200 40 123 200 40 123 200 40 123 200 40 123 200 40 123 200 40 123 200 40 123 200 40 123 200 40 123 200 40 123 200 40 123 200 40 123 200 40 123 200 40 123 200 40 123 200 40 123 200 40 123 200 40 123 200 40 123 200 40 123 200 40 123 200 40 123 200 40 123 200 40 123 200 40 123 200 40 123 200 40 107 97 24 107 97 24 107 97 24 107 97 24 107 97 24 107 97 24 107 97 24 107 97 24 107 97 24 107 97 24 107 97 24 107 97 24 107 97 24 107 97 24 107 97 24 107 97 24 107 97 24 107 97 24 107 97 24 107 97 24 107 97 24 107 97 24 107 97 24 107 97 24 107 97 24 107 97 24 107 97 24 107 97 24 107 97 24 107 97 24 107 97 24 107 97 24 107 97 24 107 97 24 107 97 24 107 97 24 107 97 24 107 97 24 107 97 24 107 97 24 107 97 24 107 97 24 107 97 24 107 97 24 107 97 24 107 97 24 107 97 24 107 97 24 107 97 24 107 97 24 107 97 24 107 97 24 107 97 24 107 97 24 107 97 24 107 97 24 107 97 24 107 97 24 107 97 24 107 97 24 107 97 24 107 97 24 107 97 24 107 97 24 107 97 24 107 97 24 107 97 24 107 97 24 107 97 24 107 97 24 107 97 24 107 97 24 107 97 24 107 97 24 107 97 24 107 97 24 107 97 24 107 97 24 107 97 24 107 97 24 107 97 24 107 97 24 107 97 24 107 97 24 107 97 24 107 97 24 107 97 24 107 97 24 107 97 24 107 97 24 107 97 24 107 97 24 107 97 24 107 97 24 107 97 24 107 97 24 107 97 24 107 97 24 107 97 24 107 97 24 107 97 24 107 97 24 107 97 24 107 97 24 107 97 24 107 97 24 107 97 24 107 97 24 107 97 24 107 97 24 107 97 24 107 97 24 107 97 24 107 97 24 107 97 24 107 97 24 107 97 24 107 97 24 107 97 24 107 97 24 107 97 24 107 97 24 107 97 24 107 97 24 107 97 24 107 97 24 107 97 24 107 97 24 107 97 24 107 97 24 107 97 24 107 97 24 107 97 24 107 97 24 107 97 24 107 97 24 107 97 24 107 97 24 107 97 24 107 97 24 107 97 24 107 97 24 107 97 24 107 97 24 107 97 24 107 97 24 107 97 24 107 97 24 107 97 24 107 97 24 107 97 24 107 97 24 107 97 24 107 97 24 107 97 24 107 97 24 107 97 24 107 97 24 107 97 24 107 97 24 107 97 24 107 97 24 107 97 24 107 97 24 107 97 24 107 97 24 107 97 24 107 97 24 107 97 24 107 97 24 107 97 24 107 97 24 107 97 24 107 97 24 107 97 24 107 97 24 107 97 24 107 97 24 107 97 24 107 97 24 107 97 24 107 97 24 107 97 24 107 97 24 107 97 24 107 97 24 107 97 24 107 97 24 107 97 24 107 97 24 107 97 24 107 97 24 107 97 24 107 97 24 107 97 24 107 97 24 107 97 24 107 97 24 107 97 24 107 97 24 123 200 40 123 200 40 123 200 40 123 200 40 123 200 40 123 200 40 123 200 40 123 200 40 123 200 40 123 200 40 123 200 40 123 200 40 123 200 40 123 200 40 123 200 40 123 200 40 123 200 40 123 200 40 123 200 40 123 200 40 123 200 40 123 200 40 123 200 40 123 200 40 123 200 40 123 200 40 123 200 40 123 200 40 123 200 40 123 200 40 123 200 40 123 200 40 123 200 40 123 200 40 123 200 40 123 200 40 123 200 40 123 200 40 123 200 40 123 200 40 123 200 40 123 200 40 123 200 40 123 200 40 123 200 40 123 200 40 123 200 40 123 200 40 123 200 40 123 200 40 123 200 40 123 200 40 123 200 40 123 200 40 123 200 40 123 200 40 123 200 40 123 200 40 123 200 40 123 200 40 123 200 40 123 200 40 123 200 40 123 200 40 123 200 40 123 200 40 123 200 40 123 200 40 123 200 40 123 200 40 123 200 40 123 200 40 123 200 40 123 200 40 123 200 40 123 200 40 123 200 40 123 200 40 123 200 40 123 200 40 123 200 40 123 200 40 123 200 40 123 200 40 123 200 40 123 200 40 123 200 40 123 200 40 123 200 40 123 200 40 123 200 40 123 200 40 123 200 40 123 200 40 123 200 40 123 200 40 123 200 40 123 200 40 123 200 40 123 200 40 123 200 40 123 200 40 123 200 40 123 200 40 123 200 40 123 200 40 123 200 40 123 200 40 123 200 40 123 200 40 123 200 40 123 200 40 123 200 40 123 200 40 123 200 40 123 200 40 123 200 40 123 200 40 123 200 40 123 200 40 123 200 40 123 200 40 123 200 40 123 200 40 123 200 40 123 200 40 123 200 40 123 200 40 123 200 40 123 200 40 123 200 40 123 200 40 123 200 40 123 200 40 123 200 40 123 200 40 123 200 40 123 200 40 123 200 40 123 200 40 123 200 40 123 200 40 123 200 40 123 200 40 123 200 40 123 200 40 123 200 40 123 200 40 123 200 40 123 200 40 123 200 40 123 200 40 123 200 40 123 200 40 123 200 40 123 200 40 123 200 40 123 200 40 123 200 40 123 200 40 123 200 40 123 200 40 123 200 40 123 200 40 123 200 40 123 200 40 123 200 40 123 200 40 123 200 40 123 200 40 123 200 40 123 200 40 123 200 40 123 200 40 123 200 40 123 200 40 123 200 40 123 200 40 123 200 40 123 200 40 123 200 40 123 200 40 123 200 40 123 200 40 123 200 40 123 200 40 123 200 40 123 200 40 123 200 40 123 200 40 123 200 40 123 200 40 123 200 40 123 200 40 123 200 40 123 200 40 123 200 40 123 200 40 123 200 40 123 200 40 97 9 206 97 9 206 97 9 206 97 9 206 97 9 206 97 9 206 97 9 206 97 9 206 97 9 206 97 9 206 97 9 206 97 9 206 97 9 206 97 9 206 97 9 206 97 9 206 97 9 206 97 9 206 97 9 206 97 9 206 97 9 206 97 9 206 97 9 206 97 9 206 97 9 206 97 9 206 97 9 206 97 9 206 97 9 206 97 9 206 97 9 206 97 9 206 97 9 206 97 9 206 97 9 206 97 9 206 97 9 206 97 9 206 97 9 206 97 9 206 97 9 206 97 9 206 97 9 206 97 9 206 97 9 206 97 9 206 97 9 206 97 9 206 97 9 206 97 9 206 97 9 206 97 9 206 97 9 206 97 9 206 97 9 206 97 9 206 97 9 206 97 9 206 97 9 206 97 9 206 97 9 206 97 9 206 97 9 206 97 9 206 97 9 206 97 9 206 97 9 206 97 9 206 97 9 206 97 9 206 97 9 206 97 9 206 97 9 206 97 9 206 97 9 206 97 9 206 97 9 206 97 9 206 97 9 206 97 9 206 97 9 206 97 9 206 97 9 206 97 9 206 97 9 206 97 9 206 97 9 206 97 9 206 97 9 206 97 9 206 97 9 206 97 9 206 97 9 206 97 9 206 97 9 206 97 9 206 97 9 206 97 9 206 97 9 206 97 9 206 97 9 206 97 9 206 97 9 206 97 9 206 97 9 206 97 9 206 97 9 206 97 9 206 97 9 206 97 9 206 97 9 206 97 9 206 97 9 206 97 9 206 97 9 206 97 9 206 97 9 206 97 9 206 97 9 206 97 9 206 97 9 206 97 9 206 97 9 206 97 9 206 97 9 206 97 9 206 97 9 206 97 9 206 97 9 206 97 9 206 97 9 206 97 9 206 97 9 206 97 9 206 97 9 206 97 9 206 97 9 206 97 9 206 97 9 206 97 9 206 97 9 206 97 9 206 97 9 206 97 9 206 97 9 206 97 9 206 97 9 206 97 9 206 97 9 206 97 9 206 97 9 206 97 9 206 97 9 206 97 9 206 97 9 206 97 9 206 97 9 206 97 9 206 97 9 206 97 9 206 97 9 206 97 9 206 97 9 206 97 9 206 97 9 206 97 9 206 97 9 206 97 9 206 97 9 206 97 9 206 97 9 206 97 9 206 97 9 206 97 9 206 97 9 206 97 9 206 97 9 206 97 9 206 97 9 206 97 9 206 97 9 206 97 9 206 97 9 206 97 9 206 97 9 206 97 9 206 97 9 206 97 9 206 97 9 206 97 9 206 97 9 206 97 9 206 97 9 206 97 9 206 97 9 206 97 9 206 97 9 206 97 9 206 97 9 206 97 9 206 123 200 40 123 200 40 123 200 40 123 200 40 123 200 40 123 200 40 123 200 40 123 200 40 123 200 40 123 200 40 123 200 40 123 200 40 123 200 40 123 200 40 123 200 40 123 200 40 123 200 40 123 200 40 123 200 40 123 200 40 123 200 40 123 200 40 123 200 40 123 200 40 123 200 40 123 200 40 123 200 40 123 200 40 123 200 40 123 200 40 123 200 40 123 200 40 123 200 40 123 200 40 123 200 40 123 200 40 123 200 40 123 200 40 123 200 40 123 200 40 123 200 40 123 200 40 123 200 40 123 200 40 123 200 40 123 200 40 123 200 40 123 200 40 123 200 40 123 200 40 123 200 40 123 200 40 123 200 40 123 200 40 123 200 40 123 200 40 123 200 40 123 200 40 123 200 40 123 200 40 123 200 40 123 200 40 123 200 40 123 200 40 123 200 40 123 200 40 123 200 40 123 200 40 123 200 40 123 200 40 123 200 40 123 200 40 123 200 40 123 200 40 123 200 40 123 200 40 123 200 40 123 200 40 123 200 40 123 200 40 123 200 40 123 200 40 123 200 40 123 200 40 123 200 40 123 200 40 123 200 40 123 200 40 123 200 40 123 200 40 123 200 40 123 200 40 123 200 40 123 200 40 123 200 40 123 200 40 123 200 40 123 200 40 123 200 40 123 200 40 123 200 40 123 200 40 123 200 40 123 200 40 123 200 40 123 200 40 123 200 40 123 200 40 123 200 40 123 200 40 123 200 40 123 200 40 123 200 40 123 200 40 123 200 40 123 200 40 123 200 40 123 200 40 123 200 40 123 200 40 123 200 40 123 200 40 123 200 40 123 200 40 123 200 40 123 200 40 123 200 40 123 200 40 123 200 40 123 200 40 123 200 40 123 200 40 123 200 40 123 200 40 123 200 40 123 200 40 123 200 40 123 200 40 123 200 40 123 200 40 123 200 40 123 200 40 123 200 40 123 200 40 123 200 40 123 200 40 123 200 40 123 200 40 123 200 40 123 200 40 123 200 40 123 200 40 123 200 40 123 200 40 123 200 40 123 200 40 123 200 40 123 200 40 123 200 40 123 200 40 123 200 40 123 200 40 123 200 40 123 200 40 123 200 40 123 200 40 123 200 40 123 200 40 123 200 40 123 200 40 123 200 40 123 200 40 123 200 40 123 200 40 123 200 40 123 200 40 123 200 40 123 200 40 123 200 40 123 200 40 123 200 40 123 200 40 123 200 40 123 200 40 123 200 40 123 200 40 123 200 40 123 200 40 123 200 40 123 200 40 123 200 40 123 200 40 123 200 40 123 200 40 123 200 40 123 200 40 123 200 40 123 200 40 123 200 40 123 200 40 25 62 42 25 62 42 25 62 42 25 62 42 25 62 42 25 62 42 25 62 42 25 62 42 25 62 42 25 62 42 25 62 42 25 62 42 25 62 42 25 62 42 25 62 42 25 62 42 25 62 42 25 62 42 25 62 42 25 62 42 25 62 42 25 62 42 25 62 42 25 62 42 25 62 42 25 62 42 25 62 42 25 62 42 25 62 42 25 62 42 25 62 42 25 62 42 25 62 42 25 62 42 25 62 42 25 62 42 25 62 42 25 62 42 25 62 42 25 62 42 25 62 42 25 62 42 25 62 42 25 62 42 25 62 42 25 62 42 25 62 42 25 62 42 25 62 42 25 62 42 25 62 42 25 62 42 25 62 42 25 62 42 25 62 42 25 62 42 25 62 42 25 62 42 25 62 42 25 62 42 25 62 42 25 62 42 25 62 42 25 62 42 25 62 42 25 62 42 25 62 42 25 62 42 25 62 42 25 62 42 25 62 42 25 62 42 25 62 42 25 62 42 25 62 42 25 62 42 25 62 42 25 62 42 25 62 42 25 62 42 25 62 42 25 62 42 25 62 42 25 62 42 25 62 42 25 62 42 25 62 42 25 62 42 25 62 42 25 62 42 25 62 42 25 62 42 25 62 42 25 62 42 25 62 42 25 62 42 25 62 42 25 62 42 25 62 42 25 62 42 25 62 42 25 62 42 25 62 42 25 62 42 25 62 42 25 62 42 25 62 42 25 62 42 25 62 42 25 62 42 25 62 42 25 62 42 25 62 42 25 62 42 25 62 42 25 62 42 25 62 42 25 62 42 25 62 42 25 62 42 25 62 42 25 62 42 25 62 42 25 62 42 25 62 42 25 62 42 25 62 42 25 62 42 25 62 42 25 62 42 25 62 42 25 62 42 25 62 42 25 62 42 25 62 42 25 62 42 25 62 42 25 62 42 25 62 42 25 62 42 25 62 42 25 62 42 25 62 42 25 62 42 25 62 42 25 62 42 25 62 42 25 62 42 25 62 42 25 62 42 25 62 42 25 62 42 25 62 42 25 62 42 25 62 42 25 62 42 25 62 42 25 62 42 25 62 42 25 62 42 25 62 42 25 62 42 25 62 42 25 62 42 25 62 42 25 62 42 25 62 42 25 62 42 25 62 42 25 62 42 25 62 42 25 62 42 25 62 42 25 62 42 25 62 42 25 62 42 25 62 42 25 62 42 25 62 42 25 62 42 25 62 42 25 62 42 25 62 42 25 62 42 25 62 42 25 62 42 25 62 42 25 62 42 25 62 42 25 62 42 25 62 42 25 62 42 25 62 42 25 62 42 25 62 42 25 62 42 25 62 42 25 62 42 25 62 42 25 62 42 123 200 40 123 200 40 123 200 40 123 200 40 123 200 40 123 200 40 123 200 40 123 200 40 123 200 40 123 200 40 123 200 40 123 200 40 123 200 40 123 200 40 123 200 40 123 200 40 123 200 40 123 200 40 123 200 40 123 200 40 123 200 40 123 200 40 123 200 40 123 200 40 123 200 40 123 200 40 123 200 40 123 200 40 123 200 40 123 200 40 123 200 40 123 200 40 123 200 40 123 200 40 123 200 40 123 200 40 123 200 40 123 200 40 123 200 40 123 200 40 123 200 40 123 200 40 123 200 40 123 200 40 123 200 40 123 200 40 123 200 40 123 200 40 123 200 40 123 200 40 123 200 40 123 200 40 123 200 40 123 200 40 123 200 40 123 200 40 123 200 40 123 200 40 123 200 40 123 200 40 123 200 40 123 200 40 123 200 40 123 200 40 123 200 40 123 200 40 123 200 40 123 200 40 123 200 40 123 200 40 123 200 40 123 200 40 123 200 40 123 200 40 123 200 40 123 200 40 123 200 40 123 200 40 123 200 40 123 200 40 123 200 40 123 200 40 123 200 40 123 200 40 123 200 40 123 200 40 123 200 40 123 200 40 123 200 40 123 200 40 123 200 40 123 200 40 123 200 40 123 200 40 123 200 40 123 200 40 123 200 40 123 200 40 123 200 40 123 200 40 123 200 40 123 200 40 123 200 40 123 200 40 123 200 40 123 200 40 123 200 40 123 200 40 123 200 40 123 200 40 123 200 40 123 200 40 123 200 40 123 200 40 123 200 40 123 200 40 123 200 40 123 200 40 123 200 40 123 200 40 123 200 40 123 200 40 123 200 40 123 200 40 123 200 40 123 200 40 123 200 40 123 200 40 123 200 40 123 200 40 123 200 40 123 200 40 123 200 40 123 200 40 123 200 40 123 200 40 123 200 40 123 200 40 123 200 40 123 200 40 123 200 40 123 200 40 123 200 40 123 200 40 123 200 40 123 200 40 123 200 40 123 200 40 123 200 40 123 200 40 123 200 40 123 200 40 123 200 40 123 200 40 123 200 40 123 200 40 123 200 40 123 200 40 123 200 40 123 200 40 123 200 40 123 200 40 123 200 40 123 200 40 123 200 40 123 200 40 123 200 40 123 200 40 123 200 40 123 200 40 123 200 40 123 200 40 123 200 40 123 200 40 123 200 40 123 200 40 123 200 40 123 200 40 123 200 40 123 200 40 123 200 40 123 200 40 123 200 40 123 200 40 123 200 40 123 200 40 123 200 40 123 200 40 123 200 40 123 200 40 123 200 40 123 200 40 123 200 40 123 200 40 123 200 40 123 200 40 123 200 40 123 200 40 123 200 40 123 200 40 109 120 209 109 120 209 109 120 209 109 120 209 109 120 209 109 120 209 109 120 209 109 120 209 109 120 209 109 120 209 109 120 209 109 120 209 109 120 209 109 120 209 109 120 209 109 120 209 109 120 209 109 120 209 109 120 209 109 120 209 109 120 209 109 120 209 109 120 209 109 120 209 109 120 209 109 120 209 109 120 209 109 120 209 109 120 209 109 120 209 109 120 209 109 120 209 109 120 209 109 120 209 109 120 209 109 120 209 109 120 209 109 120 209 109 120 209 109 120 209 109 120 209 109 120 209 109 120 209 109 120 209 109 120 209 109 120 209 109 120 209 109 120 209 109 120 209 109 120 209 109 120 209 109 120 209 109 120 209 109 120 209 109 120 209 109 120 209 109 120 209 109 120 209 109 120 209 109 120 209 109 120 209 109 120 209 109 120 209 109 120 209 109 120 209 109 120 209 109 120 209 109 120 209 109 120 209 109 120 209 109 120 209 109 120 209 109 120 209 109 120 209 109 120 209 109 120 209 109 120 209 109 120 209 109 120 209 109 120 209 109 120 209 109 120 209 109 120 209 109 120 209 109 120 209 109 120 209 109 120 209 109 120 209 109 120 209 109 120 209 109 120 209 109 120 209 109 120 209 109 120 209 109 120 209 109 120 209 109 120 209 109 120 209 109 120 209 109 120 209 109 120 209 109 120 209 109 120 209 109 120 209 109 120 209 109 120 209 109 120 209 109 120 209 109 120 209 109 120 209 109 120 209 109 120 209 109 120 209 109 120 209 109 120 209 109 120 209 109 120 209 109 120 209 109 120 209 109 120 209 109 120 209 109 120 209 109 120 209 109 120 209 109 120 209 109 120 209 109 120 209 109 120 209 109 120 209 109 120 209 109 120 209 109 120 209 109 120 209 109 120 209 109 120 209 109 120 209 109 120 209 109 120 209 109 120 209 109 120 209 109 120 209 109 120 209 109 120 209 109 120 209 109 120 209 109 120 209 109 120 209 109 120 209 109 120 209 109 120 209 109 120 209 109 120 209 109 120 209 109 120 209 109 120 209 109 120 209 109 120 209 109 120 209 109 120 209 109 120 209 109 120 209 109 120 209 109 120 209 109 120 209 109 120 209 109 120 209 109 120 209 109 120 209 109 120 209 109 120 209 109 120 209 109 120 209 109 120 209 109 120 209 109 120 209 109 120 209 109 120 209 109 120 209 109 120 209 109 120 209 109 120 209 109 120 209 109 120 209 109 120 209 109 120 209 109 120 209 109 120 209 109 120 209 109 120 209 109 120 209 109 120 209 109 120 209 109 120 209 109 120 209 109 120 209 109 120 209 109 120 209 109 120 209 109 120 209 109 120 209 123 200 40 123 200 40 123 200 40 123 200 40 123 200 40 123 200 40 123 200 40 123 200 40 123 200 40 123 200 40 123 200 40 123 200 40 123 200 40 123 200 40 123 200 40 123 200 40 123 200 40 123 200 40 123 200 40 123 200 40 123 200 40 123 200 40 123 200 40 123 200 40 123 200 40 123 200 40 123 200 40 123 200 40 123 200 40 123 200 40 123 200 40 123 200 40 123 200 40 123 200 40 123 200 40 123 200 40 123 200 40 123 200 40 123 200 40 123 200 40 123 200 40 123 200 40 123 200 40 123 200 40 123 200 40 123 200 40 123 200 40 123 200 40 123 200 40 123 200 40 123 200 40 123 200 40 123 200 40 123 200 40 123 200 40 123 200 40 123 200 40 123 200 40 123 200 40 123 200 40 123 200 40 123 200 40 123 200 40 123 200 40 123 200 40 123 200 40 123 200 40 123 200 40 123 200 40 123 200 40 123 200 40 123 200 40 123 200 40 123 200 40 123 200 40 123 200 40 123 200 40 123 200 40 123 200 40 123 200 40 123 200 40 123 200 40 123 200 40 123 200 40 123 200 40 123 200 40 123 200 40 123 200 40 123 200 40 123 200 40 123 200 40 123 200 40 123 200 40 123 200 40 123 200 40 123 200 40 123 200 40 123 200 40 123 200 40 123 200 40 123 200 40 123 200 40 123 200 40 123 200 40 123 200 40 123 200 40 123 200 40 123 200 40 123 200 40 123 200 40 123 200 40 123 200 40 123 200 40 123 200 40 123 200 40 123 200 40 123 200 40 123 200 40 123 200 40 123 200 40 123 200 40 123 200 40 123 200 40 123 200 40 123 200 40 123 200 40 123 200 40 123 200 40 123 200 40 123 200 40 123 200 40 123 200 40 123 200 40 123 200 40 123 200 40 123 200 40 123 200 40 123 200 40 123 200 40 123 200 40 123 200 40 123 200 40 123 200 40 123 200 40 123 200 40 123 200 40 123 200 40 123 200 40 123 200 40 123 200 40 123 200 40 123 200 40 123 200 40 123 200 40 123 200 40 123 200 40 123 200 40 123 200 40 123 200 40 123 200 40 123 200 40 123 200 40 123 200 40 123 200 40 123 200 40 123 200 40 123 200 40 123 200 40 123 200 40 123 200 40 123 200 40 123 200 40 123 200 40 123 200 40 123 200 40 123 200 40 123 200 40 123 200 40 123 200 40 123 200 40 123 200 40 123 200 40 123 200 40 123 200 40 123 200 40 123 200 40 123 200 40 123 200 40 123 200 40 123 200 40 123 200 40 123 200 40 123 200 40 123 200 40 123 200 40 123 200 40 123 200 40 123 200 40 123 200 40 123 200 40 86 122 13 86 122 13 86 122 13 86 122 13 86 122 13 86 122 13 86 122 13 86 122 13 86 122 13 86 122 13 86 122 13 86 122 13 86 122 13 86 122 13 86 122 13 86 122 13 86 122 13 86 122 13 86 122 13 86 122 13 86 122 13 86 122 13 86 122 13 86 122 13 86 122 13 86 122 13 86 122 13 86 122 13 86 122 13 86 122 13 86 122 13 86 122 13 86 122 13 86 122 13 86 122 13 86 122 13 86 122 13 86 122 13 86 122 13 86 122 13 86 122 13 86 122 13 86 122 13 86 122 13 86 122 13 86 122 13 86 122 13 86 122 13 86 122 13 86 122 13 86 122 13 86 122 13 86 122 13 86 122 13 86 122 13 86 122 13 86 122 13 86 122 13 86 122 13 86 122 13 86 122 13 86 122 13 86 122 13 86 122 13 86 122 13 86 122 13 86 122 13 86 122 13 86 122 13 86 122 13 86 122 13 86 122 13 86 122 13 86 122 13 86 122 13 86 122 13 86 122 13 86 122 13 86 122 13 86 122 13 86 122 13 86 122 13 86 122 13 86 122 13 86 122 13 86 122 13 86 122 13 86 122 13 86 122 13 86 122 13 86 122 13 86 122 13 86 122 13 86 122 13 86 122 13 86 122 13 86 122 13 86 122 13 86 122 13 86 122 13 86 122 13 86 122 13 86 122 13 86 122 13 86 122 13 86 122 13 86 122 13 86 122 13 86 122 13 86 122 13 86 122 13 86 122 13 86 122 13 86 122 13 86 122 13 86 122 13 86 122 13 86 122 13 86 122 13 86 122 13 86 122 13 86 122 13 86 122 13 86 122 13 86 122 13 86 122 13 86 122 13 86 122 13 86 122 13 86 122 13 86 122 13 86 122 13 86 122 13 86 122 13 86 122 13 86 122 13 86 122 13 86 122 13 86 122 13 86 122 13 86 122 13 86 122 13 86 122 13 86 122 13 86 122 13 86 122 13 86 122 13 86 122 13 86 122 13 86 122 13 86 122 13 86 122 13 86 122 13 86 122 13 86 122 13 86 122 13 86 122 13 86 122 13 86 122 13 86 122 13 86 122 13 86 122 13 86 122 13 86 122 13 86 122 13 86 122 13 86 122 13 86 122 13 86 122 13 86 122 13 86 122 13 86 122 13 86 122 13 86 122 13 86 122 13 86 122 13 86 122 13 86 122 13 86 122 13 86 122 13 86 122 13 86 122 13 86 122 13 86 122 13 86 122 13 86 122 13 86 122 13 86 122 13 86 122 13 86 122 13 86 122 13 86 122 13 86 122 13 86 122 13 86 122 13 86 122 13 86 122 13 86 122 13 86 122 13 86 122 13 123 200 40 123 200 40 123 200 40 123 200 40 123 200 40 123 200 40 123 200 40 123 200 40 123 200 40 123 200 40 123 200 40 123 200 40 123 200 40 123 200 40 123 200 40 123 200 40 123 200 40 123 200 40 123 200 40 123 200 40 123 200 40 123 200 40 123 200 40 123 200 40 123 200 40 123 200 40 123 200 40 123 200 40 123 200 40 123 200 40 123 200 40 123 200 40 123 200 40 123 200 40 123 200 40 123 200 40 123 200 40 123 200 40 123 200 40 123 200 40 123 200 40 123 200 40 123 200 40 123 200 40 123 200 40 123 200 40 123 200 40 123 200 40 123 200 40 123 200 40 123 200 40 123 200 40 123 200 40 123 200 40 123 200 40 123 200 40 123 200 40 123 200 40 123 200 40 123 200 40 123 200 40 123 200 40 123 200 40 123 200 40 123 200 40 123 200 40 123 200 40 123 200 40 123 200 40 123 200 40 123 200 40 123 200 40 123 200 40 123 200 40 123 200 40 123 200 40 123 200 40 123 200 40 123 200 40 123 200 40 123 200 40 123 200 40 123 200 40 123 200 40 123 200 40 123 200 40 123 200 40 123 200 40 123 200 40 123 200 40 123 200 40 123 200 40 123 200 40 123 200 40 123 200 40 123 200 40 123 200 40 123 200 40 123 200 40 123 200 40 123 200 40 123 200 40 123 200 40 123 200 40 123 200 40 123 200 40 123 200 40 123 200 40 123 200 40 123 200 40 123 200 40 123 200 40 123 200 40 123 200 40 123 200 40 123 200 40 123 200 40 123 200 40 123 200 40 123 200 40 123 200 40 123 200 40 123 200 40 123 200 40 123 200 40 123 200 40 123 200 40 123 200 40 123 200 40 123 200 40 123 200 40 123 200 40 123 200 40 123 200 40 123 200 40 123 200 40 123 200 40 123 200 40 123 200 40 123 200 40 123 200 40 123 200 40 123 200 40 123 200 40 123 200 40 123 200 40 123 200 40 123 200 40 123 200 40 123 200 40 123 200 40 123 200 40 123 200 40 123 200 40 123 200 40 123 200 40 123 200 40 123 200 40 123 200 40 123 200 40 123 200 40 123 200 40 123 200 40 123 200 40 123 200 40 123 200 40 123 200 40 123 200 40 123 200 40 123 200 40 123 200 40 123 200 40 123 200 40 123 200 40 123 200 40 123 200 40 123 200 40 123 200 40 123 200 40 123 200 40 123 200 40 123 200 40 123 200 40 123 200 40 123 200 40 123 200 40 123 200 40 123 200 40 123 200 40 123 200 40 123 200 40 123 200 40 123 200 40 123 200 40 123 200 40 123 200 40 123 200 40 123 200 40 123 200 40 123 200 40 112 33 80 112 33 80 112 33 80 112 33 80 112 33 80 112 33 80 112 33 80 112 33 80 112 33 80 112 33 80 112 33 80 112 33 80 112 33 80 112 33 80 112 33 80 112 33 80 112 33 80 112 33 80 112 33 80 112 33 80 112 33 80 112 33 80 112 33 80 112 33 80 112 33 80 112 33 80 112 33 80 112 33 80 112 33 80 112 33 80 112 33 80 112 33 80 112 33 80 112 33 80 112 33 80 112 33 80 112 33 80 112 33 80 112 33 80 112 33 80 112 33 80 112 33 80 112 33 80 112 33 80 112 33 80 112 33 80 112 33 80 112 33 80 112 33 80 112 33 80 112 33 80 112 33 80 112 33 80 112 33 80 112 33 80 112 33 80 112 33 80 112 33 80 112 33 80 112 33 80 112 33 80 112 33 80 112 33 80 112 33 80 112 33 80 112 33 80 112 33 80 112 33 80 112 33 80 112 33 80 112 33 80 112 33 80 112 33 80 112 33 80 112 33 80 112 33 80 112 33 80 112 33 80 112 33 80 112 33 80 112 33 80 112 33 80 112 33 80 112 33 80 112 33 80 112 33 80 112 33 80 112 33 80 112 33 80 112 33 80 112 33 80 112 33 80 112 33 80 112 33 80 112 33 80 112 33 80 112 33 80 112 33 80 112 33 80 112 33 80 112 33 80 112 33 80 112 33 80 112 33 80 112 33 80 112 33 80 112 33 80 112 33 80 112 33 80 112 33 80 112 33 80 112 33 80 112 33 80 112 33 80 112 33 80 112 33 80 112 33 80 112 33 80 112 33 80 112 33 80 112 33 80 112 33 80 112 33 80 112 33 80 112 33 80 112 33 80 112 33 80 112 33 80 112 33 80 112 33 80 112 33 80 112 33 80 112 33 80 112 33 80 112 33 80 112 33 80 112 33 80 112 33 80 112 33 80 112 33 80 112 33 80 112 33 80 112 33 80 112 33 80 112 33 80 112 33 80 112 33 80 112 33 80 112 33 80 112 33 80 112 33 80 112 33 80 112 33 80 112 33 80 112 33 80 112 33 80 112 33 80 112 33 80 112 33 80 112 33 80 112 33 80 112 33 80 112 33 80 112 33 80 112 33 80 112 33 80 112 33 80 112 33 80 112 33 80 112 33 80 112 33 80 112 33 80 112 33 80 112 33 80 112 33 80 112 33 80 112 33 80 112 33 80 112 33 80 112 33 80 112 33 80 112 33 80 112 33 80 112 33 80 112 33 80 112 33 80 112 33 80 112 33 80 112 33 80 112 33 80 112 33 80 112 33 80 112 33 80 112 33 80 112 33 80 112 33 80 112 33 80 112 33 80 112 33 80 112 33 80 123 200 40 123 200 40 123 200 40 123 200 40 123 200 40 123 200 40 123 200 40 123 200 40 123 200 40 123 200 40 123 200 40 123 200 40 123 200 40 123 200 40 123 200 40 123 200 40 123 200 40 123 200 40 123 200 40 123 200 40 123 200 40 123 200 40 123 200 40 123 200 40 123 200 40 123 200 40 123 200 40 123 200 40 123 200 40 123 200 40 123 200 40 123 200 40 123 200 40 123 200 40 123 200 40 123 200 40 123 200 40 123 200 40 123 200 40 123 200 40 123 200 40 123 200 40 123 200 40 123 200 40 123 200 40 123 200 40 123 200 40 123 200 40 123 200 40 123 200 40 123 200 40 123 200 40 123 200 40 123 200 40 123 200 40 123 200 40 123 200 40 123 200 40 123 200 40 123 200 40 123 200 40 123 200 40 123 200 40 123 200 40 123 200 40 123 200 40 123 200 40 123 200 40 123 200 40 123 200 40 123 200 40 123 200 40 123 200 40 123 200 40 123 200 40 123 200 40 123 200 40 123 200 40 123 200 40 123 200 40 123 200 40 123 200 40 123 200 40 123 200 40 123 200 40 123 200 40 123 200 40 123 200 40 123 200 40 123 200 40 123 200 40 123 200 40 123 200 40 123 200 40 123 200 40 123 200 40 123 200 40 123 200 40 123 200 40 123 200 40 123 200 40 123 200 40 123 200 40 123 200 40 123 200 40 123 200 40 123 200 40 123 200 40 123 200 40 123 200 40 123 200 40 123 200 40 123 200 40 123 200 40 123 200 40 123 200 40 123 200 40 123 200 40 123 200 40 123 200 40 123 200 40 123 200 40 123 200 40 123 200 40 123 200 40 123 200 40 123 200 40 123 200 40 123 200 40 123 200 40 123 200 40 123 200 40 123 200 40 123 200 40 123 200 40 123 200 40 123 200 40 123 200 40 123 200 40 123 200 40 123 200 40 123 200 40 123 200 40 123 200 40 123 200 40 123 200 40 123 200 40 123 200 40 123 200 40 123 200 40 123 200 40 123 200 40 123 200 40 123 200 40 123 200 40 123 200 40 123 200 40 123 200 40 123 200 40 123 200 40 123 200 40 123 200 40 123 200 40 123 200 40 123 200 40 123 200 40 123 200 40 123 200 40 123 200 40 123 200 40 123 200 40 123 200 40 123 200 40 123 200 40 123 200 40 123 200 40 123 200 40 123 200 40 123 200 40 123 200 40 123 200 40 123 200 40 123 200 40 123 200 40 123 200 40 123 200 40 123 200 40 123 200 40 123 200 40 123 200 40 123 200 40 123 200 40 123 200 40 123 200 40 123 200 40 123 200 40 123 200 40 123 200 40 123 200 40 123 200 40 204 176 14 204 176 14 204 176 14 204 176 14 204 176 14 204 176 14 204 176 14 204 176 14 204 176 14 204 176 14 204 176 14 204 176 14 204 176 14 204 176 14 204 176 14 204 176 14 204 176 14 204 176 14 204 176 14 204 176 14 204 176 14 204 176 14 204 176 14 204 176 14 204 176 14 204 176 14 204 176 14 204 176 14 204 176 14 204 176 14 204 176 14 204 176 14 204 176 14 204 176 14 204 176 14 204 176 14 204 176 14 204 176 14 204 176 14 204 176 14 204 176 14 204 176 14 204 176 14 204 176 14 204 176 14 204 176 14 204 176 14 204 176 14 204 176 14 204 176 14 204 176 14 204 176 14 204 176 14 204 176 14 204 176 14 204 176 14 204 176 14 204 176 14 204 176 14 204 176 14 204 176 14 204 176 14 204 176 14 204 176 14 204 176 14 204 176 14 204 176 14 204 176 14 204 176 14 204 176 14 204 176 14 204 176 14 204 176 14 204 176 14 204 176 14 204 176 14 204 176 14 204 176 14 204 176 14 204 176 14 204 176 14 204 176 14 204 176 14 204 176 14 204 176 14 204 176 14 204 176 14 204 176 14 204 176 14 204 176 14 204 176 14 204 176 14 204 176 14 204 176 14 204 176 14 204 176 14 204 176 14 204 176 14 204 176 14 204 176 14 204 176 14 204 176 14 204 176 14 204 176 14 204 176 14 204 176 14 204 176 14 204 176 14 204 176 14 204 176 14 204 176 14 204 176 14 204 176 14 204 176 14 204 176 14 204 176 14 204 176 14 204 176 14 204 176 14 204 176 14 204 176 14 204 176 14 204 176 14 204 176 14 204 176 14 204 176 14 204 176 14 204 176 14 204 176 14 204 176 14 204 176 14 204 176 14 204 176 14 204 176 14 204 176 14 204 176 14 204 176 14 204 176 14 204 176 14 204 176 14 204 176 14 204 176 14 204 176 14 204 176 14 204 176 14 204 176 14 204 176 14 204 176 14 204 176 14 204 176 14 204 176 14 204 176 14 204 176 14 204 176 14 204 176 14 204 176 14 204 176 14 204 176 14 204 176 14 204 176 14 204 176 14 204 176 14 204 176 14 204 176 14 204 176 14 204 176 14 204 176 14 204 176 14 204 176 14 204 176 14 204 176 14 204 176 14 204 176 14 204 176 14 204 176 14 204 176 14 204 176 14 204 176 14 204 176 14 204 176 14 204 176 14 204 176 14 204 176 14 204 176 14 204 176 14 204 176 14 204 176 14 204 176 14 204 176 14 204 176 14 204 176 14 204 176 14 204 176 14 204 176 14 204 176 14 204 176 14 204 176 14 204 176 14 204 176 14 204 176 14 123 200 40 123 200 40 123 200 40 123 200 40 123 200 40 123 200 40 123 200 40 123 200 40 123 200 40 123 200 40 123 200 40 123 200 40 123 200 40 123 200 40 123 200 40 123 200 40 123 200 40 123 200 40 123 200 40 123 200 40 123 200 40 123 200 40 123 200 40 123 200 40 123 200 40 123 200 40 123 200 40 123 200 40 123 200 40 123 200 40 123 200 40 123 200 40 123 200 40 123 200 40 123 200 40 123 200 40 123 200 40 123 200 40 123 200 40 123 200 40 123 200 40 123 200 40 123 200 40 123 200 40 123 200 40 123 200 40 123 200 40 123 200 40 123 200 40 123 200 40 123 200 40 123 200 40 123 200 40 123 200 40 123 200 40 123 200 40 123 200 40 123 200 40 123 200 40 123 200 40 123 200 40 123 200 40 123 200 40 123 200 40 123 200 40 123 200 40 123 200 40 123 200 40 123 200 40 123 200 40 123 200 40 123 200 40 123 200 40 123 200 40 123 200 40 123 200 40 123 200 40 123 200 40 123 200 40 123 200 40 123 200 40 123 200 40 123 200 40 123 200 40 123 200 40 123 200 40 123 200 40 123 200 40 123 200 40 123 200 40 123 200 40 123 200 40 123 200 40 123 200 40 123 200 40 123 200 40 123 200 40 123 200 40 123 200 40 123 200 40 123 200 40 123 200 40 123 200 40 123 200 40 123 200 40 123 200 40 123 200 40 123 200 40 123 200 40 123 200 40 123 200 40 123 200 40 123 200 40 123 200 40 123 200 40 123 200 40 123 200 40 123 200 40 123 200 40 123 200 40 123 200 40 123 200 40 123 200 40 123 200 40 123 200 40 123 200 40 123 200 40 123 200 40 123 200 40 123 200 40 123 200 40 123 200 40 123 200 40 123 200 40 123 200 40 123 200 40 123 200 40 123 200 40 123 200 40 123 200 40 123 200 40 123 200 40 123 200 40 123 200 40 123 200 40 123 200 40 123 200 40 123 200 40 123 200 40 123 200 40 123 200 40 123 200 40 123 200 40 123 200 40 123 200 40 123 200 40 123 200 40 123 200 40 123 200 40 123 200 40 123 200 40 123 200 40 123 200 40 123 200 40 123 200 40 123 200 40 123 200 40 123 200 40 123 200 40 123 200 40 123 200 40 123 200 40 123 200 40 123 200 40 123 200 40 123 200 40 123 200 40 123 200 40 123 200 40 123 200 40 123 200 40 123 200 40 123 200 40 123 200 40 123 200 40 123 200 40 123 200 40 123 200 40 123 200 40 123 200 40 123 200 40 123 200 40 123 200 40 123 200 40 123 200 40 123 200 40 123 200 40 123 200 40 123 200 40 123 200 40 164 142 202 164 142 202 164 142 202 164 142 202 164 142 202 164 142 202 164 142 202 164 142 202 164 142 202 164 142 202 164 142 202 164 142 202 164 142 202 164 142 202 164 142 202 164 142 202 164 142 202 164 142 202 164 142 202 164 142 202 164 142 202 164 142 202 164 142 202 164 142 202 164 142 202 164 142 202 164 142 202 164 142 202 164 142 202 164 142 202 164 142 202 164 142 202 164 142 202 164 142 202 164 142 202 164 142 202 164 142 202 164 142 202 164 142 202 164 142 202 164 142 202 164 142 202 164 142 202 164 142 202 164 142 202 164 142 202 164 142 202 164 142 202 164 142 202 164 142 202 164 142 202 164 142 202 164 142 202 164 142 202 164 142 202 164 142 202 164 142 202 164 142 202 164 142 202 164 142 202 164 142 202 164 142 202 164 142 202 164 142 202 164 142 202 164 142 202 164 142 202 164 142 202 164 142 202 164 142 202 164 142 202 164 142 202 164 142 202 164 142 202 164 142 202 164 142 202 164 142 202 164 142 202 164 142 202 164 142 202 164 142 202 164 142 202 164 142 202 164 142 202 164 142 202 164 142 202 164 142 202 164 142 202 164 142 202 164 142 202 164 142 202 164 142 202 164 142 202 164 142 202 164 142 202 164 142 202 164 142 202 164 142 202 164 142 202 164 142 202 164 142 202 164 142 202 164 142 202 164 142 202 164 142 202 164 142 202 164 142 202 164 142 202 164 142 202 164 142 202 164 142 202 164 142 202 164 142 202 164 142 202 164 142 202 164 142 202 164 142 202 164 142 202 164 142 202 164 142 202 164 142 202 164 142 202 164 142 202 164 142 202 164 142 202 164 142 202 164 142 202 164 142 202 164 142 202 164 142 202 164 142 202 164 142 202 164 142 202 164 142 202 164 142 202 164 142 202 164 142 202 164 142 202 164 142 202 164 142 202 164 142 202 164 142 202 164 142 202 164 142 202 164 142 202 164 142 202 164 142 202 164 142 202 164 142 202 164 142 202 164 142 202 164 142 202 164 142 202 164 142 202 164 142 202 164 142 202 164 142 202 164 142 202 164 142 202 164 142 202 164 142 202 164 142 202 164 142 202 164 142 202 164 142 202 164 142 202 164 142 202 164 142 202 164 142 202 164 142 202 164 142 202 164 142 202 164 142 202 164 142 202 164 142 202 164 142 202 164 142 202 164 142 202 164 142 202 164 142 202 164 142 202 164 142 202 164 142 202 164 142 202 164 142 202 164 142 202 164 142 202 164 142 202 164 142 202 164 142 202 164 142 202 164 142 202 164 142 202 164 142 202 164 142 202 164 142 202 164 142 202 164 142 202 164 142 202 164 142 202 123 200 40 123 200 40 123 200 40 123 200 40 123 200 40 123 200 40 123 200 40 123 200 40 123 200 40 123 200 40 123 200 40 123 200 40 123 200 40 123 200 40 123 200 40 123 200 40 123 200 40 123 200 40 123 200 40 123 200 40 123 200 40 123 200 40 123 200 40 123 200 40 123 200 40 123 200 40 123 200 40 123 200 40 123 200 40 123 200 40 123 200 40 123 200 40 123 200 40 123 200 40 123 200 40 123 200 40 123 200 40 123 200 40 123 200 40 123 200 40 123 200 40 123 200 40 123 200 40 123 200 40 123 200 40 123 200 40 123 200 40 123 200 40 123 200 40 123 200 40 123 200 40 123 200 40 123 200 40 123 200 40 123 200 40 123 200 40 123 200 40 123 200 40 123 200 40 123 200 40 123 200 40 123 200 40 123 200 40 123 200 40 123 200 40 123 200 40 123 200 40 123 200 40 123 200 40 123 200 40 123 200 40 123 200 40 123 200 40 123 200 40 123 200 40 123 200 40 123 200 40 123 200 40 123 200 40 123 200 40 123 200 40 123 200 40 123 200 40 123 200 40 123 200 40 123 200 40 123 200 40 123 200 40 123 200 40 123 200 40 123 200 40 123 200 40 123 200 40 123 200 40 123 200 40 123 200 40 123 200 40 123 200 40 123 200 40 123 200 40 123 200 40 123 200 40 123 200 40 123 200 40 123 200 40 123 200 40 123 200 40 123 200 40 123 200 40 123 200 40 123 200 40 123 200 40 123 200 40 123 200 40 123 200 40 123 200 40 123 200 40 123 200 40 123 200 40 123 200 40 123 200 40 123 200 40 123 200 40 123 200 40 123 200 40 123 200 40 123 200 40 123 200 40 123 200 40 123 200 40 123 200 40 123 200 40 123 200 40 123 200 40 123 200 40 123 200 40 123 200 40 123 200 40 123 200 40 123 200 40 123 200 40 123 200 40 123 200 40 123 200 40 123 200 40 123 200 40 123 200 40 123 200 40 123 200 40 123 200 40 123 200 40 123 200 40 123 200 40 123 200 40 123 200 40 123 200 40 123 200 40 123 200 40 123 200 40 123 200 40 123 200 40 123 200 40 123 200 40 123 200 40 123 200 40 123 200 40 123 200 40 123 200 40 123 200 40 123 200 40 123 200 40 123 200 40 123 200 40 123 200 40 123 200 40 123 200 40 123 200 40 123 200 40 123 200 40 123 200 40 123 200 40 123 200 40 123 200 40 123 200 40 123 200 40 123 200 40 123 200 40 123 200 40 123 200 40 123 200 40 123 200 40 123 200 40 123 200 40 123 200 40 123 200 40 123 200 40 123 200 40 123 200 40 123 200 40 123 200 40 38 247 181 38 247 181 38 247 181 38 247 181 38 247 181 38 247 181 38 247 181 38 247 181 38 247 181 38 247 181 38 247 181 38 247 181 38 247 181 38 247 181 38 247 181 38 247 181 38 247 181 38 247 181 38 247 181 38 247 181 38 247 181 38 247 181 38 247 181 38 247 181 38 247 181 38 247 181 38 247 181 38 247 181 38 247 181 38 247 181 38 247 181 38 247 181 38 247 181 38 247 181 38 247 181 38 247 181 38 247 181 38 247 181 38 247 181 38 247 181 38 247 181 38 247 181 38 247 181 38 247 181 38 247 181 38 247 181 38 247 181 38 247 181 38 247 181 38 247 181 38 247 181 38 247 181 38 247 181 38 247 181 38 247 181 38 247 181 38 247 181 38 247 181 38 247 181 38 247 181 38 247 181 38 247 181 38 247 181 38 247 181 38 247 181 38 247 181 38 247 181 38 247 181 38 247 181 38 247 181 38 247 181 38 247 181 38 247 181 38 247 181 38 247 181 38 247 181 38 247 181 38 247 181 38 247 181 38 247 181 38 247 181 38 247 181 38 247 181 38 247 181 38 247 181 38 247 181 38 247 181 38 247 181 38 247 181 38 247 181 38 247 181 38 247 181 38 247 181 38 247 181 38 247 181 38 247 181 38 247 181 38 247 181 38 247 181 38 247 181 38 247 181 38 247 181 38 247 181 38 247 181 38 247 181 38 247 181 38 247 181 38 247 181 38 247 181 38 247 181 38 247 181 38 247 181 38 247 181 38 247 181 38 247 181 38 247 181 38 247 181 38 247 181 38 247 181 38 247 181 38 247 181 38 247 181 38 247 181 38 247 181 38 247 181 38 247 181 38 247 181 38 247 181 38 247 181 38 247 181 38 247 181 38 247 181 38 247 181 38 247 181 38 247 181 38 247 181 38 247 181 38 247 181 38 247 181 38 247 181 38 247 181 38 247 181 38 247 181 38 247 181 38 247 181 38 247 181 38 247 181 38 247 181 38 247 181 38 247 181 38 247 181 38 247 181 38 247 181 38 247 181 38 247 181 38 247 181 38 247 181 38 247 181 38 247 181 38 247 181 38 247 181 38 247 181 38 247 181 38 247 181 38 247 181 38 247 181 38 247 181 38 247 181 38 247 181 38 247 181 38 247 181 38 247 181 38 247 181 38 247 181 38 247 181 38 247 181 38 247 181 38 247 181 38 247 181 38 247 181 38 247 181 38 247 181 38 247 181 38 247 181 38 247 181 38 247 181 38 247 181 38 247 181 38 247 181 38 247 181 38 247 181 38 247 181 38 247 181 38 247 181 38 247 181 38 247 181 38 247 181 38 247 181 38 247 181 38 247 181 123 200 40 123 200 40 123 200 40 123 200 40 123 200 40 123 200 40 123 200 40 123 200 40 123 200 40 123 200 40 123 200 40 123 200 40 123 200 40 123 200 40 123 200 40 123 200 40 123 200 40 123 200 40 123 200 40 123 200 40 123 200 40 123 200 40 123 200 40 123 200 40 123 200 40 123 200 40 123 200 40 123 200 40 123 200 40 123 200 40 123 200 40 123 200 40 123 200 40 123 200 40 123 200 40 123 200 40 123 200 40 123 200 40 123 200 40 123 200 40 123 200 40 123 200 40 123 200 40 123 200 40 123 200 40 123 200 40 123 200 40 123 200 40 123 200 40 123 200 40 123 200 40 123 200 40 123 200 40 123 200 40 123 200 40 123 200 40 123 200 40 123 200 40 123 200 40 123 200 40 123 200 40 123 200 40 123 200 40 123 200 40 123 200 40 123 200 40 123 200 40 123 200 40 123 200 40 123 200 40 123 200 40 123 200 40 123 200 40 123 200 40 123 200 40 123 200 40 123 200 40 123 200 40 123 200 40 123 200 40 123 200 40 123 200 40 123 200 40 123 200 40 123 200 40 123 200 40 123 200 40 123 200 40 123 200 40 123 200 40 123 200 40 123 200 40 123 200 40 123 200 40 123 200 40 123 200 40 123 200 40 123 200 40 123 200 40 123 200 40 123 200 40 123 200 40 123 200 40 123 200 40 123 200 40 123 200 40 123 200 40 123 200 40 123 200 40 123 200 40 123 200 40 123 200 40 123 200 40 123 200 40 123 200 40 123 200 40 123 200 40 123 200 40 123 200 40 123 200 40 123 200 40 123 200 40 123 200 40 123 200 40 123 200 40 123 200 40 123 200 40 123 200 40 123 200 40 123 200 40 123 200 40 123 200 40 123 200 40 123 200 40 123 200 40 123 200 40 123 200 40 123 200 40 123 200 40 123 200 40 123 200 40 123 200 40 123 200 40 123 200 40 123 200 40 123 200 40 123 200 40 123 200 40 123 200 40 123 200 40 123 200 40 123 200 40 123 200 40 123 200 40 123 200 40 123 200 40 123 200 40 123 200 40 123 200 40 123 200 40 123 200 40 123 200 40 123 200 40 123 200 40 123 200 40 123 200 40 123 200 40 123 200 40 123 200 40 123 200 40 123 200 40 123 200 40 123 200 40 123 200 40 123 200 40 123 200 40 123 200 40 123 200 40 123 200 40 123 200 40 123 200 40 123 200 40 123 200 40 123 200 40 123 200 40 123 200 40 123 200 40 123 200 40 123 200 40 123 200 40 123 200 40 123 200 40 123 200 40 123 200 40 123 200 40 123 200 40 123 200 40 123 200 40 123 200 40 123 200 40 126 43 107 126 43 107 126 43 107 126 43 107 126 43 107 126 43 107 126 43 107 126 43 107 126 43 107 126 43 107 126 43 107 126 43 107 126 43 107 126 43 107 126 43 107 126 43 107 126 43 107 126 43 107 126 43 107 126 43 107 126 43 107 126 43 107 126 43 107 126 43 107 126 43 107 126 43 107 126 43 107 126 43 107 126 43 107 126 43 107 126 43 107 126 43 107 126 43 107 126 43 107 126 43 107 126 43 107 126 43 107 126 43 107 126 43 107 126 43 107 126 43 107 126 43 107 126 43 107 126 43 107 126 43 107 126 43 107 126 43 107 126 43 107 126 43 107 126 43 107 126 43 107 126 43 107 126 43 107 126 43 107 126 43 107 126 43 107 126 43 107 126 43 107 126 43 107 126 43 107 126 43 107 126 43 107 126 43 107 126 43 107 126 43 107 126 43 107 126 43 107 126 43 107 126 43 107 126 43 107 126 43 107 126 43 107 126 43 107 126 43 107 126 43 107 126 43 107 126 43 107 126 43 107 126 43 107 126 43 107 126 43 107 126 43 107 126 43 107 126 43 107 126 43 107 126 43 107 126 43 107 126 43 107 126 43 107 126 43 107 126 43 107 126 43 107 126 43 107 126 43 107 126 43 107 126 43 107 126 43 107 126 43 107 126 43 107 126 43 107 126 43 107 126 43 107 126 43 107 126 43 107 126 43 107 126 43 107 126 43 107 126 43 107 126 43 107 126 43 107 126 43 107 126 43 107 126 43 107 126 43 107 126 43 107 126 43 107 126 43 107 126 43 107 126 43 107 126 43 107 126 43 107 126 43 107 126 43 107 126 43 107 126 43 107 126 43 107 126 43 107 126 43 107 126 43 107 126 43 107 126 43 107 126 43 107 126 43 107 126 43 107 126 43 107 126 43 107 126 43 107 126 43 107 126 43 107 126 43 107 126 43 107 126 43 107 126 43 107 126 43 107 126 43 107 126 43 107 126 43 107 126 43 107 126 43 107 126 43 107 126 43 107 126 43 107 126 43 107 126 43 107 126 43 107 126 43 107 126 43 107 126 43 107 126 43 107 126 43 107 126 43 107 126 43 107 126 43 107 126 43 107 126 43 107 126 43 107 126 43 107 126 43 107 126 43 107 126 43 107 126 43 107 126 43 107 126 43 107 126 43 107 126 43 107 126 43 107 126 43 107 126 43 107 126 43 107 126 43 107 126 43 107 126 43 107 126 43 107 126 43 107 126 43 107 126 43 107 126 43 107 126 43 107 126 43 107 126 43 107 126 43 107 126 43 107 126 43 107 126 43 107 126 43 107 126 43 107 126 43 107 126 43 107 126 43 107 126 43 107 123 200 40 123 200 40 123 200 40 123 200 40 123 200 40 123 200 40 123 200 40 123 200 40 123 200 40 123 200 40 123 200 40 123 200 40 123 200 40 123 200 40 123 200 40 123 200 40 123 200 40 123 200 40 123 200 40 123 200 40 123 200 40 123 200 40 123 200 40 123 200 40 123 200 40 123 200 40 123 200 40 123 200 40 123 200 40 123 200 40 123 200 40 123 200 40 123 200 40 123 200 40 123 200 40 123 200 40 123 200 40 123 200 40 123 200 40 123 200 40 123 200 40 123 200 40 123 200 40 123 200 40 123 200 40 123 200 40 123 200 40 123 200 40 123 200 40 123 200 40 123 200 40 123 200 40 123 200 40 123 200 40 123 200 40 123 200 40 123 200 40 123 200 40 123 200 40 123 200 40 123 200 40 123 200 40 123 200 40 123 200 40 123 200 40 123 200 40 123 200 40 123 200 40 123 200 40 123 200 40 123 200 40 123 200 40 123 200 40 123 200 40 123 200 40 123 200 40 123 200 40 123 200 40 123 200 40 123 200 40 123 200 40 123 200 40 123 200 40 123 200 40 123 200 40 123 200 40 123 200 40 123 200 40 123 200 40 123 200 40 123 200 40 123 200 40 123 200 40 123 200 40 123 200 40 123 200 40 123 200 40 123 200 40 123 200 40 123 200 40 123 200 40 123 200 40 123 200 40 123 200 40 123 200 40 123 200 40 123 200 40 123 200 40 123 200 40 123 200 40 123 200 40 123 200 40 123 200 40 123 200 40 123 200 40 123 200 40 123 200 40 123 200 40 123 200 40 123 200 40 123 200 40 123 200 40 123 200 40 123 200 40 123 200 40 123 200 40 123 200 40 123 200 40 123 200 40 123 200 40 123 200 40 123 200 40 123 200 40 123 200 40 123 200 40 123 200 40 123 200 40 123 200 40 123 200 40 123 200 40 123 200 40 123 200 40 123 200 40 123 200 40 123 200 40 123 200 40 123 200 40 123 200 40 123 200 40 123 200 40 123 200 40 123 200 40 123 200 40 123 200 40 123 200 40 123 200 40 123 200 40 123 200 40 123 200 40 123 200 40 123 200 40 123 200 40 123 200 40 123 200 40 123 200 40 123 200 40 123 200 40 123 200 40 123 200 40 123 200 40 123 200 40 123 200 40 123 200 40 123 200 40 123 200 40 123 200 40 123 200 40 123 200 40 123 200 40 123 200 40 123 200 40 123 200 40 123 200 40 123 200 40 123 200 40 123 200 40 123 200 40 123 200 40 123 200 40 123 200 40 123 200 40 123 200 40 123 200 40 123 200 40 123 200 40 123 200 40 123 200 40 123 200 40 123 200 40 123 200 40 224 68 226 224 68 226 224 68 226 224 68 226 224 68 226 224 68 226 224 68 226 224 68 226 224 68 226 224 68 226 224 68 226 224 68 226 224 68 226 224 68 226 224 68 226 224 68 226 224 68 226 224 68 226 224 68 226 224 68 226 224 68 226 224 68 226 224 68 226 224 68 226 224 68 226 224 68 226 224 68 226 224 68 226 224 68 226 224 68 226 224 68 226 224 68 226 224 68 226 224 68 226 224 68 226 224 68 226 224 68 226 224 68 226 224 68 226 224 68 226 224 68 226 224 68 226 224 68 226 224 68 226 224 68 226 224 68 226 224 68 226 224 68 226 224 68 226 224 68 226 224 68 226 224 68 226 224 68 226 224 68 226 224 68 226 224 68 226 224 68 226 224 68 226 224 68 226 224 68 226 224 68 226 224 68 226 224 68 226 224 68 226 224 68 226 224 68 226 224 68 226 224 68 226 224 68 226 224 68 226 224 68 226 224 68 226 224 68 226 224 68 226 224 68 226 224 68 226 224 68 226 224 68 226 224 68 226 224 68 226 224 68 226 224 68 226 224 68 226 224 68 226 224 68 226 224 68 226 224 68 226 224 68 226 224 68 226 224 68 226 224 68 226 224 68 226 224 68 226 224 68 226 224 68 226 224 68 226 224 68 226 224 68 226 224 68 226 224 68 226 224 68 226 224 68 226 224 68 226 224 68 226 224 68 226 224 68 226 224 68 226 224 68 226 224 68 226 224 68 226 224 68 226 224 68 226 224 68 226 224 68 226 224 68 226 224 68 226 224 68 226 224 68 226 224 68 226 224 68 226 224 68 226 224 68 226 224 68 226 224 68 226 224 68 226 224 68 226 224 68 226 224 68 226 224 68 226 224 68 226 224 68 226 224 68 226 224 68 226 224 68 226 224 68 226 224 68 226 224 68 226 224 68 226 224 68 226 224 68 226 224 68 226 224 68 226 224 68 226 224 68 226 224 68 226 224 68 226 224 68 226 224 68 226 224 68 226 224 68 226 224 68 226 224 68 226 224 68 226 224 68 226 224 68 226 224 68 226 224 68 226 224 68 226 224 68 226 224 68 226 224 68 226 224 68 226 224 68 226 224 68 226 224 68 226 224 68 226 224 68 226 224 68 226 224 68 226 224 68 226 224 68 226 224 68 226 224 68 226 224 68 226 224 68 226 224 68 226 224 68 226 224 68 226 224 68 226 224 68 226 224 68 226 224 68 226 224 68 226 224 68 226 224 68 226 224 68 226 224 68 226 224 68 226 224 68 226 224 68 226 224 68 226 224 68 226 224 68 226 224 68 226 224 68 226 224 68 226 224 68 226 224 68 226 224 68 226 224 68 226 123 200 40 123 200 40 123 200 40 123 200 40 123 200 40 123 200 40 123 200 40 123 200 40 123 200 40 123 200 40 123 200 40 123 200 40 123 200 40 123 200 40 123 200 40 123 200 40 123 200 40 123 200 40 123 200 40 123 200 40 123 200 40 123 200 40 123 200 40 123 200 40 123 200 40 123 200 40 123 200 40 123 200 40 123 200 40 123 200 40 123 200 40 123 200 40 123 200 40 123 200 40 123 200 40 123 200 40 123 200 40 123 200 40 123 200 40 123 200 40 123 200 40 123 200 40 123 200 40 123 200 40 123 200 40 123 200 40 123 200 40 123 200 40 123 200 40 123 200 40 123 200 40 123 200 40 123 200 40 123 200 40 123 200 40 123 200 40 123 200 40 123 200 40 123 200 40 123 200 40 123 200 40 123 200 40 123 200 40 123 200 40 123 200 40 123 200 40 123 200 40 123 200 40 123 200 40 123 200 40 123 200 40 123 200 40 123 200 40 123 200 40 123 200 40 123 200 40 123 200 40 123 200 40 123 200 40 123 200 40 123 200 40 123 200 40 123 200 40 123 200 40 123 200 40 123 200 40 123 200 40 123 200 40 123 200 40 123 200 40 123 200 40 123 200 40 123 200 40 123 200 40 123 200 40 123 200 40 123 200 40 123 200 40 123 200 40 123 200 40 123 200 40 123 200 40 123 200 40 123 200 40 123 200 40 123 200 40 123 200 40 123 200 40 123 200 40 123 200 40 123 200 40 123 200 40 123 200 40 123 200 40 123 200 40 123 200 40 123 200 40 123 200 40 123 200 40 123 200 40 123 200 40 123 200 40 123 200 40 123 200 40 123 200 40 123 200 40 123 200 40 123 200 40 123 200 40 123 200 40 123 200 40 123 200 40 123 200 40 123 200 40 123 200 40 123 200 40 123 200 40 123 200 40 123 200 40 123 200 40 123 200 40 123 200 40 123 200 40 123 200 40 123 200 40 123 200 40 123 200 40 123 200 40 123 200 40 123 200 40 123 200 40 123 200 40 123 200 40 123 200 40 123 200 40 123 200 40 123 200 40 123 200 40 123 200 40 123 200 40 123 200 40 123 200 40 123 200 40 123 200 40 123 200 40 123 200 40 123 200 40 123 200 40 123 200 40 123 200 40 123 200 40 123 200 40 123 200 40 123 200 40 123 200 40 123 200 40 123 200 40 123 200 40 123 200 40 123 200 40 123 200 40 123 200 40 123 200 40 123 200 40 123 200 40 123 200 40 123 200 40 123 200 40 123 200 40 123 200 40 123 200 40 123 200 40 123 200 40 123 200 40 123 200 40 123 200 40 123 200 40 123 200 40 123 200 40 123 200 40 233 18 77 233 18 77 233 18 77 233 18 77 233 18 77 233 18 77 233 18 77 233 18 77 233 18 77 233 18 77 233 18 77 233 18 77 233 18 77 233 18 77 233 18 77 233 18 77 233 18 77 233 18 77 233 18 77 233 18 77 233 18 77 233 18 77 233 18 77 233 18 77 233 18 77 233 18 77 233 18 77 233 18 77 233 18 77 233 18 77 233 18 77 233 18 77 233 18 77 233 18 77 233 18 77 233 18 77 233 18 77 233 18 77 233 18 77 233 18 77 233 18 77 233 18 77 233 18 77 233 18 77 233 18 77 233 18 77 233 18 77 233 18 77 233 18 77 233 18 77 233 18 77 233 18 77 233 18 77 233 18 77 233 18 77 233 18 77 233 18 77 233 18 77 233 18 77 233 18 77 233 18 77 233 18 77 233 18 77 233 18 77 233 18 77 233 18 77 233 18 77 233 18 77 233 18 77 233 18 77 233 18 77 233 18 77 233 18 77 233 18 77 233 18 77 233 18 77 233 18 77 233 18 77 233 18 77 233 18 77 233 18 77 233 18 77 233 18 77 233 18 77 233 18 77 233 18 77 233 18 77 233 18 77 233 18 77 233 18 77 233 18 77 233 18 77 233 18 77 233 18 77 233 18 77 233 18 77 233 18 77 233 18 77 233 18 77 233 18 77 233 18 77 233 18 77 233 18 77 233 18 77 233 18 77 233 18 77 233 18 77 233 18 77 233 18 77 233 18 77 233 18 77 233 18 77 233 18 77 233 18 77 233 18 77 233 18 77 233 18 77 233 18 77 233 18 77 233 18 77 233 18 77 233 18 77 233 18 77 233 18 77 233 18 77 233 18 77 233 18 77 233 18 77 233 18 77 233 18 77 233 18 77 233 18 77 233 18 77 233 18 77 233 18 77 233 18 77 233 18 77 233 18 77 233 18 77 233 18 77 233 18 77 233 18 77 233 18 77 233 18 77 233 18 77 233 18 77 233 18 77 233 18 77 233 18 77 233 18 77 233 18 77 233 18 77 233 18 77 233 18 77 233 18 77 233 18 77 233 18 77 233 18 77 233 18 77 233 18 77 233 18 77 233 18 77 233 18 77 233 18 77 233 18 77 233 18 77 233 18 77 233 18 77 233 18 77 233 18 77 233 18 77 233 18 77 233 18 77 233 18 77 233 18 77 233 18 77 233 18 77 233 18 77 233 18 77 233 18 77 233 18 77 233 18 77 233 18 77 233 18 77 233 18 77 233 18 77 233 18 77 233 18 77 233 18 77 233 18 77 233 18 77 233 18 77 233 18 77 233 18 77 233 18 77 233 18 77 233 18 77 233 18 77 233 18 77 233 18 77 123 200 40 123 200 40 123 200 40 123 200 40 123 200 40 123 200 40 123 200 40 123 200 40 123 200 40 123 200 40 123 200 40 123 200 40 123 200 40 123 200 40 123 200 40 123 200 40 123 200 40 123 200 40 123 200 40 123 200 40 123 200 40 123 200 40 123 200 40 123 200 40 123 200 40 123 200 40 123 200 40 123 200 40 123 200 40 123 200 40 123 200 40 123 200 40 123 200 40 123 200 40 123 200 40 123 200 40 123 200 40 123 200 40 123 200 40 123 200 40 123 200 40 123 200 40 123 200 40 123 200 40 123 200 40 123 200 40 123 200 40 123 200 40 123 200 40 123 200 40 123 200 40 123 200 40 123 200 40 123 200 40 123 200 40 123 200 40 123 200 40 123 200 40 123 200 40 123 200 40 123 200 40 123 200 40 123 200 40 123 200 40 123 200 40 123 200 40 123 200 40 123 200 40 123 200 40 123 200 40 123 200 40 123 200 40 123 200 40 123 200 40 123 200 40 123 200 40 123 200 40 123 200 40 123 200 40 123 200 40 123 200 40 123 200 40 123 200 40 123 200 40 123 200 40 123 200 40 123 200 40 123 200 40 123 200 40 123 200 40 123 200 40 123 200 40 123 200 40 123 200 40 123 200 40 123 200 40 123 200 40 123 200 40 123 200 40 123 200 40 123 200 40 123 200 40 123 200 40 123 200 40 123 200 40 123 200 40 123 200 40 123 200 40 123 200 40 123 200 40 123 200 40 123 200 40 123 200 40 123 200 40 123 200 40 123 200 40 123 200 40 123 200 40 123 200 40 123 200 40 123 200 40 123 200 40 123 200 40 123 200 40 123 200 40 123 200 40 123 200 40 123 200 40 123 200 40 123 200 40 123 200 40 123 200 40 123 200 40 123 200 40 123 200 40 123 200 40 123 200 40 123 200 40 123 200 40 123 200 40 123 200 40 123 200 40 123 200 40 123 200 40 123 200 40 123 200 40 123 200 40 123 200 40 123 200 40 123 200 40 123 200 40 123 200 40 123 200 40 123 200 40 123 200 40 123 200 40 123 200 40 123 200 40 123 200 40 123 200 40 123 200 40 123 200 40 123 200 40 123 200 40 123 200 40 123 200 40 123 200 40 123 200 40 123 200 40 123 200 40 123 200 40 123 200 40 123 200 40 123 200 40 123 200 40 123 200 40 123 200 40 123 200 40 123 200 40 123 200 40 123 200 40 123 200 40 123 200 40 123 200 40 123 200 40 123 200 40 123 200 40 123 200 40 123 200 40 123 200 40 123 200 40 123 200 40 123 200 40 123 200 40 123 200 40 123 200 40 123 200 40 123 200 40 123 200 40 123 200 40 39 60 174 39 60 174 39 60 174 39 60 174 39 60 174 39 60 174 39 60 174 39 60 174 39 60 174 39 60 174 39 60 174 39 60 174 39 60 174 39 60 174 39 60 174 39 60 174 39 60 174 39 60 174 39 60 174 39 60 174 39 60 174 39 60 174 39 60 174 39 60 174 39 60 174 39 60 174 39 60 174 39 60 174 39 60 174 39 60 174 39 60 174 39 60 174 39 60 174 39 60 174 39 60 174 39 60 174 39 60 174 39 60 174 39 60 174 39 60 174 39 60 174 39 60 174 39 60 174 39 60 174 39 60 174 39 60 174 39 60 174 39 60 174 39 60 174 39 60 174 39 60 174 39 60 174 39 60 174 39 60 174 39 60 174 39 60 174 39 60 174 39 60 174 39 60 174 39 60 174 39 60 174 39 60 174 39 60 174 39 60 174 39 60 174 39 60 174 39 60 174 39 60 174 39 60 174 39 60 174 39 60 174 39 60 174 39 60 174 39 60 174 39 60 174 39 60 174 39 60 174 39 60 174 39 60 174 39 60 174 39 60 174 39 60 174 39 60 174 39 60 174 39 60 174 39 60 174 39 60 174 39 60 174 39 60 174 39 60 174 39 60 174 39 60 174 39 60 174 39 60 174 39 60 174 39 60 174 39 60 174 39 60 174 39 60 174 39 60 174 39 60 174 39 60 174 39 60 174 39 60 174 39 60 174 39 60 174 39 60 174 39 60 174 39 60 174 39 60 174 39 60 174 39 60 174 39 60 174 39 60 174 39 60 174 39 60 174 39 60 174 39 60 174 39 60 174 39 60 174 39 60 174 39 60 174 39 60 174 39 60 174 39 60 174 39 60 174 39 60 174 39 60 174 39 60 174 39 60 174 39 60 174 39 60 174 39 60 174 39 60 174 39 60 174 39 60 174 39 60 174 39 60 174 39 60 174 39 60 174 39 60 174 39 60 174 39 60 174 39 60 174 39 60 174 39 60 174 39 60 174 39 60 174 39 60 174 39 60 174 39 60 174 39 60 174 39 60 174 39 60 174 39 60 174 39 60 174 39 60 174 39 60 174 39 60 174 39 60 174 39 60 174 39 60 174 39 60 174 39 60 174 39 60 174 39 60 174 39 60 174 39 60 174 39 60 174 39 60 174 39 60 174 39 60 174 39 60 174 39 60 174 39 60 174 39 60 174 39 60 174 39 60 174 39 60 174 39 60 174 39 60 174 39 60 174 39 60 174 39 60 174 39 60 174 39 60 174 39 60 174 39 60 174 39 60 174 39 60 174 39 60 174 39 60 174 39 60 174 39 60 174 39 60 174 39 60 174 39 60 174 39 60 174 39 60 174 39 60 174 123 200 40 123 200 40 123 200 40 123 200 40 123 200 40 123 200 40 123 200 40 123 200 40 123 200 40 123 200 40 123 200 40 123 200 40 123 200 40 123 200 40 123 200 40 123 200 40 123 200 40 123 200 40 123 200 40 123 200 40 123 200 40 123 200 40 123 200 40 123 200 40 123 200 40 123 200 40 123 200 40 123 200 40 123 200 40 123 200 40 123 200 40 123 200 40 123 200 40 123 200 40 123 200 40 123 200 40 123 200 40 123 200 40 123 200 40 123 200 40 123 200 40 123 200 40 123 200 40 123 200 40 123 200 40 123 200 40 123 200 40 123 200 40 123 200 40 123 200 40 123 200 40 123 200 40 123 200 40 123 200 40 123 200 40 123 200 40 123 200 40 123 200 40 123 200 40 123 200 40 123 200 40 123 200 40 123 200 40 123 200 40 123 200 40 123 200 40 123 200 40 123 200 40 123 200 40 123 200 40 123 200 40 123 200 40 123 200 40 123 200 40 123 200 40 123 200 40 123 200 40 123 200 40 123 200 40 123 200 40 123 200 40 123 200 40 123 200 40 123 200 40 123 200 40 123 200 40 123 200 40 123 200 40 123 200 40 123 200 40 123 200 40 123 200 40 123 200 40 123 200 40 123 200 40 123 200 40 123 200 40 123 200 40 123 200 40 123 200 40 123 200 40 123 200 40 123 200 40 123 200 40 123 200 40 123 200 40 123 200 40 123 200 40 123 200 40 123 200 40 123 200 40 123 200 40 123 200 40 123 200 40 123 200 40 123 200 40 123 200 40 123 200 40 123 200 40 123 200 40 123 200 40 123 200 40 123 200 40 123 200 40 123 200 40 123 200 40 123 200 40 123 200 40 123 200 40 123 200 40 123 200 40 123 200 40 123 200 40 123 200 40 123 200 40 123 200 40 123 200 40 123 200 40 123 200 40 123 200 40 123 200 40 123 200 40 123 200 40 123 200 40 123 200 40 123 200 40 123 200 40 123 200 40 123 200 40 123 200 40 123 200 40 123 200 40 123 200 40 123 200 40 123 200 40 123 200 40 123 200 40 123 200 40 123 200 40 123 200 40 123 200 40 123 200 40 123 200 40 123 200 40 123 200 40 123 200 40 123 200 40 123 200 40 123 200 40 123 200 40 123 200 40 123 200 40 123 200 40 123 200 40 123 200 40 123 200 40 123 200 40 123 200 40 123 200 40 123 200 40 123 200 40 123 200 40 123 200 40 123 200 40 123 200 40 123 200 40 123 200 40 123 200 40 123 200 40 123 200 40 123 200 40 123 200 40 123 200 40 123 200 40 123 200 40 123 200 40 123 200 40 123 200 40 123 200 40 123 200 40 159 13 199 159 13 199 159 13 199 159 13 199 159 13 199 159 13 199 159 13 199 159 13 199 159 13 199 159 13 199 159 13 199 159 13 199 159 13 199 159 13 199 159 13 199 159 13 199 159 13 199 159 13 199 159 13 199 159 13 199 159 13 199 159 13 199 159 13 199 159 13 199 159 13 199 159 13 199 159 13 199 159 13 199 159 13 199 159 13 199 159 13 199 159 13 199 159 13 199 159 13 199 159 13 199 159 13 199 159 13 199 159 13 199 159 13 199 159 13 199 159 13 199 159 13 199 159 13 199 159 13 199 159 13 199 159 13 199 159 13 199 159 13 199 159 13 199 159 13 199 159 13 199 159 13 199 159 13 199 159 13 199 159 13 199 159 13 199 159 13 199 159 13 199 159 13 199 159 13 199 159 13 199 159 13 199 159 13 199 159 13 199 159 13 199 159 13 199 159 13 199 159 13 199 159 13 199 159 13 199 159 13 199 159 13 199 159 13 199 159 13 199 159 13 199 159 13 199 159 13 199 159 13 199 159 13 199 159 13 199 159 13 199 159 13 199 159 13 199 159 13 199 159 13 199 159 13 199 159 13 199 159 13 199 159 13 199 159 13 199 159 13 199 159 13 199 159 13 199 159 13 199 159 13 199 159 13 199 159 13 199 159 13 199 159 13 199 159 13 199 159 13 199 159 13 199 159 13 199 159 13 199 159 13 199 159 13 199 159 13 199 159 13 199 159 13 199 159 13 199 159 13 199 159 13 199 159 13 199 159 13 199 159 13 199 159 13 199 159 13 199 159 13 199 159 13 199 159 13 199 159 13 199 159 13 199 159 13 199 159 13 199 159 13 199 159 13 199 159 13 199 159 13 199 159 13 199 159 13 199 159 13 199 159 13 199 159 13 199 159 13 199 159 13 199 159 13 199 159 13 199 159 13 199 159 13 199 159 13 199 159 13 199 159 13 199 159 13 199 159 13 199 159 13 199 159 13 199 159 13 199 159 13 199 159 13 199 159 13 199 159 13 199 159 13 199 159 13 199 159 13 199 159 13 199 159 13 199 159 13 199 159 13 199 159 13 199 159 13 199 159 13 199 159 13 199 159 13 199 159 13 199 159 13 199 159 13 199 159 13 199 159 13 199 159 13 199 159 13 199 159 13 199 159 13 199 159 13 199 159 13 199 159 13 199 159 13 199 159 13 199 159 13 199 159 13 199 159 13 199 159 13 199 159 13 199 159 13 199 159 13 199 159 13 199 159 13 199 159 13 199 159 13 199 159 13 199 159 13 199 159 13 199 159 13 199 159 13 199 159 13 199 159 13 199 159 13 199 159 13 199 159 13 199 159 13 199 159 13 199 123 200 40 123 200 40 123 200 40 123 200 40 123 200 40 123 200 40 123 200 40 123 200 40 123 200 40 123 200 40 123 200 40 123 200 40 123 200 40 123 200 40 123 200 40 123 200 40 123 200 40 123 200 40 123 200 40 123 200 40 123 200 40 123 200 40 123 200 40 123 200 40 123 200 40 123 200 40 123 200 40 123 200 40 123 200 40 123 200 40 123 200 40 123 200 40 123 200 40 123 200 40 123 200 40 123 200 40 123 200 40 123 200 40 123 200 40 123 200 40 123 200 40 123 200 40 123 200 40 123 200 40 123 200 40 123 200 40 123 200 40 123 200 40 123 200 40 123 200 40 123 200 40 123 200 40 123 200 40 123 200 40 123 200 40 123 200 40 123 200 40 123 200 40 123 200 40 123 200 40 123 200 40 123 200 40 123 200 40 123 200 40 123 200 40 123 200 40 123 200 40 123 200 40 123 200 40 123 200 40 123 200 40 123 200 40 123 200 40 123 200 40 123 200 40 123 200 40 123 200 40 123 200 40 123 200 40 123 200 40 123 200 40 123 200 40 123 200 40 123 200 40 123 200 40 123 200 40 123 200 40 123 200 40 123 200 40 123 200 40 123 200 40 123 200 40 123 200 40 123 200 40 123 200 40 123 200 40 123 200 40 123 200 40 123 200 40 123 200 40 123 200 40 123 200 40 123 200 40 123 200 40 123 200 40 123 200 40 123 200 40 123 200 40 123 200 40 123 200 40 123 200 40 123 200 40 123 200 40 123 200 40 123 200 40 123 200 40 123 200 40 123 200 40 123 200 40 123 200 40 123 200 40 123 200 40 123 200 40 123 200 40 123 200 40 123 200 40 123 200 40 123 200 40 123 200 40 123 200 40 123 200 40 123 200 40 123 200 40 123 200 40 123 200 40 123 200 40 123 200 40 123 200 40 123 200 40 123 200 40 123 200 40 123 200 40 123 200 40 123 200 40 123 200 40 123 200 40 123 200 40 123 200 40 123 200 40 123 200 40 123 200 40 123 200 40 123 200 40 123 200 40 123 200 40 123 200 40 123 200 40 123 200 40 123 200 40 123 200 40 123 200 40 123 200 40 123 200 40 123 200 40 123 200 40 123 200 40 123 200 40 123 200 40 123 200 40 123 200 40 123 200 40 123 200 40 123 200 40 123 200 40 123 200 40 123 200 40 123 200 40 123 200 40 123 200 40 123 200 40 123 200 40 123 200 40 123 200 40 123 200 40 123 200 40 123 200 40 123 200 40 123 200 40 123 200 40 123 200 40 123 200 40 123 200 40 123 200 40 123 200 40 123 200 40 123 200 40 123 200 40 123 200 40 123 200 40 123 200 40 25 26 52 25 26 52 25 26 52 25 26 52 25 26 52 25 26 52 25 26 52 25 26 52 25 26 52 25 26 52 25 26 52 25 26 52 25 26 52 25 26 52 25 26 52 25 26 52 25 26 52 25 26 52 25 26 52 25 26 52 25 26 52 25 26 52 25 26 52 25 26 52 25 26 52 25 26 52 25 26 52 25 26 52 25 26 52 25 26 52 25 26 52 25 26 52 25 26 52 25 26 52 25 26 52 25 26 52 25 26 52 25 26 52 25 26 52 25 26 52 25 26 52 25 26 52 25 26 52 25 26 52 25 26 52 25 26 52 25 26 52 25 26 52 25 26 52 25 26 52 25 26 52 25 26 52 25 26 52 25 26 52 25 26 52 25 26 52 25 26 52 25 26 52 25 26 52 25 26 52 25 26 52 25 26 52 25 26 52 25 26 52 25 26 52 25 26 52 25 26 52 25 26 52 25 26 52 25 26 52 25 26 52 25 26 52 25 26 52 25 26 52 25 26 52 25 26 52 25 26 52 25 26 52 25 26 52 25 26 52 25 26 52 25 26 52 25 26 52 25 26 52 25 26 52 25 26 52 25 26 52 25 26 52 25 26 52 25 26 52 25 26 52 25 26 52 25 26 52 25 26 52 25 26 52 25 26 52 25 26 52 25 26 52 25 26 52 25 26 52 25 26 52 25 26 52 25 26 52 25 26 52 25 26 52 25 26 52 25 26 52 25 26 52 25 26 52 25 26 52 25 26 52 25 26 52 25 26 52 25 26 52 25 26 52 25 26 52 25 26 52 25 26 52 25 26 52 25 26 52 25 26 52 25 26 52 25 26 52 25 26 52 25 26 52 25 26 52 25 26 52 25 26 52 25 26 52 25 26 52 25 26 52 25 26 52 25 26 52 25 26 52 25 26 52 25 26 52 25 26 52 25 26 52 25 26 52 25 26 52 25 26 52 25 26 52 25 26 52 25 26 52 25 26 52 25 26 52 25 26 52 25 26 52 25 26 52 25 26 52 25 26 52 25 26 52 25 26 52 25 26 52 25 26 52 25 26 52 25 26 52 25 26 52 25 26 52 25 26 52 25 26 52 25 26 52 25 26 52 25 26 52 25 26 52 25 26 52 25 26 52 25 26 52 25 26 52 25 26 52 25 26 52 25 26 52 25 26 52 25 26 52 25 26 52 25 26 52 25 26 52 25 26 52 25 26 52 25 26 52 25 26 52 25 26 52 25 26 52 25 26 52 25 26 52 25 26 52 25 26 52 25 26 52 25 26 52 25 26 52 25 26 52 25 26 52 25 26 52 25 26 52 25 26 52 25 26 52 25 26 52 25 26 52 25 26 52 25 26 52 123 200 40 123 200 40 123 200 40 123 200 40 123 200 40 123 200 40 123 200 40 123 200 40 123 200 40 123 200 40 123 200 40 123 200 40 123 200 40 123 200 40 123 200 40 123 200 40 123 200 40 123 200 40 123 200 40 123 200 40 123 200 40 123 200 40 123 200 40 123 200 40 123 200 40 123 200 40 123 200 40 123 200 40 123 200 40 123 200 40 123 200 40 123 200 40 123 200 40 123 200 40 123 200 40 123 200 40 123 200 40 123 200 40 123 200 40 123 200 40 123 200 40 123 200 40 123 200 40 123 200 40 123 200 40 123 200 40 123 200 40 123 200 40 123 200 40 123 200 40 123 200 40 123 200 40 123 200 40 123 200 40 123 200 40 123 200 40 123 200 40 123 200 40 123 200 40 123 200 40 123 200 40 123 200 40 123 200 40 123 200 40 123 200 40 123 200 40 123 200 40 123 200 40 123 200 40 123 200 40 123 200 40 123 200 40 123 200 40 123 200 40 123 200 40 123 200 40 123 200 40 123 200 40 123 200 40 123 200 40 123 200 40 123 200 40 123 200 40 123 200 40 123 200 40 123 200 40 123 200 40 123 200 40 123 200 40 123 200 40 123 200 40 123 200 40 123 200 40 123 200 40 123 200 40 123 200 40 123 200 40 123 200 40 123 200 40 123 200 40 123 200 40 123 200 40 123 200 40 123 200 40 123 200 40 123 200 40 123 200 40 123 200 40 123 200 40 123 200 40 123 200 40 123 200 40 123 200 40 123 200 40 123 200 40 123 200 40 123 200 40 123 200 40 123 200 40 123 200 40 123 200 40 123 200 40 123 200 40 123 200 40 123 200 40 123 200 40 123 200 40 123 200 40 123 200 40 123 200 40 123 200 40 123 200 40 123 200 40 123 200 40 123 200 40 123 200 40 123 200 40 123 200 40 123 200 40 123 200 40 123 200 40 123 200 40 123 200 40 123 200 40 123 200 40 123 200 40 123 200 40 123 200 40 123 200 40 123 200 40 123 200 40 123 200 40 123 200 40 123 200 40 123 200 40 123 200 40 123 200 40 123 200 40 123 200 40 123 200 40 123 200 40 123 200 40 123 200 40 123 200 40 123 200 40 123 200 40 123 200 40 123 200 40 123 200 40 123 200 40 123 200 40 123 200 40 123 200 40 123 200 40 123 200 40 123 200 40 123 200 40 123 200 40 123 200 40 123 200 40 123 200 40 123 200 40 123 200 40 123 200 40 123 200 40 123 200 40 123 200 40 123 200 40 123 200 40 123 200 40 123 200 40 123 200 40 123 200 40 123 200 40 123 200 40 123 200 40 123 200 40 123 200 40 123 200 40 123 200 40 58 107 138 58 107 138 58 107 138 58 107 138 58 107 138 58 107 138 58 107 138 58 107 138 58 107 138 58 107 138 58 107 138 58 107 138 58 107 138 58 107 138 58 107 138 58 107 138 58 107 138 58 107 138 58 107 138 58 107 138 58 107 138 58 107 138 58 107 138 58 107 138 58 107 138 58 107 138 58 107 138 58 107 138 58 107 138 58 107 138 58 107 138 58 107 138 58 107 138 58 107 138 58 107 138 58 107 138 58 107 138 58 107 138 58 107 138 58 107 138 58 107 138 58 107 138 58 107 138 58 107 138 58 107 138 58 107 138 58 107 138 58 107 138 58 107 138 58 107 138 58 107 138 58 107 138 58 107 138 58 107 138 58 107 138 58 107 138 58 107 138 58 107 138 58 107 138 58 107 138 58 107 138 58 107 138 58 107 138 58 107 138 58 107 138 58 107 138 58 107 138 58 107 138 58 107 138 58 107 138 58 107 138 58 107 138 58 107 138 58 107 138 58 107 138 58 107 138 58 107 138 58 107 138 58 107 138 58 107 138 58 107 138 58 107 138 58 107 138 58 107 138 58 107 138 58 107 138 58 107 138 58 107 138 58 107 138 58 107 138 58 107 138 58 107 138 58 107 138 58 107 138 58 107 138 58 107 138 58 107 138 58 107 138 58 107 138 58 107 138 58 107 138 58 107 138 58 107 138 58 107 138 58 107 138 58 107 138 58 107 138 58 107 138 58 107 138 58 107 138 58 107 138 58 107 138 58 107 138 58 107 138 58 107 138 58 107 138 58 107 138 58 107 138 58 107 138 58 107 138 58 107 138 58 107 138 58 107 138 58 107 138 58 107 138 58 107 138 58 107 138 58 107 138 58 107 138 58 107 138 58 107 138 58 107 138 58 107 138 58 107 138 58 107 138 58 107 138 58 107 138 58 107 138 58 107 138 58 107 138 58 107 138 58 107 138 58 107 138 58 107 138 58 107 138 58 107 138 58 107 138 58 107 138 58 107 138 58 107 138 58 107 138 58 107 138 58 107 138 58 107 138 58 107 138 58 107 138 58 107 138 58 107 138 58 107 138 58 107 138 58 107 138 58 107 138 58 107 138 58 107 138 58 107 138 58 107 138 58 107 138 58 107 138 58 107 138 58 107 138 58 107 138 58 107 138 58 107 138 58 107 138 58 107 138 58 107 138 58 107 138 58 107 138 58 107 138 58 107 138 58 107 138 58 107 138 58 107 138 58 107 138 58 107 138 58 107 138 58 107 138 58 107 138 58 107 138 58 107 138 58 107 138 58 107 138 58 107 138 58 107 138 58 107 138 58 107 138 58 107 138 58 107 138 58 107 138 58 107 138 123 200 40 123 200 40 123 200 40 123 200 40 123 200 40 123 200 40 123 200 40 123 200 40 123 200 40 123 200 40 123 200 40 123 200 40 123 200 40 123 200 40 123 200 40 123 200 40 123 200 40 123 200 40 123 200 40 123 200 40 123 200 40 123 200 40 123 200 40 123 200 40 123 200 40 123 200 40 123 200 40 123 200 40 123 200 40 123 200 40 123 200 40 123 200 40 123 200 40 123 200 40 123 200 40 123 200 40 123 200 40 123 200 40 123 200 40 123 200 40 123 200 40 123 200 40 123 200 40 123 200 40 123 200 40 123 200 40 123 200 40 123 200 40 123 200 40 123 200 40 123 200 40 123 200 40 123 200 40 123 200 40 123 200 40 123 200 40 123 200 40 123 200 40 123 200 40 123 200 40 123 200 40 123 200 40 123 200 40 123 200 40 123 200 40 123 200 40 123 200 40 123 200 40 123 200 40 123 200 40 123 200 40 123 200 40 123 200 40 123 200 40 123 200 40 123 200 40 123 200 40 123 200 40 123 200 40 123 200 40 123 200 40 123 200 40 123 200 40 123 200 40 123 200 40 123 200 40 123 200 40 123 200 40 123 200 40 123 200 40 123 200 40 123 200 40 123 200 40 123 200 40 123 200 40 123 200 40 123 200 40 123 200 40 123 200 40 123 200 40 123 200 40 123 200 40 123 200 40 123 200 40 123 200 40 123 200 40 123 200 40 123 200 40 123 200 40 123 200 40 123 200 40 123 200 40 123 200 40 123 200 40 123 200 40 123 200 40 123 200 40 123 200 40 123 200 40 123 200 40 123 200 40 123 200 40 123 200 40 123 200 40 123 200 40 123 200 40 123 200 40 123 200 40 123 200 40 123 200 40 123 200 40 123 200 40 123 200 40 123 200 40 123 200 40 123 200 40 123 200 40 123 200 40 123 200 40 123 200 40 123 200 40 123 200 40 123 200 40 123 200 40 123 200 40 123 200 40 123 200 40 123 200 40 123 200 40 123 200 40 123 200 40 123 200 40 123 200 40 123 200 40 123 200 40 123 200 40 123 200 40 123 200 40 123 200 40 123 200 40 123 200 40 123 200 40 123 200 40 123 200 40 123 200 40 123 200 40 123 200 40 123 200 40 123 200 40 123 200 40 123 200 40 123 200 40 123 200 40 123 200 40 123 200 40 123 200 40 123 200 40 123 200 40 123 200 40 123 200 40 123 200 40 123 200 40 123 200 40 123 200 40 123 200 40 123 200 40 123 200 40 123 200 40 123 200 40 123 200 40 123 200 40 123 200 40 123 200 40 123 200 40 123 200 40 123 200 40 123 200 40 123 200 40 123 200 40 123 200 40 234 121 250 234 121 250 234 121 250 234 121 250 234 121 250 234 121 250 234 121 250 234 121 250 234 121 250 234 121 250 234 121 250 234 121 250 234 121 250 234 121 250 234 121 250 234 121 250 234 121 250 234 121 250 234 121 250 234 121 250 234 121 250 234 121 250 234 121 250 234 121 250 234 121 250 234 121 250 234 121 250 234 121 250 234 121 250 234 121 250 234 121 250 234 121 250 234 121 250 234 121 250 234 121 250 234 121 250 234 121 250 234 121 250 234 121 250 234 121 250 234 121 250 234 121 250 234 121 250 234 121 250 234 121 250 234 121 250 234 121 250 234 121 250 234 121 250 234 121 250 234 121 250 234 121 250 234 121 250 234 121 250 234 121 250 234 121 250 234 121 250 234 121 250 234 121 250 234 121 250 234 121 250 234 121 250 234 121 250 234 121 250 234 121 250 234 121 250 234 121 250 234 121 250 234 121 250 234 121 250 234 121 250 234 121 250 234 121 250 234 121 250 234 121 250 234 121 250 234 121 250 234 121 250 234 121 250 234 121 250 234 121 250 234 121 250 234 121 250 234 121 250 234 121 250 234 121 250 234 121 250 234 121 250 234 121 250 234 121 250 234 121 250 234 121 250 234 121 250 234 121 250 234 121 250 234 121 250 234 121 250 234 121 250 234 121 250 234 121 250 234 121 250 234 121 250 234 121 250 234 121 250 234 121 250 234 121 250 234 121 250 234 121 250 234 121 250 234 121 250 234 121 250 234 121 250 234 121 250 234 121 250 234 121 250 234 121 250 234 121 250 234 121 250 234 121 250 234 121 250 234 121 250 234 121 250 234 121 250 234 121 250 234 121 250 234 121 250 234 121 250 234 121 250 234 121 250 234 121 250 234 121 250 234 121 250 234 121 250 234 121 250 234 121 250 234 121 250 234 121 250 234 121 250 234 121 250 234 121 250 234 121 250 234 121 250 234 121 250 234 121 250 234 121 250 234 121 250 234 121 250 234 121 250 234 121 250 234 121 250 234 121 250 234 121 250 234 121 250 234 121 250 234 121 250 234 121 250 234 121 250 234 121 250 234 121 250 234 121 250 234 121 250 234 121 250 234 121 250 234 121 250 234 121 250 234 121 250 234 121 250 234 121 250 234 121 250 234 121 250 234 121 250 234 121 250 234 121 250 234 121 250 234 121 250 234 121 250 234 121 250 234 121 250 234 121 250 234 121 250 234 121 250 234 121 250 234 121 250 234 121 250 234 121 250 234 121 250 234 121 250 234 121 250 234 121 250 234 121 250 234 121 250 234 121 250 234 121 250 234 121 250 234 121 250 234 121 250 234 121 250 234 121 250 234 121 250 234 121 250 123 200 40 123 200 40 123 200 40 123 200 40 123 200 40 123 200 40 123 200 40 123 200 40 123 200 40 123 200 40 123 200 40 123 200 40 123 200 40 123 200 40 123 200 40 123 200 40 123 200 40 123 200 40 123 200 40 123 200 40 123 200 40 123 200 40 123 200 40 123 200 40 123 200 40 123 200 40 123 200 40 123 200 40 123 200 40 123 200 40 123 200 40 123 200 40 123 200 40 123 200 40 123 200 40 123 200 40 123 200 40 123 200 40 123 200 40 123 200 40 123 200 40 123 200 40 123 200 40 123 200 40 123 200 40 123 200 40 123 200 40 123 200 40 123 200 40 123 200 40 123 200 40 123 200 40 123 200 40 123 200 40 123 200 40 123 200 40 123 200 40 123 200 40 123 200 40 123 200 40 123 200 40 123 200 40 123 200 40 123 200 40 123 200 40 123 200 40 123 200 40 123 200 40 123 200 40 123 200 40 123 200 40 123 200 40 123 200 40 123 200 40 123 200 40 123 200 40 123 200 40 123 200 40 123 200 40 123 200 40 123 200 40 123 200 40 123 200 40 123 200 40 123 200 40 123 200 40 123 200 40 123 200 40 123 200 40 123 200 40 123 200 40 123 200 40 123 200 40 123 200 40 123 200 40 123 200 40 123 200 40 123 200 40 123 200 40 123 200 40 123 200 40 123 200 40 123 200 40 123 200 40 123 200 40 123 200 40 123 200 40 123 200 40 123 200 40 123 200 40 123 200 40 123 200 40 123 200 40 123 200 40 123 200 40 123 200 40 123 200 40 123 200 40 123 200 40 123 200 40 123 200 40 123 200 40 123 200 40 123 200 40 123 200 40 123 200 40 123 200 40 123 200 40 123 200 40 123 200 40 123 200 40 123 200 40 123 200 40 123 200 40 123 200 40 123 200 40 123 200 40 123 200 40 123 200 40 123 200 40 123 200 40 123 200 40 123 200 40 123 200 40 123 200 40 123 200 40 123 200 40 123 200 40 123 200 40 123 200 40 123 200 40 123 200 40 123 200 40 123 200 40 123 200 40 123 200 40 123 200 40 123 200 40 123 200 40 123 200 40 123 200 40 123 200 40 123 200 40 123 200 40 123 200 40 123 200 40 123 200 40 123 200 40 123 200 40 123 200 40 123 200 40 123 200 40 123 200 40 123 200 40 123 200 40 123 200 40 123 200 40 123 200 40 123 200 40 123 200 40 123 200 40 123 200 40 123 200 40 123 200 40 123 200 40 123 200 40 123 200 40 123 200 40 123 200 40 123 200 40 123 200 40 123 200 40 123 200 40 123 200 40 123 200 40 123 200 40 123 200 40 123 200 40 123 200 40 123 200 40 120 67 199 120 67 199 120 67 199 120 67 199 120 67 199 120 67 199 120 67 199 120 67 199 120 67 199 120 67 199 120 67 199 120 67 199 120 67 199 120 67 199 120 67 199 120 67 199 120 67 199 120 67 199 120 67 199 120 67 199 120 67 199 120 67 199 120 67 199 120 67 199 120 67 199 120 67 199 120 67 199 120 67 199 120 67 199 120 67 199 120 67 199 120 67 199 120 67 199 120 67 199 120 67 199 120 67 199 120 67 199 120 67 199 120 67 199 120 67 199 120 67 199 120 67 199 120 67 199 120 67 199 120 67 199 120 67 199 120 67 199 120 67 199 120 67 199 120 67 199 120 67 199 120 67 199 120 67 199 120 67 199 120 67 199 120 67 199 120 67 199 120 67 199 120 67 199 120 67 199 120 67 199 120 67 199 120 67 199 120 67 199 120 67 199 120 67 199 120 67 199 120 67 199 120 67 199 120 67 199 120 67 199 120 67 199 120 67 199 120 67 199 120 67 199 120 67 199 120 67 199 120 67 199 120 67 199 120 67 199 120 67 199 120 67 199 120 67 199 120 67 199 120 67 199 120 67 199 120 67 199 120 67 199 120 67 199 120 67 199 120 67 199 120 67 199 120 67 199 120 67 199 120 67 199 120 67 199 120 67 199 120 67 199 120 67 199 120 67 199 120 67 199 120 67 199 120 67 199 120 67 199 120 67 199 120 67 199 120 67 199 120 67 199 120 67 199 120 67 199 120 67 199 120 67 199 120 67 199 120 67 199 120 67 199 120 67 199 120 67 199 120 67 199 120 67 199 120 67 199 120 67 199 120 67 199 120 67 199 120 67 199 120 67 199 120 67 199 120 67 199 120 67 199 120 67 199 120 67 199 120 67 199 120 67 199 120 67 199 120 67 199 120 67 199 120 67 199 120 67 199 120 67 199 120 67 199 120 67 199 120 67 199 120 67 199 120 67 199 120 67 199 120 67 199 120 67 199 120 67 199 120 67 199 120 67 199 120 67 199 120 67 199 120 67 199 120 67 199 120 67 199 120 67 199 120 67 199 120 67 199 120 67 199 120 67 199 120 67 199 120 67 199 120 67 199 120 67 199 120 67 199 120 67 199 120 67 199 120 67 199 120 67 199 120 67 199 120 67 199 120 67 199 120 67 199 120 67 199 120 67 199 120 67 199 120 67 199 120 67 199 120 67 199 120 67 199 120 67 199 120 67 199 120 67 199 120 67 199 120 67 199 120 67 199 120 67 199 120 67 199 120 67 199 120 67 199 120 67 199 120 67 199 120 67 199 120 67 199 120 67 199 120 67 199 120 67 199 120 67 199 120 67 199 120 67 199 120 67 199 123 200 40 123 200 40 123 200 40 123 200 40 123 200 40 123 200 40 123 200 40 123 200 40 123 200 40 123 200 40 123 200 40 123 200 40 123 200 40 123 200 40 123 200 40 123 200 40 123 200 40 123 200 40 123 200 40 123 200 40 123 200 40 123 200 40 123 200 40 123 200 40 123 200 40 123 200 40 123 200 40 123 200 40 123 200 40 123 200 40 123 200 40 123 200 40 123 200 40 123 200 40 123 200 40 123 200 40 123 200 40 123 200 40 123 200 40 123 200 40 123 200 40 123 200 40 123 200 40 123 200 40 123 200 40 123 200 40 123 200 40 123 200 40 123 200 40 123 200 40 123 200 40 123 200 40 123 200 40 123 200 40 123 200 40 123 200 40 123 200 40 123 200 40 123 200 40 123 200 40 123 200 40 123 200 40 123 200 40 123 200 40 123 200 40 123 200 40 123 200 40 123 200 40 123 200 40 123 200 40 123 200 40 123 200 40 123 200 40 123 200 40 123 200 40 123 200 40 123 200 40 123 200 40 123 200 40 123 200 40 123 200 40 123 200 40 123 200 40 123 200 40 123 200 40 123 200 40 123 200 40 123 200 40 123 200 40 123 200 40 123 200 40 123 200 40 123 200 40 123 200 40 123 200 40 123 200 40 123 200 40 123 200 40 123 200 40 123 200 40 123 200 40 123 200 40 123 200 40 123 200 40 123 200 40 123 200 40 123 200 40 123 200 40 123 200 40 123 200 40 123 200 40 123 200 40 123 200 40 123 200 40 123 200 40 123 200 40 123 200 40 123 200 40 123 200 40 123 200 40 123 200 40 123 200 40 123 200 40 123 200 40 123 200 40 123 200 40 123 200 40 123 200 40 123 200 40 123 200 40 123 200 40 123 200 40 123 200 40 123 200 40 123 200 40 123 200 40 123 200 40 123 200 40 123 200 40 123 200 40 123 200 40 123 200 40 123 200 40 123 200 40 123 200 40 123 200 40 123 200 40 123 200 40 123 200 40 123 200 40 123 200 40 123 200 40 123 200 40 123 200 40 123 200 40 123 200 40 123 200 40 123 200 40 123 200 40 123 200 40 123 200 40 123 200 40 123 200 40 123 200 40 123 200 40 123 200 40 123 200 40 123 200 40 123 200 40 123 200 40 123 200 40 123 200 40 123 200 40 123 200 40 123 200 40 123 200 40 123 200 40 123 200 40 123 200 40 123 200 40 123 200 40 123 200 40 123 200 40 123 200 40 123 200 40 123 200 40 123 200 40 123 200 40 123 200 40 123 200 40 123 200 40 123 200 40 123 200 40 123 200 40 123 200 40 123 200 40 123 200 40 123 200 40 123 200 40 123 200 40 111 249 107 111 249 107 111 249 107 111 249 107 111 249 107 111 249 107 111 249 107 111 249 107 111 249 107 111 249 107 111 249 107 111 249 107 111 249 107 111 249 107 111 249 107 111 249 107 111 249 107 111 249 107 111 249 107 111 249 107 111 249 107 111 249 107 111 249 107 111 249 107 111 249 107 111 249 107 111 249 107 111 249 107 111 249 107 111 249 107 111 249 107 111 249 107 111 249 107 111 249 107 111 249 107 111 249 107 111 249 107 111 249 107 111 249 107 111 249 107 111 249 107 111 249 107 111 249 107 111 249 107 111 249 107 111 249 107 111 249 107 111 249 107 111 249 107 111 249 107 111 249 107 111 249 107 111 249 107 111 249 107 111 249 107 111 249 107 111 249 107 111 249 107 111 249 107 111 249 107 111 249 107 111 249 107 111 249 107 111 249 107 111 249 107 111 249 107 111 249 107 111 249 107 111 249 107 111 249 107 111 249 107 111 249 107 111 249 107 111 249 107 111 249 107 111 249 107 111 249 107 111 249 107 111 249 107 111 249 107 111 249 107 111 249 107 111 249 107 111 249 107 111 249 107 111 249 107 111 249 107 111 249 107 111 249 107 111 249 107 111 249 107 111 249 107 111 249 107 111 249 107 111 249 107 111 249 107 111 249 107 111 249 107 111 249 107 111 249 107 111 249 107 111 249 107 111 249 107 111 249 107 111 249 107 111 249 107 111 249 107 111 249 107 111 249 107 111 249 107 111 249 107 111 249 107 111 249 107 111 249 107 111 249 107 111 249 107 111 249 107 111 249 107 111 249 107 111 249 107 111 249 107 111 249 107 111 249 107 111 249 107 111 249 107 111 249 107 111 249 107 111 249 107 111 249 107 111 249 107 111 249 107 111 249 107 111 249 107 111 249 107 111 249 107 111 249 107 111 249 107 111 249 107 111 249 107 111 249 107 111 249 107 111 249 107 111 249 107 111 249 107 111 249 107 111 249 107 111 249 107 111 249 107 111 249 107 111 249 107 111 249 107 111 249 107 111 249 107 111 249 107 111 249 107 111 249 107 111 249 107 111 249 107 111 249 107 111 249 107 111 249 107 111 249 107 111 249 107 111 249 107 111 249 107 111 249 107 111 249 107 111 249 107 111 249 107 111 249 107 111 249 107 111 249 107 111 249 107 111 249 107 111 249 107 111 249 107 111 249 107 111 249 107 111 249 107 111 249 107 111 249 107 111 249 107 111 249 107 111 249 107 111 249 107 111 249 107 111 249 107 111 249 107 111 249 107 111 249 107 111 249 107 111 249 107 111 249 107 111 249 107 111 249 107 111 249 107 111 249 107 111 249 107 111 249 107 111 249 107 123 200 40 123 200 40 123 200 40 123 200 40 123 200 40 123 200 40 123 200 40 123 200 40 123 200 40 123 200 40 123 200 40 123 200 40 123 200 40 123 200 40 123 200 40 123 200 40 123 200 40 123 200 40 123 200 40 123 200 40 123 200 40 123 200 40 123 200 40 123 200 40 123 200 40 123 200 40 123 200 40 123 200 40 123 200 40 123 200 40 123 200 40 123 200 40 123 200 40 123 200 40 123 200 40 123 200 40 123 200 40 123 200 40 123 200 40 123 200 40 123 200 40 123 200 40 123 200 40 123 200 40 123 200 40 123 200 40 123 200 40 123 200 40 123 200 40 123 200 40 123 200 40 123 200 40 123 200 40 123 200 40 123 200 40 123 200 40 123 200 40 123 200 40 123 200 40 123 200 40 123 200 40 123 200 40 123 200 40 123 200 40 123 200 40 123 200 40 123 200 40 123 200 40 123 200 40 123 200 40 123 200 40 123 200 40 123 200 40 123 200 40 123 200 40 123 200 40 123 200 40 123 200 40 123 200 40 123 200 40 123 200 40 123 200 40 123 200 40 123 200 40 123 200 40 123 200 40 123 200 40 123 200 40 123 200 40 123 200 40 123 200 40 123 200 40 123 200 40 123 200 40 123 200 40 123 200 40 123 200 40 123 200 40 123 200 40 123 200 40 123 200 40 123 200 40 123 200 40 123 200 40 123 200 40 123 200 40 123 200 40 123 200 40 123 200 40 123 200 40 123 200 40 123 200 40 123 200 40 123 200 40 123 200 40 123 200 40 123 200 40 123 200 40 123 200 40 123 200 40 123 200 40 123 200 40 123 200 40 123 200 40 123 200 40 123 200 40 123 200 40 123 200 40 123 200 40 123 200 40 123 200 40 123 200 40 123 200 40 123 200 40 123 200 40 123 200 40 123 200 40 123 200 40 123 200 40 123 200 40 123 200 40 123 200 40 123 200 40 123 200 40 123 200 40 123 200 40 123 200 40 123 200 40 123 200 40 123 200 40 123 200 40 123 200 40 123 200 40 123 200 40 123 200 40 123 200 40 123 200 40 123 200 40 123 200 40 123 200 40 123 200 40 123 200 40 123 200 40 123 200 40 123 200 40 123 200 40 123 200 40 123 200 40 123 200 40 123 200 40 123 200 40 123 200 40 123 200 40 123 200 40 123 200 40 123 200 40 123 200 40 123 200 40 123 200 40 123 200 40 123 200 40 123 200 40 123 200 40 123 200 40 123 200 40 123 200 40 123 200 40 123 200 40 123 200 40 123 200 40 123 200 40 123 200 40 123 200 40 123 200 40 123 200 40 123 200 40 123 200 40 123 200 40 123 200 40 123 200 40 154 100 146 154 100 146 154 100 146 154 100 146 154 100 146 154 100 146 154 100 146 154 100 146 154 100 146 154 100 146 154 100 146 154 100 146 154 100 146 154 100 146 154 100 146 154 100 146 154 100 146 154 100 146 154 100 146 154 100 146 154 100 146 154 100 146 154 100 146 154 100 146 154 100 146 154 100 146 154 100 146 154 100 146 154 100 146 154 100 146 154 100 146 154 100 146 154 100 146 154 100 146 154 100 146 154 100 146 154 100 146 154 100 146 154 100 146 154 100 146 154 100 146 154 100 146 154 100 146 154 100 146 154 100 146 154 100 146 154 100 146 154 100 146 154 100 146 154 100 146 154 100 146 154 100 146 154 100 146 154 100 146 154 100 146 154 100 146 154 100 146 154 100 146 154 100 146 154 100 146 154 100 146 154 100 146 154 100 146 154 100 146 154 100 146 154 100 146 154 100 146 154 100 146 154 100 146 154 100 146 154 100 146 154 100 146 154 100 146 154 100 146 154 100 146 154 100 146 154 100 146 154 100 146 154 100 146 154 100 146 154 100 146 154 100 146 154 100 146 154 100 146 154 100 146 154 100 146 154 100 146 154 100 146 154 100 146 154 100 146 154 100 146 154 100 146 154 100 146 154 100 146 154 100 146 154 100 146 154 100 146 154 100 146 154 100 146 154 100 146 154 100 146 154 100 146 154 100 146 154 100 146 154 100 146 154 100 146 154 100 146 154 100 146 154 100 146 154 100 146 154 100 146 154 100 146 154 100 146 154 100 146 154 100 146 154 100 146 154 100 146 154 100 146 154 100 146 154 100 146 154 100 146 154 100 146 154 100 146 154 100 146 154 100 146 154 100 146 154 100 146 154 100 146 154 100 146 154 100 146 154 100 146 154 100 146 154 100 146 154 100 146 154 100 146 154 100 146 154 100 146 154 100 146 154 100 146 154 100 146 154 100 146 154 100 146 154 100 146 154 100 146 154 100 146 154 100 146 154 100 146 154 100 146 154 100 146 154 100 146 154 100 146 154 100 146 154 100 146 154 100 146 154 100 146 154 100 146 154 100 146 154 100 146 154 100 146 154 100 146 154 100 146 154 100 146 154 100 146 154 100 146 154 100 146 154 100 146 154 100 146 154 100 146 154 100 146 154 100 146 154 100 146 154 100 146 154 100 146 154 100 146 154 100 146 154 100 146 154 100 146 154 100 146 154 100 146 154 100 146 154 100 146 154 100 146 154 100 146 154 100 146 154 100 146 154 100 146 154 100 146 154 100 146 154 100 146 154 100 146 154 100 146 154 100 146 154 100 146 154 100 146 154 100 146 154 100 146 154 100 146 154 100 146 154 100 146 154 100 146 123 200 40 123 200 40 123 200 40 123 200 40 123 200 40 123 200 40 123 200 40 123 200 40 123 200 40 123 200 40 123 200 40 123 200 40 123 200 40 123 200 40 123 200 40 123 200 40 123 200 40 123 200 40 123 200 40 123 200 40 123 200 40 123 200 40 123 200 40 123 200 40 123 200 40 123 200 40 123 200 40 123 200 40 123 200 40 123 200 40 123 200 40 123 200 40 123 200 40 123 200 40 123 200 40 123 200 40 123 200 40 123 200 40 123 200 40 123 200 40 123 200 40 123 200 40 123 200 40 123 200 40 123 200 40 123 200 40 123 200 40 123 200 40 123 200 40 123 200 40 123 200 40 123 200 40 123 200 40 123 200 40 123 200 40 123 200 40 123 200 40 123 200 40 123 200 40 123 200 40 123 200 40 123 200 40 123 200 40 123 200 40 123 200 40 123 200 40 123 200 40 123 200 40 123 200 40 123 200 40 123 200 40 123 200 40 123 200 40 123 200 40 123 200 40 123 200 40 123 200 40 123 200 40 123 200 40 123 200 40 123 200 40 123 200 40 123 200 40 123 200 40 123 200 40 123 200 40 123 200 40 123 200 40 123 200 40 123 200 40 123 200 40 123 200 40 123 200 40 123 200 40 123 200 40 123 200 40 123 200 40 123 200 40 123 200 40 123 200 40 123 200 40 123 200 40 123 200 40 123 200 40 123 200 40 123 200 40 123 200 40 123 200 40 123 200 40 123 200 40 123 200 40 123 200 40 123 200 40 123 200 40 123 200 40 123 200 40 123 200 40 123 200 40 123 200 40 123 200 40 123 200 40 123 200 40 123 200 40 123 200 40 123 200 40 123 200 40 123 200 40 123 200 40 123 200 40 123 200 40 123 200 40 123 200 40 123 200 40 123 200 40 123 200 40 123 200 40 123 200 40 123 200 40 123 200 40 123 200 40 123 200 40 123 200 40 123 200 40 123 200 40 123 200 40 123 200 40 123 200 40 123 200 40 123 200 40 123 200 40 123 200 40 123 200 40 123 200 40 123 200 40 123 200 40 123 200 40 123 200 40 123 200 40 123 200 40 123 200 40 123 200 40 123 200 40 123 200 40 123 200 40 123 200 40 123 200 40 123 200 40 123 200 40 123 200 40 123 200 40 123 200 40 123 200 40 123 200 40 123 200 40 123 200 40 123 200 40 123 200 40 123 200 40 123 200 40 123 200 40 123 200 40 123 200 40 123 200 40 123 200 40 123 200 40 123 200 40 123 200 40 123 200 40 123 200 40 123 200 40 123 200 40 123 200 40 123 200 40 123 200 40 123 200 40 123 200 40 123 200 40 123 200 40 123 200 40 123 200 40 222 70 16 222 70 16 222 70 16 222 70 16 222 70 16 222 70 16 222 70 16 222 70 16 222 70 16 222 70 16 222 70 16 222 70 16 222 70 16 222 70 16 222 70 16 222 70 16 222 70 16 222 70 16 222 70 16 222 70 16 222 70 16 222 70 16 222 70 16 222 70 16 222 70 16 222 70 16 222 70 16 222 70 16 222 70 16 222 70 16 222 70 16 222 70 16 222 70 16 222 70 16 222 70 16 222 70 16 222 70 16 222 70 16 222 70 16 222 70 16 222 70 16 222 70 16 222 70 16 222 70 16 222 70 16 222 70 16 222 70 16 222 70 16 222 70 16 222 70 16 222 70 16 222 70 16 222 70 16 222 70 16 222 70 16 222 70 16 222 70 16 222 70 16 222 70 16 222 70 16 222 70 16 222 70 16 222 70 16 222 70 16 222 70 16 222 70 16 222 70 16 222 70 16 222 70 16 222 70 16 222 70 16 222 70 16 222 70 16 222 70 16 222 70 16 222 70 16 222 70 16 222 70 16 222 70 16 222 70 16 222 70 16 222 70 16 222 70 16 222 70 16 222 70 16 222 70 16 222 70 16 222 70 16 222 70 16 222 70 16 222 70 16 222 70 16 222 70 16 222 70 16 222 70 16 222 70 16 222 70 16 222 70 16 222 70 16 222 70 16 222 70 16 222 70 16 222 70 16 222 70 16 222 70 16 222 70 16 222 70 16 222 70 16 222 70 16 222 70 16 222 70 16 222 70 16 222 70 16 222 70 16 222 70 16 222 70 16 222 70 16 222 70 16 222 70 16 222 70 16 222 70 16 222 70 16 222 70 16 222 70 16 222 70 16 222 70 16 222 70 16 222 70 16 222 70 16 222 70 16 222 70 16 222 70 16 222 70 16 222 70 16 222 70 16 222 70 16 222 70 16 222 70 16 222 70 16 222 70 16 222 70 16 222 70 16 222 70 16 222 70 16 222 70 16 222 70 16 222 70 16 222 70 16 222 70 16 222 70 16 222 70 16 222 70 16 222 70 16 222 70 16 222 70 16 222 70 16 222 70 16 222 70 16 222 70 16 222 70 16 222 70 16 222 70 16 222 70 16 222 70 16 222 70 16 222 70 16 222 70 16 222 70 16 222 70 16 222 70 16 222 70 16 222 70 16 222 70 16 222 70 16 222 70 16 222 70 16 222 70 16 222 70 16 222 70 16 222 70 16 222 70 16 222 70 16 222 70 16 222 70 16 222 70 16 222 70 16 222 70 16 222 70 16 222 70 16 222 70 16 222 70 16 222 70 16 222 70 16 222 70 16 222 70 16 222 70 16 222 70 16 222 70 16 222 70 16 222 70 16 123 200 40 123 200 40 123 200 40 123 200 40 123 200 40 123 200 40 123 200 40 123 200 40 123 200 40 123 200 40 123 200 40 123 200 40 123 200 40 123 200 40 123 200 40 123 200 40 123 200 40 123 200 40 123 200 40 123 200 40 123 200 40 123 200 40 123 200 40 123 200 40 123 200 40 123 200 40 123 200 40 123 200 40 123 200 40 123 200 40 123 200 40 123 200 40 123 200 40 123 200 40 123 200 40 123 200 40 123 200 40 123 200 40 123 200 40 123 200 40 123 200 40 123 200 40 123 200 40 123 200 40 123 200 40 123 200 40 123 200 40 123 200 40 123 200 40 123 200 40 123 200 40 123 200 40 123 200 40 123 200 40 123 200 40 123 200 40 123 200 40 123 200 40 123 200 40 123 200 40 123 200 40 123 200 40 123 200 40 123 200 40 123 200 40 123 200 40 123 200 40 123 200 40 123 200 40 123 200 40 123 200 40 123 200 40 123 200 40 123 200 40 123 200 40 123 200 40 123 200 40 123 200 40 123 200 40 123 200 40 123 200 40 123 200 40 123 200 40 123 200 40 123 200 40 123 200 40 123 200 40 123 200 40 123 200 40 123 200 40 123 200 40 123 200 40 123 200 40 123 200 40 123 200 40 123 200 40 123 200 40 123 200 40 123 200 40 123 200 40 123 200 40 123 200 40 123 200 40 123 200 40 123 200 40 123 200 40 123 200 40 123 200 40 123 200 40 123 200 40 123 200 40 123 200 40 123 200 40 123 200 40 123 200 40 123 200 40 123 200 40 123 200 40 123 200 40 123 200 40 123 200 40 123 200 40 123 200 40 123 200 40 123 200 40 123 200 40 123 200 40 123 200 40 123 200 40 123 200 40 123 200 40 123 200 40 123 200 40 123 200 40 123 200 40 123 200 40 123 200 40 123 200 40 123 200 40 123 200 40 123 200 40 123 200 40 123 200 40 123 200 40 123 200 40 123 200 40 123 200 40 123 200 40 123 200 40 123 200 40 123 200 40 123 200 40 123 200 40 123 200 40 123 200 40 123 200 40 123 200 40 123 200 40 123 200 40 123 200 40 123 200 40 123 200 40 123 200 40 123 200 40 123 200 40 123 200 40 123 200 40 123 200 40 123 200 40 123 200 40 123 200 40 123 200 40 123 200 40 123 200 40 123 200 40 123 200 40 123 200 40 123 200 40 123 200 40 123 200 40 123 200 40 123 200 40 123 200 40 123 200 40 123 200 40 123 200 40 123 200 40 123 200 40 123 200 40 123 200 40 123 200 40 123 200 40 123 200 40 123 200 40 123 200 40 123 200 40 123 200 40 123 200 40 123 200 40 123 200 40 240 147 240 240 147 240 240 147 240 240 147 240 240 147 240 240 147 240 240 147 240 240 147 240 240 147 240 240 147 240 240 147 240 240 147 240 240 147 240 240 147 240 240 147 240 240 147 240 240 147 240 240 147 240 240 147 240 240 147 240 240 147 240 240 147 240 240 147 240 240 147 240 240 147 240 240 147 240 240 147 240 240 147 240 240 147 240 240 147 240 240 147 240 240 147 240 240 147 240 240 147 240 240 147 240 240 147 240 240 147 240 240 147 240 240 147 240 240 147 240 240 147 240 240 147 240 240 147 240 240 147 240 240 147 240 240 147 240 240 147 240 240 147 240 240 147 240 240 147 240 240 147 240 240 147 240 240 147 240 240 147 240 240 147 240 240 147 240 240 147 240 240 147 240 240 147 240 240 147 240 240 147 240 240 147 240 240 147 240 240 147 240 240 147 240 240 147 240 240 147 240 240 147 240 240 147 240 240 147 240 240 147 240 240 147 240 240 147 240 240 147 240 240 147 240 240 147 240 240 147 240 240 147 240 240 147 240 240 147 240 240 147 240 240 147 240 240 147 240 240 147 240 240 147 240 240 147 240 240 147 240 240 147 240 240 147 240 240 147 240 240 147 240 240 147 240 240 147 240 240 147 240 240 147 240 240 147 240 240 147 240 240 147 240 240 147 240 240 147 240 240 147 240 240 147 240 240 147 240 240 147 240 240 147 240 240 147 240 240 147 240 240 147 240 240 147 240 240 147 240 240 147 240 240 147 240 240 147 240 240 147 240 240 147 240 240 147 240 240 147 240 240 147 240 240 147 240 240 147 240 240 147 240 240 147 240 240 147 240 240 147 240 240 147 240 240 147 240 240 147 240 240 147 240 240 147 240 240 147 240 240 147 240 240 147 240 240 147 240 240 147 240 240 147 240 240 147 240 240 147 240 240 147 240 240 147 240 240 147 240 240 147 240 240 147 240 240 147 240 240 147 240 240 147 240 240 147 240 240 147 240 240 147 240 240 147 240 240 147 240 240 147 240 240 147 240 240 147 240 240 147 240 240 147 240 240 147 240 240 147 240 240 147 240 240 147 240 240 147 240 240 147 240 240 147 240 240 147 240 240 147 240 240 147 240 240 147 240 240 147 240 240 147 240 240 147 240 240 147 240 240 147 240 240 147 240 240 147 240 240 147 240 240 147 240 240 147 240 240 147 240 240 147 240 240 147 240 240 147 240 240 147 240 240 147 240 240 147 240 240 147 240 240 147 240 240 147 240 240 147 240 240 147 240 240 147 240 240 147 240 240 147 240 240 147 240 240 147 240 240 147 240 240 147 240 240 147 240 240 147 240 240 147 240 240 147 240 240 147 240 123 200 40 123 200 40 123 200 40 123 200 40 123 200 40 123 200 40 123 200 40 123 200 40 123 200 40 123 200 40 123 200 40 123 200 40 123 200 40 123 200 40 123 200 40 123 200 40 123 200 40 123 200 40 123 200 40 123 200 40 123 200 40 123 200 40 123 200 40 123 200 40 123 200 40 123 200 40 123 200 40 123 200 40 123 200 40 123 200 40 123 200 40 123 200 40 123 200 40 123 200 40 123 200 40 123 200 40 123 200 40 123 200 40 123 200 40 123 200 40 123 200 40 123 200 40 123 200 40 123 200 40 123 200 40 123 200 40 123 200 40 123 200 40 123 200 40 123 200 40 123 200 40 123 200 40 123 200 40 123 200 40 123 200 40 123 200 40 123 200 40 123 200 40 123 200 40 123 200 40 123 200 40 123 200 40 123 200 40 123 200 40 123 200 40 123 200 40 123 200 40 123 200 40 123 200 40 123 200 40 123 200 40 123 200 40 123 200 40 123 200 40 123 200 40 123 200 40 123 200 40 123 200 40 123 200 40 123 200 40 123 200 40 123 200 40 123 200 40 123 200 40 123 200 40 123 200 40 123 200 40 123 200 40 123 200 40 123 200 40 123 200 40 123 200 40 123 200 40 123 200 40 123 200 40 123 200 40 123 200 40 123 200 40 123 200 40 123 200 40 123 200 40 123 200 40 123 200 40 123 200 40 123 200 40 123 200 40 123 200 40 123 200 40 123 200 40 123 200 40 123 200 40 123 200 40 123 200 40 123 200 40 123 200 40 123 200 40 123 200 40 123 200 40 123 200 40 123 200 40 123 200 40 123 200 40 123 200 40 123 200 40 123 200 40 123 200 40 123 200 40 123 200 40 123 200 40 123 200 40 123 200 40 123 200 40 123 200 40 123 200 40 123 200 40 123 200 40 123 200 40 123 200 40 123 200 40 123 200 40 123 200 40 123 200 40 123 200 40 123 200 40 123 200 40 123 200 40 123 200 40 123 200 40 123 200 40 123 200 40 123 200 40 123 200 40 123 200 40 123 200 40 123 200 40 123 200 40 123 200 40 123 200 40 123 200 40 123 200 40 123 200 40 123 200 40 123 200 40 123 200 40 123 200 40 123 200 40 123 200 40 123 200 40 123 200 40 123 200 40 123 200 40 123 200 40 123 200 40 123 200 40 123 200 40 123 200 40 123 200 40 123 200 40 123 200 40 123 200 40 123 200 40 123 200 40 123 200 40 123 200 40 123 200 40 123 200 40 123 200 40 123 200 40 123 200 40 123 200 40 123 200 40 123 200 40 123 200 40 123 200 40 123 200 40 123 200 40 123 200 40 123 200 40 123 200 40 123 200 40 44 65 217 44 65 217 44 65 217 44 65 217 44 65 217 44 65 217 44 65 217 44 65 217 44 65 217 44 65 217 44 65 217 44 65 217 44 65 217 44 65 217 44 65 217 44 65 217 44 65 217 44 65 217 44 65 217 44 65 217 44 65 217 44 65 217 44 65 217 44 65 217 44 65 217 44 65 217 44 65 217 44 65 217 44 65 217 44 65 217 44 65 217 44 65 217 44 65 217 44 65 217 44 65 217 44 65 217 44 65 217 44 65 217 44 65 217 44 65 217 44 65 217 44 65 217 44 65 217 44 65 217 44 65 217 44 65 217 44 65 217 44 65 217 44 65 217 44 65 217 44 65 217 44 65 217 44 65 217 44 65 217 44 65 217 44 65 217 44 65 217 44 65 217 44 65 217 44 65 217 44 65 217 44 65 217 44 65 217 44 65 217 44 65 217 44 65 217 44 65 217 44 65 217 44 65 217 44 65 217 44 65 217 44 65 217 44 65 217 44 65 217 44 65 217 44 65 217 44 65 217 44 65 217 44 65 217 44 65 217 44 65 217 44 65 217 44 65 217 44 65 217 44 65 217 44 65 217 44 65 217 44 65 217 44 65 217 44 65 217 44 65 217 44 65 217 44 65 217 44 65 217 44 65 217 44 65 217 44 65 217 44 65 217 44 65 217 44 65 217 44 65 217 44 65 217 44 65 217 44 65 217 44 65 217 44 65 217 44 65 217 44 65 217 44 65 217 44 65 217 44 65 217 44 65 217 44 65 217 44 65 217 44 65 217 44 65 217 44 65 217 44 65 217 44 65 217 44 65 217 44 65 217 44 65 217 44 65 217 44 65 217 44 65 217 44 65 217 44 65 217 44 65 217 44 65 217 44 65 217 44 65 217 44 65 217 44 65 217 44 65 217 44 65 217 44 65 217 44 65 217 44 65 217 44 65 217 44 65 217 44 65 217 44 65 217 44 65 217 44 65 217 44 65 217 44 65 217 44 65 217 44 65 217 44 65 217 44 65 217 44 65 217 44 65 217 44 65 217 44 65 217 44 65 217 44 65 217 44 65 217 44 65 217 44 65 217 44 65 217 44 65 217 44 65 217 44 65 217 44 65 217 44 65 217 44 65 217 44 65 217 44 65 217 44 65 217 44 65 217 44 65 217 44 65 217 44 65 217 44 65 217 44 65 217 44 65 217 44 65 217 44 65 217 44 65 217 44 65 217 44 65 217 44 65 217 44 65 217 44 65 217 44 65 217 44 65 217 44 65 217 44 65 217 44 65 217 44 65 217 44 65 217 44 65 217 44 65 217 44 65 217 44 65 217 44 65 217 44 65 217 44 65 217 44 65 217 44 65 217 123 200 40 123 200 40 123 200 40 123 200 40 123 200 40 123 200 40 123 200 40 123 200 40 123 200 40 123 200 40 123 200 40 123 200 40 123 200 40 123 200 40 123 200 40 123 200 40 123 200 40 123 200 40 123 200 40 123 200 40 123 200 40 123 200 40 123 200 40 123 200 40 123 200 40 123 200 40 123 200 40 123 200 40 123 200 40 123 200 40 123 200 40 123 200 40 123 200 40 123 200 40 123 200 40 123 200 40 123 200 40 123 200 40 123 200 40 123 200 40 123 200 40 123 200 40 123 200 40 123 200 40 123 200 40 123 200 40 123 200 40 123 200 40 123 200 40 123 200 40 123 200 40 123 200 40 123 200 40 123 200 40 123 200 40 123 200 40 123 200 40 123 200 40 123 200 40 123 200 40 123 200 40 123 200 40 123 200 40 123 200 40 123 200 40 123 200 40 123 200 40 123 200 40 123 200 40 123 200 40 123 200 40 123 200 40 123 200 40 123 200 40 123 200 40 123 200 40 123 200 40 123 200 40 123 200 40 123 200 40 123 200 40 123 200 40 123 200 40 123 200 40 123 200 40 123 200 40 123 200 40 123 200 40 123 200 40 123 200 40 123 200 40 123 200 40 123 200 40 123 200 40 123 200 40 123 200 40 123 200 40 123 200 40 123 200 40 123 200 40 123 200 40 123 200 40 123 200 40 123 200 40 123 200 40 123 200 40 123 200 40 123 200 40 123 200 40 123 200 40 123 200 40 123 200 40 123 200 40 123 200 40 123 200 40 123 200 40 123 200 40 123 200 40 123 200 40 123 200 40 123 200 40 123 200 40 123 200 40 123 200 40 123 200 40 123 200 40 123 200 40 123 200 40 123 200 40 123 200 40 123 200 40 123 200 40 123 200 40 123 200 40 123 200 40 123 200 40 123 200 40 123 200 40 123 200 40 123 200 40 123 200 40 123 200 40 123 200 40 123 200 40 123 200 40 123 200 40 123 200 40 123 200 40 123 200 40 123 200 40 123 200 40 123 200 40 123 200 40 123 200 40 123 200 40 123 200 40 123 200 40 123 200 40 123 200 40 123 200 40 123 200 40 123 200 40 123 200 40 123 200 40 123 200 40 123 200 40 123 200 40 123 200 40 123 200 40 123 200 40 123 200 40 123 200 40 123 200 40 123 200 40 123 200 40 123 200 40 123 200 40 123 200 40 123 200 40 123 200 40 123 200 40 123 200 40 123 200 40 123 200 40 123 200 40 123 200 40 123 200 40 123 200 40 123 200 40 123 200 40 123 200 40 123 200 40 123 200 40 123 200 40 123 200 40 123 200 40 123 200 40 123 200 40 123 200 40 123 200 40 58 8 0 58 8 0 58 8 0 58 8 0 58 8 0 58 8 0 58 8 0 58 8 0 58 8 0 58 8 0 58 8 0 58 8 0 58 8 0 58 8 0 58 8 0 58 8 0 58 8 0 58 8 0 58 8 0 58 8 0 58 8 0 58 8 0 58 8 0 58 8 0 58 8 0 58 8 0 58 8 0 58 8 0 58 8 0 58 8 0 58 8 0 58 8 0 58 8 0 58 8 0 58 8 0 58 8 0 58 8 0 58 8 0 58 8 0 58 8 0 58 8 0 58 8 0 58 8 0 58 8 0 58 8 0 58 8 0 58 8 0 58 8 0 58 8 0 58 8 0 58 8 0 58 8 0 58 8 0 58 8 0 58 8 0 58 8 0 58 8 0 58 8 0 58 8 0 58 8 0 58 8 0 58 8 0 58 8 0 58 8 0 58 8 0 58 8 0 58 8 0 58 8 0 58 8 0 58 8 0 58 8 0 58 8 0 58 8 0 58 8 0 58 8 0 58 8 0 58 8 0 58 8 0 58 8 0 58 8 0 58 8 0 58 8 0 58 8 0 58 8 0 58 8 0 58 8 0 58 8 0 58 8 0 58 8 0 58 8 0 58 8 0 58 8 0 58 8 0 58 8 0 58 8 0 58 8 0 58 8 0 58 8 0 58 8 0 58 8 0 58 8 0 58 8 0 58 8 0 58 8 0 58 8 0 58 8 0 58 8 0 58 8 0 58 8 0 58 8 0 58 8 0 58 8 0 58 8 0 58 8 0 58 8 0 58 8 0 58 8 0 58 8 0 58 8 0 58 8 0 58 8 0 58 8 0 58 8 0 58 8 0 58 8 0 58 8 0 58 8 0 58 8 0 58 8 0 58 8 0 58 8 0 58 8 0 58 8 0 58 8 0 58 8 0 58 8 0 58 8 0 58 8 0 58 8 0 58 8 0 58 8 0 58 8 0 58 8 0 58 8 0 58 8 0 58 8 0 58 8 0 58 8 0 58 8 0 58 8 0 58 8 0 58 8 0 58 8 0 58 8 0 58 8 0 58 8 0 58 8 0 58 8 0 58 8 0 58 8 0 58 8 0 58 8 0 58 8 0 58 8 0 58 8 0 58 8 0 58 8 0 58 8 0 58 8 0 58 8 0 58 8 0 58 8 0 58 8 0 58 8 0 58 8 0 58 8 0 58 8 0 58 8 0 58 8 0 58 8 0 58 8 0 58 8 0 58 8 0 58 8 0 58 8 0 58 8 0 58 8 0 58 8 0 58 8 0 58 8 0 58 8 0 58 8 0 58 8 0 58 8 0 58 8 0 58 8 0 58 8 0 58 8 0 58 8 0 58 8 0 123 200 40 123 200 40 123 200 40 123 200 40 123 200 40 123 200 40 123 200 40 123 200 40 123 200 40 123 200 40 123 200 40 123 200 40 123 200 40 123 200 40 123 200 40 123 200 40 123 200 40 123 200 40 123 200 40 123 200 40 123 200 40 123 200 40 123 200 40 123 200 40 123 200 40 123 200 40 123 200 40 123 200 40 123 200 40 123 200 40 123 200 40 123 200 40 123 200 40 123 200 40 123 200 40 123 200 40 123 200 40 123 200 40 123 200 40 123 200 40 123 200 40 123 200 40 123 200 40 123 200 40 123 200 40 123 200 40 123 200 40 123 200 40 123 200 40 123 200 40 123 200 40 123 200 40 123 200 40 123 200 40 123 200 40 123 200 40 123 200 40 123 200 40 123 200 40 123 200 40 123 200 40 123 200 40 123 200 40 123 200 40 123 200 40 123 200 40 123 200 40 123 200 40 123 200 40 123 200 40 123 200 40 123 200 40 123 200 40 123 200 40 123 200 40 123 200 40 123 200 40 123 200 40 123 200 40 123 200 40 123 200 40 123 200 40 123 200 40 123 200 40 123 200 40 123 200 40 123 200 40 123 200 40 123 200 40 123 200 40 123 200 40 123 200 40 123 200 40 123 200 40 123 200 40 123 200 40 123 200 40 123 200 40 123 200 40 123 200 40 123 200 40 123 200 40 123 200 40 123 200 40 123 200 40 123 200 40 123 200 40 123 200 40 123 200 40 123 200 40 123 200 40 123 200 40 123 200 40 123 200 40 123 200 40 123 200 40 123 200 40 123 200 40 123 200 40 123 200 40 123 200 40 123 200 40 123 200 40 123 200 40 123 200 40 123 200 40 123 200 40 123 200 40 123 200 40 123 200 40 123 200 40 123 200 40 123 200 40 123 200 40 123 200 40 123 200 40 123 200 40 123 200 40 123 200 40 123 200 40 123 200 40 123 200 40 123 200 40 123 200 40 123 200 40 123 200 40 123 200 40 123 200 40 123 200 40 123 200 40 123 200 40 123 200 40 123 200 40 123 200 40 123 200 40 123 200 40 123 200 40 123 200 40 123 200 40 123 200 40 123 200 40 123 200 40 123 200 40 123 200 40 123 200 40 123 200 40 123 200 40 123 200 40 123 200 40 123 200 40 123 200 40 123 200 40 123 200 40 123 200 40 123 200 40 123 200 40 123 200 40 123 200 40 123 200 40 123 200 40 123 200 40 123 200 40 123 200 40 123 200 40 123 200 40 123 200 40 123 200 40 123 200 40 123 200 40 123 200 40 123 200 40 123 200 40 123 200 40 123 200 40 123 200 40 123 200 40 123 200 40 123 200 40 123 200 40 123 200 40 84 60 159 84 60 159 84 60 159 84 60 159 84 60 159 84 60 159 84 60 159 84 60 159 84 60 159 84 60 159 84 60 159 84 60 159 84 60 159 84 60 159 84 60 159 84 60 159 84 60 159 84 60 159 84 60 159 84 60 159 84 60 159 84 60 159 84 60 159 84 60 159 84 60 159 84 60 159 84 60 159 84 60 159 84 60 159 84 60 159 84 60 159 84 60 159 84 60 159 84 60 159 84 60 159 84 60 159 84 60 159 84 60 159 84 60 159 84 60 159 84 60 159 84 60 159 84 60 159 84 60 159 84 60 159 84 60 159 84 60 159 84 60 159 84 60 159 84 60 159 84 60 159 84 60 159 84 60 159 84 60 159 84 60 159 84 60 159 84 60 159 84 60 159 84 60 159 84 60 159 84 60 159 84 60 159 84 60 159 84 60 159 84 60 159 84 60 159 84 60 159 84 60 159 84 60 159 84 60 159 84 60 159 84 60 159 84 60 159 84 60 159 84 60 159 84 60 159 84 60 159 84 60 159 84 60 159 84 60 159 84 60 159 84 60 159 84 60 159 84 60 159 84 60 159 84 60 159 84 60 159 84 60 159 84 60 159 84 60 159 84 60 159 84 60 159 84 60 159 84 60 159 84 60 159 84 60 159 84 60 159 84 60 159 84 60 159 84 60 159 84 60 159 84 60 159 84 60 159 84 60 159 84 60 159 84 60 159 84 60 159 84 60 159 84 60 159 84 60 159 84 60 159 84 60 159 84 60 159 84 60 159 84 60 159 84 60 159 84 60 159 84 60 159 84 60 159 84 60 159 84 60 159 84 60 159 84 60 159 84 60 159 84 60 159 84 60 159 84 60 159 84 60 159 84 60 159 84 60 159 84 60 159 84 60 159 84 60 159 84 60 159 84 60 159 84 60 159 84 60 159 84 60 159 84 60 159 84 60 159 84 60 159 84 60 159 84 60 159 84 60 159 84 60 159 84 60 159 84 60 159 84 60 159 84 60 159 84 60 159 84 60 159 84 60 159 84 60 159 84 60 159 84 60 159 84 60 159 84 60 159 84 60 159 84 60 159 84 60 159 84 60 159 84 60 159 84 60 159 84 60 159 84 60 159 84 60 159 84 60 159 84 60 159 84 60 159 84 60 159 84 60 159 84 60 159 84 60 159 84 60 159 84 60 159 84 60 159 84 60 159 84 60 159 84 60 159 84 60 159 84 60 159 84 60 159 84 60 159 84 60 159 84 60 159 84 60 159 84 60 159 84 60 159 84 60 159 84 60 159 84 60 159 84 60 159 84 60 159 84 60 159 84 60 159 84 60 159 84 60 159 84 60 159 84 60 159 84 60 159 123 200 40 123 200 40 123 200 40 123 200 40 123 200 40 123 200 40 123 200 40 123 200 40 123 200 40 123 200 40 123 200 40 123 200 40 123 200 40 123 200 40 123 200 40 123 200 40 123 200 40 123 200 40 123 200 40 123 200 40 123 200 40 123 200 40 123 200 40 123 200 40 123 200 40 123 200 40 123 200 40 123 200 40 123 200 40 123 200 40 123 200 40 123 200 40 123 200 40 123 200 40 123 200 40 123 200 40 123 200 40 123 200 40 123 200 40 123 200 40 123 200 40 123 200 40 123 200 40 123 200 40 123 200 40 123 200 40 123 200 40 123 200 40 123 200 40 123 200 40 123 200 40 123 200 40 123 200 40 123 200 40 123 200 40 123 200 40 123 200 40 123 200 40 123 200 40 123 200 40 123 200 40 123 200 40 123 200 40 123 200 40 123 200 40 123 200 40 123 200 40 123 200 40 123 200 40 123 200 40 123 200 40 123 200 40 123 200 40 123 200 40 123 200 40 123 200 40 123 200 40 123 200 40 123 200 40 123 200 40 123 200 40 123 200 40 123 200 40 123 200 40 123 200 40 123 200 40 123 200 40 123 200 40 123 200 40 123 200 40 123 200 40 123 200 40 123 200 40 123 200 40 123 200 40 123 200 40 123 200 40 123 200 40 123 200 40 123 200 40 123 200 40 123 200 40 123 200 40 123 200 40 123 200 40 123 200 40 123 200 40 123 200 40 123 200 40 123 200 40 123 200 40 123 200 40 123 200 40 123 200 40 123 200 40 123 200 40 123 200 40 123 200 40 123 200 40 123 200 40 123 200 40 123 200 40 123 200 40 123 200 40 123 200 40 123 200 40 123 200 40 123 200 40 123 200 40 123 200 40 123 200 40 123 200 40 123 200 40 123 200 40 123 200 40 123 200 40 123 200 40 123 200 40 123 200 40 123 200 40 123 200 40 123 200 40 123 200 40 123 200 40 123 200 40 123 200 40 123 200 40 123 200 40 123 200 40 123 200 40 123 200 40 123 200 40 123 200 40 123 200 40 123 200 40 123 200 40 123 200 40 123 200 40 123 200 40 123 200 40 123 200 40 123 200 40 123 200 40 123 200 40 123 200 40 123 200 40 123 200 40 123 200 40 123 200 40 123 200 40 123 200 40 123 200 40 123 200 40 123 200 40 123 200 40 123 200 40 123 200 40 123 200 40 123 200 40 123 200 40 123 200 40 123 200 40 123 200 40 123 200 40 123 200 40 123 200 40 123 200 40 123 200 40 123 200 40 123 200 40 123 200 40 123 200 40 123 200 40 123 200 40 123 200 40 123 200 40 123 200 40 123 200 40 123 200 40 123 200 40 191 199 184 191 199 184 191 199 184 191 199 184 191 199 184 191 199 184 191 199 184 191 199 184 191 199 184 191 199 184 191 199 184 191 199 184 191 199 184 191 199 184 191 199 184 191 199 184 191 199 184 191 199 184 191 199 184 191 199 184 191 199 184 191 199 184 191 199 184 191 199 184 191 199 184 191 199 184 191 199 184 191 199 184 191 199 184 191 199 184 191 199 184 191 199 184 191 199 184 191 199 184 191 199 184 191 199 184 191 199 184 191 199 184 191 199 184 191 199 184 191 199 184 191 199 184 191 199 184 191 199 184 191 199 184 191 199 184 191 199 184 191 199 184 191 199 184 191 199 184 191 199 184 191 199 184 191 199 184 191 199 184 191 199 184 191 199 184 191 199 184 191 199 184 191 199 184 191 199 184 191 199 184 191 199 184 191 199 184 191 199 184 191 199 184 191 199 184 191 199 184 191 199 184 191 199 184 191 199 184 191 199 184 191 199 184 191 199 184 191 199 184 191 199 184 191 199 184 191 199 184 191 199 184 191 199 184 191 199 184 191 199 184 191 199 184 191 199 184 191 199 184 191 199 184 191 199 184 191 199 184 191 199 184 191 199 184 191 199 184 191 199 184 191 199 184 191 199 184 191 199 184 191 199 184 191 199 184 191 199 184 191 199 184 191 199 184 191 199 184 191 199 184 191 199 184 191 199 184 191 199 184 191 199 184 191 199 184 191 199 184 191 199 184 191 199 184 191 199 184 191 199 184 191 199 184 191 199 184 191 199 184 191 199 184 191 199 184 191 199 184 191 199 184 191 199 184 191 199 184 191 199 184 191 199 184 191 199 184 191 199 184 191 199 184 191 199 184 191 199 184 191 199 184 191 199 184 191 199 184 191 199 184 191 199 184 191 199 184 191 199 184 191 199 184 191 199 184 191 199 184 191 199 184 191 199 184 191 199 184 191 199 184 191 199 184 191 199 184 191 199 184 191 199 184 191 199 184 191 199 184 191 199 184 191 199 184 191 199 184 191 199 184 191 199 184 191 199 184 191 199 184 191 199 184 191 199 184 191 199 184 191 199 184 191 199 184 191 199 184 191 199 184 191 199 184 191 199 184 191 199 184 191 199 184 191 199 184 191 199 184 191 199 184 191 199 184 191 199 184 191 199 184 191 199 184 191 199 184 191 199 184 191 199 184 191 199 184 191 199 184 191 199 184 191 199 184 191 199 184 191 199 184 191 199 184 191 199 184 191 199 184 191 199 184 191 199 184 191 199 184 191 199 184 191 199 184 191 199 184 191 199 184 191 199 184 191 199 184 191 199 184 191 199 184 191 199 184 191 199 184 191 199 184 191 199 184 191 199 184 123 200 40 123 200 40 123 200 40 123 200 40 123 200 40 123 200 40 123 200 40 123 200 40 123 200 40 123 200 40 123 200 40 123 200 40 123 200 40 123 200 40 123 200 40 123 200 40 123 200 40 123 200 40 123 200 40 123 200 40 123 200 40 123 200 40 123 200 40 123 200 40 123 200 40 123 200 40 123 200 40 123 200 40 123 200 40 123 200 40 123 200 40 123 200 40 123 200 40 123 200 40 123 200 40 123 200 40 123 200 40 123 200 40 123 200 40 123 200 40 123 200 40 123 200 40 123 200 40 123 200 40 123 200 40 123 200 40 123 200 40 123 200 40 123 200 40 123 200 40 123 200 40 123 200 40 123 200 40 123 200 40 123 200 40 123 200 40 123 200 40 123 200 40 123 200 40 123 200 40 123 200 40 123 200 40 123 200 40 123 200 40 123 200 40 123 200 40 123 200 40 123 200 40 123 200 40 123 200 40 123 200 40 123 200 40 123 200 40 123 200 40 123 200 40 123 200 40 123 200 40 123 200 40 123 200 40 123 200 40 123 200 40 123 200 40 123 200 40 123 200 40 123 200 40 123 200 40 123 200 40 123 200 40 123 200 40 123 200 40 123 200 40 123 200 40 123 200 40 123 200 40 123 200 40 123 200 40 123 200 40 123 200 40 123 200 40 123 200 40 123 200 40 123 200 40 123 200 40 123 200 40 123 200 40 123 200 40 123 200 40 123 200 40 123 200 40 123 200 40 123 200 40 123 200 40 123 200 40 123 200 40 123 200 40 123 200 40 123 200 40 123 200 40 123 200 40 123 200 40 123 200 40 123 200 40 123 200 40 123 200 40 123 200 40 123 200 40 123 200 40 123 200 40 123 200 40 123 200 40 123 200 40 123 200 40 123 200 40 123 200 40 123 200 40 123 200 40 123 200 40 123 200 40 123 200 40 123 200 40 123 200 40 123 200 40 123 200 40 123 200 40 123 200 40 123 200 40 123 200 40 123 200 40 123 200 40 123 200 40 123 200 40 123 200 40 123 200 40 123 200 40 123 200 40 123 200 40 123 200 40 123 200 40 123 200 40 123 200 40 123 200 40 123 200 40 123 200 40 123 200 40 123 200 40 123 200 40 123 200 40 123 200 40 123 200 40 123 200 40 123 200 40 123 200 40 123 200 40 123 200 40 123 200 40 123 200 40 123 200 40 123 200 40 123 200 40 123 200 40 123 200 40 123 200 40 123 200 40 123 200 40 123 200 40 123 200 40 123 200 40 123 200 40 123 200 40 123 200 40 123 200 40 123 200 40 123 200 40 123 200 40 123 200 40 123 200 40 123 200 40 123 200 40 123 200 40 123 200 40 57 193 242 57 193 242 57 193 242 57 193 242 57 193 242 57 193 242 57 193 242 57 193 242 57 193 242 57 193 242 57 193 242 57 193 242 57 193 242 57 193 242 57 193 242 57 193 242 57 193 242 57 193 242 57 193 242 57 193 242 57 193 242 57 193 242 57 193 242 57 193 242 57 193 242 57 193 242 57 193 242 57 193 242 57 193 242 57 193 242 57 193 242 57 193 242 57 193 242 57 193 242 57 193 242 57 193 242 57 193 242 57 193 242 57 193 242 57 193 242 57 193 242 57 193 242 57 193 242 57 193 242 57 193 242 57 193 242 57 193 242 57 193 242 57 193 242 57 193 242 57 193 242 57 193 242 57 193 242 57 193 242 57 193 242 57 193 242 57 193 242 57 193 242 57 193 242 57 193 242 57 193 242 57 193 242 57 193 242 57 193 242 57 193 242 57 193 242 57 193 242 57 193 242 57 193 242 57 193 242 57 193 242 57 193 242 57 193 242 57 193 242 57 193 242 57 193 242 57 193 242 57 193 242 57 193 242 57 193 242 57 193 242 57 193 242 57 193 242 57 193 242 57 193 242 57 193 242 57 193 242 57 193 242 57 193 242 57 193 242 57 193 242 57 193 242 57 193 242 57 193 242 57 193 242 57 193 242 57 193 242 57 193 242 57 193 242 57 193 242 57 193 242 57 193 242 57 193 242 57 193 242 57 193 242 57 193 242 57 193 242 57 193 242 57 193 242 57 193 242 57 193 242 57 193 242 57 193 242 57 193 242 57 193 242 57 193 242 57 193 242 57 193 242 57 193 242 57 193 242 57 193 242 57 193 242 57 193 242 57 193 242 57 193 242 57 193 242 57 193 242 57 193 242 57 193 242 57 193 242 57 193 242 57 193 242 57 193 242 57 193 242 57 193 242 57 193 242 57 193 242 57 193 242 57 193 242 57 193 242 57 193 242 57 193 242 57 193 242 57 193 242 57 193 242 57 193 242 57 193 242 57 193 242 57 193 242 57 193 242 57 193 242 57 193 242 57 193 242 57 193 242 57 193 242 57 193 242 57 193 242 57 193 242 57 193 242 57 193 242 57 193 242 57 193 242 57 193 242 57 193 242 57 193 242 57 193 242 57 193 242 57 193 242 57 193 242 57 193 242 57 193 242 57 193 242 57 193 242 57 193 242 57 193 242 57 193 242 57 193 242 57 193 242 57 193 242 57 193 242 57 193 242 57 193 242 57 193 242 57 193 242 57 193 242 57 193 242 57 193 242 57 193 242 57 193 242 57 193 242 57 193 242 57 193 242 57 193 242 57 193 242 57 193 242 57 193 242 57 193 242 57 193 242 57 193 242 57 193 242 123 200 40 123 200 40 123 200 40 123 200 40 123 200 40 123 200 40 123 200 40 123 200 40 123 200 40 123 200 40 123 200 40 123 200 40 123 200 40 123 200 40 123 200 40 123 200 40 123 200 40 123 200 40 123 200 40 123 200 40 123 200 40 123 200 40 123 200 40 123 200 40 123 200 40 123 200 40 123 200 40 123 200 40 123 200 40 123 200 40 123 200 40 123 200 40 123 200 40 123 200 40 123 200 40 123 200 40 123 200 40 123 200 40 123 200 40 123 200 40 123 200 40 123 200 40 123 200 40 123 200 40 123 200 40 123 200 40 123 200 40 123 200 40 123 200 40 123 200 40 123 200 40 123 200 40 123 200 40 123 200 40 123 200 40 123 200 40 123 200 40 123 200 40 123 200 40 123 200 40 123 200 40 123 200 40 123 200 40 123 200 40 123 200 40 123 200 40 123 200 40 123 200 40 123 200 40 123 200 40 123 200 40 123 200 40 123 200 40 123 200 40 123 200 40 123 200 40 123 200 40 123 200 40 123 200 40 123 200 40 123 200 40 123 200 40 123 200 40 123 200 40 123 200 40 123 200 40 123 200 40 123 200 40 123 200 40 123 200 40 123 200 40 123 200 40 123 200 40 123 200 40 123 200 40 123 200 40 123 200 40 123 200 40 123 200 40 123 200 40 123 200 40 123 200 40 123 200 40 123 200 40 123 200 40 123 200 40 123 200 40 123 200 40 123 200 40 123 200 40 123 200 40 123 200 40 123 200 40 123 200 40 123 200 40 123 200 40 123 200 40 123 200 40 123 200 40 123 200 40 123 200 40 123 200 40 123 200 40 123 200 40 123 200 40 123 200 40 123 200 40 123 200 40 123 200 40 123 200 40 123 200 40 123 200 40 123 200 40 123 200 40 123 200 40 123 200 40 123 200 40 123 200 40 123 200 40 123 200 40 123 200 40 123 200 40 123 200 40 123 200 40 123 200 40 123 200 40 123 200 40 123 200 40 123 200 40 123 200 40 123 200 40 123 200 40 123 200 40 123 200 40 123 200 40 123 200 40 123 200 40 123 200 40 123 200 40 123 200 40 123 200 40 123 200 40 123 200 40 123 200 40 123 200 40 123 200 40 123 200 40 123 200 40 123 200 40 123 200 40 123 200 40 123 200 40 123 200 40 123 200 40 123 200 40 123 200 40 123 200 40 123 200 40 123 200 40 123 200 40 123 200 40 123 200 40 123 200 40 123 200 40 123 200 40 123 200 40 123 200 40 123 200 40 123 200 40 123 200 40 123 200 40 123 200 40 123 200 40 123 200 40 123 200 40 123 200 40 123 200 40 123 200 40 123 200 40 123 200 40 124 136 220 124 136 220 124 136 220 124 136 220 124 136 220 124 136 220 124 136 220 124 136 220 124 136 220 124 136 220 124 136 220 124 136 220 124 136 220 124 136 220 124 136 220 124 136 220 124 136 220 124 136 220 124 136 220 124 136 220 124 136 220 124 136 220 124 136 220 124 136 220 124 136 220 124 136 220 124 136 220 124 136 220 124 136 220 124 136 220 124 136 220 124 136 220 124 136 220 124 136 220 124 136 220 124 136 220 124 136 220 124 136 220 124 136 220 124 136 220 124 136 220 124 136 220 124 136 220 124 136 220 124 136 220 124 136 220 124 136 220 124 136 220 124 136 220 124 136 220 124 136 220 124 136 220 124 136 220 124 136 220 124 136 220 124 136 220 124 136 220 124 136 220 124 136 220 124 136 220 124 136 220 124 136 220 124 136 220 124 136 220 124 136 220 124 136 220 124 136 220 124 136 220 124 136 220 124 136 220 124 136 220 124 136 220 124 136 220 124 136 220 124 136 220 124 136 220 124 136 220 124 136 220 124 136 220 124 136 220 124 136 220 124 136 220 124 136 220 124 136 220 124 136 220 124 136 220 124 136 220 124 136 220 124 136 220 124 136 220 124 136 220 124 136 220 124 136 220 124 136 220 124 136 220 124 136 220 124 136 220 124 136 220 124 136 220 124 136 220 124 136 220 124 136 220 124 136 220 124 136 220 124 136 220 124 136 220 124 136 220 124 136 220 124 136 220 124 136 220 124 136 220 124 136 220 124 136 220 124 136 220 124 136 220 124 136 220 124 136 220 124 136 220 124 136 220 124 136 220 124 136 220 124 136 220 124 136 220 124 136 220 124 136 220 124 136 220 124 136 220 124 136 220 124 136 220 124 136 220 124 136 220 124 136 220 124 136 220 124 136 220 124 136 220 124 136 220 124 136 220 124 136 220 124 136 220 124 136 220 124 136 220 124 136 220 124 136 220 124 136 220 124 136 220 124 136 220 124 136 220 124 136 220 124 136 220 124 136 220 124 136 220 124 136 220 124 136 220 124 136 220 124 136 220 124 136 220 124 136 220 124 136 220 124 136 220 124 136 220 124 136 220 124 136 220 124 136 220 124 136 220 124 136 220 124 136 220 124 136 220 124 136 220 124 136 220 124 136 220 124 136 220 124 136 220 124 136 220 124 136 220 124 136 220 124 136 220 124 136 220 124 136 220 124 136 220 124 136 220 124 136 220 124 136 220 124 136 220 124 136 220 124 136 220 124 136 220 124 136 220 124 136 220 124 136 220 124 136 220 124 136 220 124 136 220 124 136 220 124 136 220 124 136 220 124 136 220 124 136 220 124 136 220 124 136 220 124 136 220 123 200 40 123 200 40 123 200 40 123 200 40 123 200 40 123 200 40 123 200 40 123 200 40 123 200 40 123 200 40 123 200 40 123 200 40 123 200 40 123 200 40 123 200 40 123 200 40 123 200 40 123 200 40 123 200 40 123 200 40 123 200 40 123 200 40 123 200 40 123 200 40 123 200 40 123 200 40 123 200 40 123 200 40 123 200 40 123 200 40 123 200 40 123 200 40 123 200 40 123 200 40 123 200 40 123 200 40 123 200 40 123 200 40 123 200 40 123 200 40 123 200 40 123 200 40 123 200 40 123 200 40 123 200 40 123 200 40 123 200 40 123 200 40 123 200 40 123 200 40 123 200 40 123 200 40 123 200 40 123 200 40 123 200 40 123 200 40 123 200 40 123 200 40 123 200 40 123 200 40 123 200 40 123 200 40 123 200 40 123 200 40 123 200 40 123 200 40 123 200 40 123 200 40 123 200 40 123 200 40 123 200 40 123 200 40 123 200 40 123 200 40 123 200 40 123 200 40 123 200 40 123 200 40 123 200 40 123 200 40 123 200 40 123 200 40 123 200 40 123 200 40 123 200 40 123 200 40 123 200 40 123 200 40 123 200 40 123 200 40 123 200 40 123 200 40 123 200 40 123 200 40 123 200 40 123 200 40 123 200 40 123 200 40 123 200 40 123 200 40 123 200 40 123 200 40 123 200 40 123 200 40 123 200 40 123 200 40 123 200 40 123 200 40 123 200 40 123 200 40 123 200 40 123 200 40 123 200 40 123 200 40 123 200 40 123 200 40 123 200 40 123 200 40 123 200 40 123 200 40 123 200 40 123 200 40 123 200 40 123 200 40 123 200 40 123 200 40 123 200 40 123 200 40 123 200 40 123 200 40 123 200 40 123 200 40 123 200 40 123 200 40 123 200 40 123 200 40 123 200 40 123 200 40 123 200 40 123 200 40 123 200 40 123 200 40 123 200 40 123 200 40 123 200 40 123 200 40 123 200 40 123 200 40 123 200 40 123 200 40 123 200 40 123 200 40 123 200 40 123 200 40 123 200 40 123 200 40 123 200 40 123 200 40 123 200 40 123 200 40 123 200 40 123 200 40 123 200 40 123 200 40 123 200 40 123 200 40 123 200 40 123 200 40 123 200 40 123 200 40 123 200 40 123 200 40 123 200 40 123 200 40 123 200 40 123 200 40 123 200 40 123 200 40 123 200 40 123 200 40 123 200 40 123 200 40 123 200 40 123 200 40 123 200 40 123 200 40 123 200 40 123 200 40 123 200 40 123 200 40 123 200 40 123 200 40 123 200 40 123 200 40 123 200 40 123 200 40 123 200 40 123 200 40 123 200 40 123 200 40 117 244 84 117 244 84 117 244 84 117 244 84 117 244 84 117 244 84 117 244 84 117 244 84 117 244 84 117 244 84 117 244 84 117 244 84 117 244 84 117 244 84 117 244 84 117 244 84 117 244 84 117 244 84 117 244 84 117 244 84 117 244 84 117 244 84 117 244 84 117 244 84 117 244 84 117 244 84 117 244 84 117 244 84 117 244 84 117 244 84 117 244 84 117 244 84 117 244 84 117 244 84 117 244 84 117 244 84 117 244 84 117 244 84 117 244 84 117 244 84 117 244 84 117 244 84 117 244 84 117 244 84 117 244 84 117 244 84 117 244 84 117 244 84 117 244 84 117 244 84 117 244 84 117 244 84 117 244 84 117 244 84 117 244 84 117 244 84 117 244 84 117 244 84 117 244 84 117 244 84 117 244 84 117 244 84 117 244 84 117 244 84 117 244 84 117 244 84 117 244 84 117 244 84 117 244 84 117 244 84 117 244 84 117 244 84 117 244 84 117 244 84 117 244 84 117 244 84 117 244 84 117 244 84 117 244 84 117 244 84 117 244 84 117 244 84 117 244 84 117 244 84 117 244 84 117 244 84 117 244 84 117 244 84 117 244 84 117 244 84 117 244 84 117 244 84 117 244 84 117 244 84 117 244 84 117 244 84 117 244 84 117 244 84 117 244 84 117 244 84 117 244 84 117 244 84 117 244 84 117 244 84 117 244 84 117 244 84 117 244 84 117 244 84 117 244 84 117 244 84 117 244 84 117 244 84 117 244 84 117 244 84 117 244 84 117 244 84 117 244 84 117 244 84 117 244 84 117 244 84 117 244 84 117 244 84 117 244 84 117 244 84 117 244 84 117 244 84 117 244 84 117 244 84 117 244 84 117 244 84 117 244 84 117 244 84 117 244 84 117 244 84 117 244 84 117 244 84 117 244 84 117 244 84 117 244 84 117 244 84 117 244 84 117 244 84 117 244 84 117 244 84 117 244 84 117 244 84 117 244 84 117 244 84 117 244 84 117 244 84 117 244 84 117 244 84 117 244 84 117 244 84 117 244 84 117 244 84 117 244 84 117 244 84 117 244 84 117 244 84 117 244 84 117 244 84 117 244 84 117 244 84 117 244 84 117 244 84 117 244 84 117 244 84 117 244 84 117 244 84 117 244 84 117 244 84 117 244 84 117 244 84 117 244 84 117 244 84 117 244 84 117 244 84 117 244 84 117 244 84 117 244 84 117 244 84 117 244 84 117 244 84 117 244 84 117 244 84 117 244 84 117 244 84 117 244 84 117 244 84 117 244 84 117 244 84 117 244 84 117 244 84 117 244 84 117 244 84 117 244 84 117 244 84 117 244 84 117 244 84 123 200 40 123 200 40 123 200 40 123 200 40 123 200 40 123 200 40 123 200 40 123 200 40 123 200 40 123 200 40 123 200 40 123 200 40 123 200 40 123 200 40 123 200 40 123 200 40 123 200 40 123 200 40 123 200 40 123 200 40 123 200 40 123 200 40 123 200 40 123 200 40 123 200 40 123 200 40 123 200 40 123 200 40 123 200 40 123 200 40 123 200 40 123 200 40 123 200 40 123 200 40 123 200 40 123 200 40 123 200 40 123 200 40 123 200 40 123 200 40 123 200 40 123 200 40 123 200 40 123 200 40 123 200 40 123 200 40 123 200 40 123 200 40 123 200 40 123 200 40 123 200 40 123 200 40 123 200 40 123 200 40 123 200 40 123 200 40 123 200 40 123 200 40 123 200 40 123 200 40 123 200 40 123 200 40 123 200 40 123 200 40 123 200 40 123 200 40 123 200 40 123 200 40 123 200 40 123 200 40 123 200 40 123 200 40 123 200 40 123 200 40 123 200 40 123 200 40 123 200 40 123 200 40 123 200 40 123 200 40 123 200 40 123 200 40 123 200 40 123 200 40 123 200 40 123 200 40 123 200 40 123 200 40 123 200 40 123 200 40 123 200 40 123 200 40 123 200 40 123 200 40 123 200 40 123 200 40 123 200 40 123 200 40 123 200 40 123 200 40 123 200 40 123 200 40 123 200 40 123 200 40 123 200 40 123 200 40 123 200 40 123 200 40 123 200 40 123 200 40 123 200 40 123 200 40 123 200 40 123 200 40 123 200 40 123 200 40 123 200 40 123 200 40 123 200 40 123 200 40 123 200 40 123 200 40 123 200 40 123 200 40 123 200 40 123 200 40 123 200 40 123 200 40 123 200 40 123 200 40 123 200 40 123 200 40 123 200 40 123 200 40 123 200 40 123 200 40 123 200 40 123 200 40 123 200 40 123 200 40 123 200 40 123 200 40 123 200 40 123 200 40 123 200 40 123 200 40 123 200 40 123 200 40 123 200 40 123 200 40 123 200 40 123 200 40 123 200 40 123 200 40 123 200 40 123 200 40 123 200 40 123 200 40 123 200 40 123 200 40 123 200 40 123 200 40 123 200 40 123 200 40 123 200 40 123 200 40 123 200 40 123 200 40 123 200 40 123 200 40 123 200 40 123 200 40 123 200 40 123 200 40 123 200 40 123 200 40 123 200 40 123 200 40 123 200 40 123 200 40 123 200 40 123 200 40 123 200 40 123 200 40 123 200 40 123 200 40 123 200 40 123 200 40 123 200 40 123 200 40 123 200 40 123 200 40 123 200 40 123 200 40 123 200 40 123 200 40 123 200 40 123 200 40 123 200 40 123 200 40 218 134 195 218 134 195 218 134 195 218 134 195 218 134 195 218 134 195 218 134 195 218 134 195 218 134 195 218 134 195 218 134 195 218 134 195 218 134 195 218 134 195 218 134 195 218 134 195 218 134 195 218 134 195 218 134 195 218 134 195 218 134 195 218 134 195 218 134 195 218 134 195 218 134 195 218 134 195 218 134 195 218 134 195 218 134 195 218 134 195 218 134 195 218 134 195 218 134 195 218 134 195 218 134 195 218 134 195 218 134 195 218 134 195 218 134 195 218 134 195 218 134 195 218 134 195 218 134 195 218 134 195 218 134 195 218 134 195 218 134 195 218 134 195 218 134 195 218 134 195 218 134 195 218 134 195 218 134 195 218 134 195 218 134 195 218 134 195 218 134 195 218 134 195 218 134 195 218 134 195 218 134 195 218 134 195 218 134 195 218 134 195 218 134 195 218 134 195 218 134 195 218 134 195 218 134 195 218 134 195 218 134 195 218 134 195 218 134 195 218 134 195 218 134 195 218 134 195 218 134 195 218 134 195 218 134 195 218 134 195 218 134 195 218 134 195 218 134 195 218 134 195 218 134 195 218 134 195 218 134 195 218 134 195 218 134 195 218 134 195 218 134 195 218 134 195 218 134 195 218 134 195 218 134 195 218 134 195 218 134 195 218 134 195 218 134 195 218 134 195 218 134 195 218 134 195 218 134 195 218 134 195 218 134 195 218 134 195 218 134 195 218 134 195 218 134 195 218 134 195 218 134 195 218 134 195 218 134 195 218 134 195 218 134 195 218 134 195 218 134 195 218 134 195 218 134 195 218 134 195 218 134 195 218 134 195 218 134 195 218 134 195 218 134 195 218 134 195 218 134 195 218 134 195 218 134 195 218 134 195 218 134 195 218 134 195 218 134 195 218 134 195 218 134 195 218 134 195 218 134 195 218 134 195 218 134 195 218 134 195 218 134 195 218 134 195 218 134 195 218 134 195 218 134 195 218 134 195 218 134 195 218 134 195 218 134 195 218 134 195 218 134 195 218 134 195 218 134 195 218 134 195 218 134 195 218 134 195 218 134 195 218 134 195 218 134 195 218 134 195 218 134 195 218 134 195 218 134 195 218 134 195 218 134 195 218 134 195 218 134 195 218 134 195 218 134 195 218 134 195 218 134 195 218 134 195 218 134 195 218 134 195 218 134 195 218 134 195 218 134 195 218 134 195 218 134 195 218 134 195 218 134 195 218 134 195 218 134 195 218 134 195 218 134 195 218 134 195 218 134 195 218 134 195 218 134 195 218 134 195 218 134 195 218 134 195 218 134 195 218 134 195 218 134 195 218 134 195 218 134 195 218 134 195 218 134 195 218 134 195 123 200 40 123 200 40 123 200 40 123 200 40 123 200 40 123 200 40 123 200 40 123 200 40 123 200 40 123 200 40 123 200 40 123 200 40 123 200 40 123 200 40 123 200 40 123 200 40 123 200 40 123 200 40 123 200 40 123 200 40 123 200 40 123 200 40 123 200 40 123 200 40 123 200 40 123 200 40 123 200 40 123 200 40 123 200 40 123 200 40 123 200 40 123 200 40 123 200 40 123 200 40 123 200 40 123 200 40 123 200 40 123 200 40 123 200 40 123 200 40 123 200 40 123 200 40 123 200 40 123 200 40 123 200 40 123 200 40 123 200 40 123 200 40 123 200 40 123 200 40 123 200 40 123 200 40 123 200 40 123 200 40 123 200 40 123 200 40 123 200 40 123 200 40 123 200 40 123 200 40 123 200 40 123 200 40 123 200 40 123 200 40 123 200 40 123 200 40 123 200 40 123 200 40 123 200 40 123 200 40 123 200 40 123 200 40 123 200 40 123 200 40 123 200 40 123 200 40 123 200 40 123 200 40 123 200 40 123 200 40 123 200 40 123 200 40 123 200 40 123 200 40 123 200 40 123 200 40 123 200 40 123 200 40 123 200 40 123 200 40 123 200 40 123 200 40 123 200 40 123 200 40 123 200 40 123 200 40 123 200 40 123 200 40 123 200 40 123 200 40 123 200 40 123 200 40 123 200 40 123 200 40 123 200 40 123 200 40 123 200 40 123 200 40 123 200 40 123 200 40 123 200 40 123 200 40 123 200 40 123 200 40 123 200 40 123 200 40 123 200 40 123 200 40 123 200 40 123 200 40 123 200 40 123 200 40 123 200 40 123 200 40 123 200 40 123 200 40 123 200 40 123 200 40 123 200 40 123 200 40 123 200 40 123 200 40 123 200 40 123 200 40 123 200 40 123 200 40 123 200 40 123 200 40 123 200 40 123 200 40 123 200 40 123 200 40 123 200 40 123 200 40 123 200 40 123 200 40 123 200 40 123 200 40 123 200 40 123 200 40 123 200 40 123 200 40 123 200 40 123 200 40 123 200 40 123 200 40 123 200 40 123 200 40 123 200 40 123 200 40 123 200 40 123 200 40 123 200 40 123 200 40 123 200 40 123 200 40 123 200 40 123 200 40 123 200 40 123 200 40 123 200 40 123 200 40 123 200 40 123 200 40 123 200 40 123 200 40 123 200 40 123 200 40 123 200 40 123 200 40 123 200 40 123 200 40 123 200 40 123 200 40 123 200 40 123 200 40 123 200 40 123 200 40 123 200 40 123 200 40 123 200 40 123 200 40 123 200 40 123 200 40 123 200 40 123 200 40 123 200 40 123 200 40 123 200 40 123 200 40 32 150 94 32 150 94 32 150 94 32 150 94 32 150 94 32 150 94 32 150 94 32 150 94 32 150 94 32 150 94 32 150 94 32 150 94 32 150 94 32 150 94 32 150 94 32 150 94 32 150 94 32 150 94 32 150 94 32 150 94 32 150 94 32 150 94 32 150 94 32 150 94 32 150 94 32 150 94 32 150 94 32 150 94 32 150 94 32 150 94 32 150 94 32 150 94 32 150 94 32 150 94 32 150 94 32 150 94 32 150 94 32 150 94 32 150 94 32 150 94 32 150 94 32 150 94 32 150 94 32 150 94 32 150 94 32 150 94 32 150 94 32 150 94 32 150 94 32 150 94 32 150 94 32 150 94 32 150 94 32 150 94 32 150 94 32 150 94 32 150 94 32 150 94 32 150 94 32 150 94 32 150 94 32 150 94 32 150 94 32 150 94 32 150 94 32 150 94 32 150 94 32 150 94 32 150 94 32 150 94 32 150 94 32 150 94 32 150 94 32 150 94 32 150 94 32 150 94 32 150 94 32 150 94 32 150 94 32 150 94 32 150 94 32 150 94 32 150 94 32 150 94 32 150 94 32 150 94 32 150 94 32 150 94 32 150 94 32 150 94 32 150 94 32 150 94 32 150 94 32 150 94 32 150 94 32 150 94 32 150 94 32 150 94 32 150 94 32 150 94 32 150 94 32 150 94 32 150 94 32 150 94 32 150 94 32 150 94 32 150 94 32 150 94 32 150 94 32 150 94 32 150 94 32 150 94 32 150 94 32 150 94 32 150 94 32 150 94 32 150 94 32 150 94 32 150 94 32 150 94 32 150 94 32 150 94 32 150 94 32 150 94 32 150 94 32 150 94 32 150 94 32 150 94 32 150 94 32 150 94 32 150 94 32 150 94 32 150 94 32 150 94 32 150 94 32 150 94 32 150 94 32 150 94 32 150 94 32 150 94 32 150 94 32 150 94 32 150 94 32 150 94 32 150 94 32 150 94 32 150 94 32 150 94 32 150 94 32 150 94 32 150 94 32 150 94 32 150 94 32 150 94 32 150 94 32 150 94 32 150 94 32 150 94 32 150 94 32 150 94 32 150 94 32 150 94 32 150 94 32 150 94 32 150 94 32 150 94 32 150 94 32 150 94 32 150 94 32 150 94 32 150 94 32 150 94 32 150 94 32 150 94 32 150 94 32 150 94 32 150 94 32 150 94 32 150 94 32 150 94 32 150 94 32 150 94 32 150 94 32 150 94 32 150 94 32 150 94 32 150 94 32 150 94 32 150 94 32 150 94 32 150 94 32 150 94 32 150 94 32 150 94 32 150 94 32 150 94 32 150 94 32 150 94 32 150 94 32 150 94 123 200 40 123 200 40 123 200 40 123 200 40 123 200 40 123 200 40 123 200 40 123 200 40 123 200 40 123 200 40 123 200 40 123 200 40 123 200 40 123 200 40 123 200 40 123 200 40 123 200 40 123 200 40 123 200 40 123 200 40 123 200 40 123 200 40 123 200 40 123 200 40 123 200 40 123 200 40 123 200 40 123 200 40 123 200 40 123 200 40 123 200 40 123 200 40 123 200 40 123 200 40 123 200 40 123 200 40 123 200 40 123 200 40 123 200 40 123 200 40 123 200 40 123 200 40 123 200 40 123 200 40 123 200 40 123 200 40 123 200 40 123 200 40 123 200 40 123 200 40 123 200 40 123 200 40 123 200 40 123 200 40 123 200 40 123 200 40 123 200 40 123 200 40 123 200 40 123 200 40 123 200 40 123 200 40 123 200 40 123 200 40 123 200 40 123 200 40 123 200 40 123 200 40 123 200 40 123 200 40 123 200 40 123 200 40 123 200 40 123 200 40 123 200 40 123 200 40 123 200 40 123 200 40 123 200 40 123 200 40 123 200 40 123 200 40 123 200 40 123 200 40 123 200 40 123 200 40 123 200 40 123 200 40 123 200 40 123 200 40 123 200 40 123 200 40 123 200 40 123 200 40 123 200 40 123 200 40 123 200 40 123 200 40 123 200 40 123 200 40 123 200 40 123 200 40 123 200 40 123 200 40 123 200 40 123 200 40 123 200 40 123 200 40 123 200 40 123 200 40 123 200 40 123 200 40 123 200 40 123 200 40 123 200 40 123 200 40 123 200 40 123 200 40 123 200 40 123 200 40 123 200 40 123 200 40 123 200 40 123 200 40 123 200 40 123 200 40 123 200 40 123 200 40 123 200 40 123 200 40 123 200 40 123 200 40 123 200 40 123 200 40 123 200 40 123 200 40 123 200 40 123 200 40 123 200 40 123 200 40 123 200 40 123 200 40 123 200 40 123 200 40 123 200 40 123 200 40 123 200 40 123 200 40 123 200 40 123 200 40 123 200 40 123 200 40 123 200 40 123 200 40 123 200 40 123 200 40 123 200 40 123 200 40 123 200 40 123 200 40 123 200 40 123 200 40 123 200 40 123 200 40 123 200 40 123 200 40 123 200 40 123 200 40 123 200 40 123 200 40 123 200 40 123 200 40 123 200 40 123 200 40 123 200 40 123 200 40 123 200 40 123 200 40 123 200 40 123 200 40 123 200 40 123 200 40 123 200 40 123 200 40 123 200 40 123 200 40 123 200 40 123 200 40 123 200 40 123 200 40 123 200 40 123 200 40 123 200 40 123 200 40 123 200 40 123 200 40 123 200 40 123 200 40 123 200 40 123 200 40 180 135 60 180 135 60 180 135 60 180 135 60 180 135 60 180 135 60 180 135 60 180 135 60 180 135 60 180 135 60 180 135 60 180 135 60 180 135 60 180 135 60 180 135 60 180 135 60 180 135 60 180 135 60 180 135 60 180 135 60 180 135 60 180 135 60 180 135 60 180 135 60 180 135 60 180 135 60 180 135 60 180 135 60 180 135 60 180 135 60 180 135 60 180 135 60 180 135 60 180 135 60 180 135 60 180 135 60 180 135 60 180 135 60 180 135 60 180 135 60 180 135 60 180 135 60 180 135 60 180 135 60 180 135 60 180 135 60 180 135 60 180 135 60 180 135 60 180 135 60 180 135 60 180 135 60 180 135 60 180 135 60 180 135 60 180 135 60 180 135 60 180 135 60 180 135 60 180 135 60 180 135 60 180 135 60 180 135 60 180 135 60 180 135 60 180 135 60 180 135 60 180 135 60 180 135 60 180 135 60 180 135 60 180 135 60 180 135 60 180 135 60 180 135 60 180 135 60 180 135 60 180 135 60 180 135 60 180 135 60 180 135 60 180 135 60 180 135 60 180 135 60 180 135 60 180 135 60 180 135 60 180 135 60 180 135 60 180 135 60 180 135 60 180 135 60 180 135 60 180 135 60 180 135 60 180 135 60 180 135 60 180 135 60 180 135 60 180 135 60 180 135 60 180 135 60 180 135 60 180 135 60 180 135 60 180 135 60 180 135 60 180 135 60 180 135 60 180 135 60 180 135 60 180 135 60 180 135 60 180 135 60 180 135 60 180 135 60 180 135 60 180 135 60 180 135 60 180 135 60 180 135 60 180 135 60 180 135 60 180 135 60 180 135 60 180 135 60 180 135 60 180 135 60 180 135 60 180 135 60 180 135 60 180 135 60 180 135 60 180 135 60 180 135 60 180 135 60 180 135 60 180 135 60 180 135 60 180 135 60 180 135 60 180 135 60 180 135 60 180 135 60 180 135 60 180 135 60 180 135 60 180 135 60 180 135 60 180 135 60 180 135 60 180 135 60 180 135 60 180 135 60 180 135 60 180 135 60 180 135 60 180 135 60 180 135 60 180 135 60 180 135 60 180 135 60 180 135 60 180 135 60 180 135 60 180 135 60 180 135 60 180 135 60 180 135 60 180 135 60 180 135 60 180 135 60 180 135 60 180 135 60 180 135 60 180 135 60 180 135 60 180 135 60 180 135 60 180 135 60 180 135 60 180 135 60 180 135 60 180 135 60 180 135 60 180 135 60 180 135 60 180 135 60 180 135 60 180 135 60 180 135 60 180 135 60 180 135 60 180 135 60 180 135 60 180 135 60 180 135 60 180 135 60 180 135 60 180 135 60 123 200 40 123 200 40 123 200 40 123 200 40 123 200 40 123 200 40 123 200 40 123 200 40 123 200 40 123 200 40 123 200 40 123 200 40 123 200 40 123 200 40 123 200 40 123 200 40 123 200 40 123 200 40 123 200 40 123 200 40 123 200 40 123 200 40 123 200 40 123 200 40 123 200 40 123 200 40 123 200 40 123 200 40 123 200 40 123 200 40 123 200 40 123 200 40 123 200 40 123 200 40 123 200 40 123 200 40 123 200 40 123 200 40 123 200 40 123 200 40 123 200 40 123 200 40 123 200 40 123 200 40 123 200 40 123 200 40 123 200 40 123 200 40 123 200 40 123 200 40 123 200 40 123 200 40 123 200 40 123 200 40 123 200 40 123 200 40 123 200 40 123 200 40 123 200 40 123 200 40 123 200 40 123 200 40 123 200 40 123 200 40 123 200 40 123 200 40 123 200 40 123 200 40 123 200 40 123 200 40 123 200 40 123 200 40 123 200 40 123 200 40 123 200 40 123 200 40 123 200 40 123 200 40 123 200 40 123 200 40 123 200 40 123 200 40 123 200 40 123 200 40 123 200 40 123 200 40 123 200 40 123 200 40 123 200 40 123 200 40 123 200 40 123 200 40 123 200 40 123 200 40 123 200 40 123 200 40 123 200 40 123 200 40 123 200 40 123 200 40 123 200 40 123 200 40 123 200 40 123 200 40 123 200 40 123 200 40 123 200 40 123 200 40 123 200 40 123 200 40 123 200 40 123 200 40 123 200 40 123 200 40 123 200 40 123 200 40 123 200 40 123 200 40 123 200 40 123 200 40 123 200 40 123 200 40 123 200 40 123 200 40 123 200 40 123 200 40 123 200 40 123 200 40 123 200 40 123 200 40 123 200 40 123 200 40 123 200 40 123 200 40 123 200 40 123 200 40 123 200 40 123 200 40 123 200 40 123 200 40 123 200 40 123 200 40 123 200 40 123 200 40 123 200 40 123 200 40 123 200 40 123 200 40 123 200 40 123 200 40 123 200 40 123 200 40 123 200 40 123 200 40 123 200 40 123 200 40 123 200 40 123 200 40 123 200 40 123 200 40 123 200 40 123 200 40 123 200 40 123 200 40 123 200 40 123 200 40 123 200 40 123 200 40 123 200 40 123 200 40 123 200 40 123 200 40 123 200 40 123 200 40 123 200 40 123 200 40 123 200 40 123 200 40 123 200 40 123 200 40 123 200 40 123 200 40 123 200 40 123 200 40 123 200 40 123 200 40 123 200 40 123 200 40 123 200 40 123 200 40 123 200 40 123 200 40 123 200 40 123 200 40 123 200 40 123 200 40 123 200 40 123 200 40 123 200 40 123 200 40 245 96 45 245 96 45 245 96 45 245 96 45 245 96 45 245 96 45 245 96 45 245 96 45 245 96 45 245 96 45 245 96 45 245 96 45 245 96 45 245 96 45 245 96 45 245 96 45 245 96 45 245 96 45 245 96 45 245 96 45 245 96 45 245 96 45 245 96 45 245 96 45 245 96 45 245 96 45 245 96 45 245 96 45 245 96 45 245 96 45 245 96 45 245 96 45 245 96 45 245 96 45 245 96 45 245 96 45 245 96 45 245 96 45 245 96 45 245 96 45 245 96 45 245 96 45 245 96 45 245 96 45 245 96 45 245 96 45 245 96 45 245 96 45 245 96 45 245 96 45 245 96 45 245 96 45 245 96 45 245 96 45 245 96 45 245 96 45 245 96 45 245 96 45 245 96 45 245 96 45 245 96 45 245 96 45 245 96 45 245 96 45 245 96 45 245 96 45 245 96 45 245 96 45 245 96 45 245 96 45 245 96 45 245 96 45 245 96 45 245 96 45 245 96 45 245 96 45 245 96 45 245 96 45 245 96 45 245 96 45 245 96 45 245 96 45 245 96 45 245 96 45 245 96 45 245 96 45 245 96 45 245 96 45 245 96 45 245 96 45 245 96 45 245 96 45 245 96 45 245 96 45 245 96 45 245 96 45 245 96 45 245 96 45 245 96 45 245 96 45 245 96 45 245 96 45 245 96 45 245 96 45 245 96 45 245 96 45 245 96 45 245 96 45 245 96 45 245 96 45 245 96 45 245 96 45 245 96 45 245 96 45 245 96 45 245 96 45 245 96 45 245 96 45 245 96 45 245 96 45 245 96 45 245 96 45 245 96 45 245 96 45 245 96 45 245 96 45 245 96 45 245 96 45 245 96 45 245 96 45 245 96 45 245 96 45 245 96 45 245 96 45 245 96 45 245 96 45 245 96 45 245 96 45 245 96 45 245 96 45 245 96 45 245 96 45 245 96 45 245 96 45 245 96 45 245 96 45 245 96 45 245 96 45 245 96 45 245 96 45 245 96 45 245 96 45 245 96 45 245 96 45 245 96 45 245 96 45 245 96 45 245 96 45 245 96 45 245 96 45 245 96 45 245 96 45 245 96 45 245 96 45 245 96 45 245 96 45 245 96 45 245 96 45 245 96 45 245 96 45 245 96 45 245 96 45 245 96 45 245 96 45 245 96 45 245 96 45 245 96 45 245 96 45 245 96 45 245 96 45 245 96 45 245 96 45 245 96 45 245 96 45 245 96 45 245 96 45 245 96 45 245 96 45 245 96 45 245 96 45 245 96 45 245 96 45 245 96 45 245 96 45 245 96 45 245 96 45 245 96 45 245 96 45 245 96 45 245 96 45 123 200 40 123 200 40 123 200 40 123 200 40 123 200 40 123 200 40 123 200 40 123 200 40 123 200 40 123 200 40 123 200 40 123 200 40 123 200 40 123 200 40 123 200 40 123 200 40 123 200 40 123 200 40 123 200 40 123 200 40 123 200 40 123 200 40 123 200 40 123 200 40 123 200 40 123 200 40 123 200 40 123 200 40 123 200 40 123 200 40 123 200 40 123 200 40 123 200 40 123 200 40 123 200 40 123 200 40 123 200 40 123 200 40 123 200 40 123 200 40 123 200 40 123 200 40 123 200 40 123 200 40 123 200 40 123 200 40 123 200 40 123 200 40 123 200 40 123 200 40 123 200 40 123 200 40 123 200 40 123 200 40 123 200 40 123 200 40 123 200 40 123 200 40 123 200 40 123 200 40 123 200 40 123 200 40 123 200 40 123 200 40 123 200 40 123 200 40 123 200 40 123 200 40 123 200 40 123 200 40 123 200 40 123 200 40 123 200 40 123 200 40 123 200 40 123 200 40 123 200 40 123 200 40 123 200 40 123 200 40 123 200 40 123 200 40 123 200 40 123 200 40 123 200 40 123 200 40 123 200 40 123 200 40 123 200 40 123 200 40 123 200 40 123 200 40 123 200 40 123 200 40 123 200 40 123 200 40 123 200 40 123 200 40 123 200 40 123 200 40 123 200 40 123 200 40 123 200 40 123 200 40 123 200 40 123 200 40 123 200 40 123 200 40 123 200 40 123 200 40 123 200 40 123 200 40 123 200 40 123 200 40 123 200 40 123 200 40 123 200 40 123 200 40 123 200 40 123 200 40 123 200 40 123 200 40 123 200 40 123 200 40 123 200 40 123 200 40 123 200 40 123 200 40 123 200 40 123 200 40 123 200 40 123 200 40 123 200 40 123 200 40 123 200 40 123 200 40 123 200 40 123 200 40 123 200 40 123 200 40 123 200 40 123 200 40 123 200 40 123 200 40 123 200 40 123 200 40 123 200 40 123 200 40 123 200 40 123 200 40 123 200 40 123 200 40 123 200 40 123 200 40 123 200 40 123 200 40 123 200 40 123 200 40 123 200 40 123 200 40 123 200 40 123 200 40 123 200 40 123 200 40 123 200 40 123 200 40 123 200 40 123 200 40 123 200 40 123 200 40 123 200 40 123 200 40 123 200 40 123 200 40 123 200 40 123 200 40 123 200 40 123 200 40 123 200 40 123 200 40 123 200 40 123 200 40 123 200 40 123 200 40 123 200 40 123 200 40 123 200 40 123 200 40 123 200 40 123 200 40 123 200 40 123 200 40 123 200 40 123 200 40 123 200 40 123 200 40 123 200 40 123 200 40 123 200 40 123 200 40 254 97 89 254 97 89 254 97 89 254 97 89 254 97 89 254 97 89 254 97 89 254 97 89 254 97 89 254 97 89 254 97 89 254 97 89 254 97 89 254 97 89 254 97 89 254 97 89 254 97 89 254 97 89 254 97 89 254 97 89 254 97 89 254 97 89 254 97 89 254 97 89 254 97 89 254 97 89 254 97 89 254 97 89 254 97 89 254 97 89 254 97 89 254 97 89 254 97 89 254 97 89 254 97 89 254 97 89 254 97 89 254 97 89 254 97 89 254 97 89 254 97 89 254 97 89 254 97 89 254 97 89 254 97 89 254 97 89 254 97 89 254 97 89 254 97 89 254 97 89 254 97 89 254 97 89 254 97 89 254 97 89 254 97 89 254 97 89 254 97 89 254 97 89 254 97 89 254 97 89 254 97 89 254 97 89 254 97 89 254 97 89 254 97 89 254 97 89 254 97 89 254 97 89 254 97 89 254 97 89 254 97 89 254 97 89 254 97 89 254 97 89 254 97 89 254 97 89 254 97 89 254 97 89 254 97 89 254 97 89 254 97 89 254 97 89 254 97 89 254 97 89 254 97 89 254 97 89 254 97 89 254 97 89 254 97 89 254 97 89 254 97 89 254 97 89 254 97 89 254 97 89 254 97 89 254 97 89 254 97 89 254 97 89 254 97 89 254 97 89 254 97 89 254 97 89 254 97 89 254 97 89 254 97 89 254 97 89 254 97 89 254 97 89 254 97 89 254 97 89 254 97 89 254 97 89 254 97 89 254 97 89 254 97 89 254 97 89 254 97 89 254 97 89 254 97 89 254 97 89 254 97 89 254 97 89 254 97 89 254 97 89 254 97 89 254 97 89 254 97 89 254 97 89 254 97 89 254 97 89 254 97 89 254 97 89 254 97 89 254 97 89 254 97 89 254 97 89 254 97 89 254 97 89 254 97 89 254 97 89 254 97 89 254 97 89 254 97 89 254 97 89 254 97 89 254 97 89 254 97 89 254 97 89 254 97 89 254 97 89 254 97 89 254 97 89 254 97 89 254 97 89 254 97 89 254 97 89 254 97 89 254 97 89 254 97 89 254 97 89 254 97 89 254 97 89 254 97 89 254 97 89 254 97 89 254 97 89 254 97 89 254 97 89 254 97 89 254 97 89 254 97 89 254 97 89 254 97 89 254 97 89 254 97 89 254 97 89 254 97 89 254 97 89 254 97 89 254 97 89 254 97 89 254 97 89 254 97 89 254 97 89 254 97 89 254 97 89 254 97 89 254 97 89 254 97 89 254 97 89 254 97 89 254 97 89 254 97 89 254 97 89 254 97 89 254 97 89 254 97 89 254 97 89 254 97 89 254 97 89 123 200 40 123 200 40 123 200 40 123 200 40 123 200 40 123 200 40 123 200 40 123 200 40 123 200 40 123 200 40 123 200 40 123 200 40 123 200 40 123 200 40 123 200 40 123 200 40 123 200 40 123 200 40 123 200 40 123 200 40 123 200 40 123 200 40 123 200 40 123 200 40 123 200 40 123 200 40 123 200 40 123 200 40 123 200 40 123 200 40 123 200 40 123 200 40 123 200 40 123 200 40 123 200 40 123 200 40 123 200 40 123 200 40 123 200 40 123 200 40 123 200 40 123 200 40 123 200 40 123 200 40 123 200 40 123 200 40 123 200 40 123 200 40 123 200 40 123 200 40 123 200 40 123 200 40 123 200 40 123 200 40 123 200 40 123 200 40 123 200 40 123 200 40 123 200 40 123 200 40 123 200 40 123 200 40 123 200 40 123 200 40 123 200 40 123 200 40 123 200 40 123 200 40 123 200 40 123 200 40 123 200 40 123 200 40 123 200 40 123 200 40 123 200 40 123 200 40 123 200 40 123 200 40 123 200 40 123 200 40 123 200 40 123 200 40 123 200 40 123 200 40 123 200 40 123 200 40 123 200 40 123 200 40 123 200 40 123 200 40 123 200 40 123 200 40 123 200 40 123 200 40 123 200 40 123 200 40 123 200 40 123 200 40 123 200 40 123 200 40 123 200 40 123 200 40 123 200 40 123 200 40 123 200 40 123 200 40 123 200 40 123 200 40 123 200 40 123 200 40 123 200 40 123 200 40 123 200 40 123 200 40 123 200 40 123 200 40 123 200 40 123 200 40 123 200 40 123 200 40 123 200 40 123 200 40 123 200 40 123 200 40 123 200 40 123 200 40 123 200 40 123 200 40 123 200 40 123 200 40 123 200 40 123 200 40 123 200 40 123 200 40 123 200 40 123 200 40 123 200 40 123 200 40 123 200 40 123 200 40 123 200 40 123 200 40 123 200 40 123 200 40 123 200 40 123 200 40 123 200 40 123 200 40 123 200 40 123 200 40 123 200 40 123 200 40 123 200 40 123 200 40 123 200 40 123 200 40 123 200 40 123 200 40 123 200 40 123 200 40 123 200 40 123 200 40 123 200 40 123 200 40 123 200 40 123 200 40 123 200 40 123 200 40 123 200 40 123 200 40 123 200 40 123 200 40 123 200 40 123 200 40 123 200 40 123 200 40 123 200 40 123 200 40 123 200 40 123 200 40 123 200 40 123 200 40 123 200 40 123 200 40 123 200 40 123 200 40 123 200 40 123 200 40 123 200 40 123 200 40 123 200 40 123 200 40 123 200 40 123 200 40 123 200 40 123 200 40 123 200 40 123 200 40 123 200 40 123 200 40 58 0 147 58 0 147 58 0 147 58 0 147 58 0 147 58 0 147 58 0 147 58 0 147 58 0 147 58 0 147 58 0 147 58 0 147 58 0 147 58 0 147 58 0 147 58 0 147 58 0 147 58 0 147 58 0 147 58 0 147 58 0 147 58 0 147 58 0 147 58 0 147 58 0 147 58 0 147 58 0 147 58 0 147 58 0 147 58 0 147 58 0 147 58 0 147 58 0 147 58 0 147 58 0 147 58 0 147 58 0 147 58 0 147 58 0 147 58 0 147 58 0 147 58 0 147 58 0 147 58 0 147 58 0 147 58 0 147 58 0 147 58 0 147 58 0 147 58 0 147 58 0 147 58 0 147 58 0 147 58 0 147 58 0 147 58 0 147 58 0 147 58 0 147 58 0 147 58 0 147 58 0 147 58 0 147 58 0 147 58 0 147 58 0 147 58 0 147 58 0 147 58 0 147 58 0 147 58 0 147 58 0 147 58 0 147 58 0 147 58 0 147 58 0 147 58 0 147 58 0 147 58 0 147 58 0 147 58 0 147 58 0 147 58 0 147 58 0 147 58 0 147 58 0 147 58 0 147 58 0 147 58 0 147 58 0 147 58 0 147 58 0 147 58 0 147 58 0 147 58 0 147 58 0 147 58 0 147 58 0 147 58 0 147 58 0 147 58 0 147 58 0 147 58 0 147 58 0 147 58 0 147 58 0 147 58 0 147 58 0 147 58 0 147 58 0 147 58 0 147 58 0 147 58 0 147 58 0 147 58 0 147 58 0 147 58 0 147 58 0 147 58 0 147 58 0 147 58 0 147 58 0 147 58 0 147 58 0 147 58 0 147 58 0 147 58 0 147 58 0 147 58 0 147 58 0 147 58 0 147 58 0 147 58 0 147 58 0 147 58 0 147 58 0 147 58 0 147 58 0 147 58 0 147 58 0 147 58 0 147 58 0 147 58 0 147 58 0 147 58 0 147 58 0 147 58 0 147 58 0 147 58 0 147 58 0 147 58 0 147 58 0 147 58 0 147 58 0 147 58 0 147 58 0 147 58 0 147 58 0 147 58 0 147 58 0 147 58 0 147 58 0 147 58 0 147 58 0 147 58 0 147 58 0 147 58 0 147 58 0 147 58 0 147 58 0 147 58 0 147 58 0 147 58 0 147 58 0 147 58 0 147 58 0 147 58 0 147 58 0 147 58 0 147 58 0 147 58 0 147 58 0 147 58 0 147 58 0 147 58 0 147 58 0 147 58 0 147 58 0 147 58 0 147 58 0 147 58 0 147 58 0 147 58 0 147 58 0 147 58 0 147 58 0 147 58 0 147 58 0 147 58 0 147 58 0 147 58 0 147 123 200 40 123 200 40 123 200 40 123 200 40 123 200 40 123 200 40 123 200 40 123 200 40 123 200 40 123 200 40 123 200 40 123 200 40 123 200 40 123 200 40 123 200 40 123 200 40 123 200 40 123 200 40 123 200 40 123 200 40 123 200 40 123 200 40 123 200 40 123 200 40 123 200 40 123 200 40 123 200 40 123 200 40 123 200 40 123 200 40 123 200 40 123 200 40 123 200 40 123 200 40 123 200 40 123 200 40 123 200 40 123 200 40 123 200 40 123 200 40 123 200 40 123 200 40 123 200 40 123 200 40 123 200 40 123 200 40 123 200 40 123 200 40 123 200 40 123 200 40 123 200 40 123 200 40 123 200 40 123 200 40 123 200 40 123 200 40 123 200 40 123 200 40 123 200 40 123 200 40 123 200 40 123 200 40 123 200 40 123 200 40 123 200 40 123 200 40 123 200 40 123 200 40 123 200 40 123 200 40 123 200 40 123 200 40 123 200 40 123 200 40 123 200 40 123 200 40 123 200 40 123 200 40 123 200 40 123 200 40 123 200 40 123 200 40 123 200 40 123 200 40 123 200 40 123 200 40 123 200 40 123 200 40 123 200 40 123 200 40 123 200 40 123 200 40 123 200 40 123 200 40 123 200 40 123 200 40 123 200 40 123 200 40 123 200 40 123 200 40 123 200 40 123 200 40 123 200 40 123 200 40 123 200 40 123 200 40 123 200 40 123 200 40 123 200 40 123 200 40 123 200 40 123 200 40 123 200 40 123 200 40 123 200 40 123 200 40 123 200 40 123 200 40 123 200 40 123 200 40 123 200 40 123 200 40 123 200 40 123 200 40 123 200 40 123 200 40 123 200 40 123 200 40 123 200 40 123 200 40 123 200 40 123 200 40 123 200 40 123 200 40 123 200 40 123 200 40 123 200 40 123 200 40 123 200 40 123 200 40 123 200 40 123 200 40 123 200 40 123 200 40 123 200 40 123 200 40 123 200 40 123 200 40 123 200 40 123 200 40 123 200 40 123 200 40 123 200 40 123 200 40 123 200 40 123 200 40 123 200 40 123 200 40 123 200 40 123 200 40 123 200 40 123 200 40 123 200 40 123 200 40 123 200 40 123 200 40 123 200 40 123 200 40 123 200 40 123 200 40 123 200 40 123 200 40 123 200 40 123 200 40 123 200 40 123 200 40 123 200 40 123 200 40 123 200 40 123 200 40 123 200 40 123 200 40 123 200 40 123 200 40 123 200 40 123 200 40 123 200 40 123 200 40 123 200 40 123 200 40 123 200 40 123 200 40 123 200 40 123 200 40 123 200 40 123 200 40 123 200 40 123 200 40 123 200 40 123 200 40 1 185 232 1 185 232 1 185 232 1 185 232 1 185 232 1 185 232 1 185 232 1 185 232 1 185 232 1 185 232 1 185 232 1 185 232 1 185 232 1 185 232 1 185 232 1 185 232 1 185 232 1 185 232 1 185 232 1 185 232 1 185 232 1 185 232 1 185 232 1 185 232 1 185 232 1 185 232 1 185 232 1 185 232 1 185 232 1 185 232 1 185 232 1 185 232 1 185 232 1 185 232 1 185 232 1 185 232 1 185 232 1 185 232 1 185 232 1 185 232 1 185 232 1 185 232 1 185 232 1 185 232 1 185 232 1 185 232 1 185 232 1 185 232 1 185 232 1 185 232 1 185 232 1 185 232 1 185 232 1 185 232 1 185 232 1 185 232 1 185 232 1 185 232 1 185 232 1 185 232 1 185 232 1 185 232 1 185 232 1 185 232 1 185 232 1 185 232 1 185 232 1 185 232 1 185 232 1 185 232 1 185 232 1 185 232 1 185 232 1 185 232 1 185 232 1 185 232 1 185 232 1 185 232 1 185 232 1 185 232 1 185 232 1 185 232 1 185 232 1 185 232 1 185 232 1 185 232 1 185 232 1 185 232 1 185 232 1 185 232 1 185 232 1 185 232 1 185 232 1 185 232 1 185 232 1 185 232 1 185 232 1 185 232 1 185 232 1 185 232 1 185 232 1 185 232 1 185 232 1 185 232 1 185 232 1 185 232 1 185 232 1 185 232 1 185 232 1 185 232 1 185 232 1 185 232 1 185 232 1 185 232 1 185 232 1 185 232 1 185 232 1 185 232 1 185 232 1 185 232 1 185 232 1 185 232 1 185 232 1 185 232 1 185 232 1 185 232 1 185 232 1 185 232 1 185 232 1 185 232 1 185 232 1 185 232 1 185 232 1 185 232 1 185 232 1 185 232 1 185 232 1 185 232 1 185 232 1 185 232 1 185 232 1 185 232 1 185 232 1 185 232 1 185 232 1 185 232 1 185 232 1 185 232 1 185 232 1 185 232 1 185 232 1 185 232 1 185 232 1 185 232 1 185 232 1 185 232 1 185 232 1 185 232 1 185 232 1 185 232 1 185 232 1 185 232 1 185 232 1 185 232 1 185 232 1 185 232 1 185 232 1 185 232 1 185 232 1 185 232 1 185 232 1 185 232 1 185 232 1 185 232 1 185 232 1 185 232 1 185 232 1 185 232 1 185 232 1 185 232 1 185 232 1 185 232 1 185 232 1 185 232 1 185 232 1 185 232 1 185 232 1 185 232 1 185 232 1 185 232 1 185 232 1 185 232 1 185 232 1 185 232 1 185 232 1 185 232 1 185 232 1 185 232 1 185 232 1 185 232 123 200 40 123 200 40 123 200 40 123 200 40 123 200 40 123 200 40 123 200 40 123 200 40 123 200 40 123 200 40 123 200 40 123 200 40 123 200 40 123 200 40 123 200 40 123 200 40 123 200 40 123 200 40 123 200 40 123 200 40 123 200 40 123 200 40 123 200 40 123 200 40 123 200 40 123 200 40 123 200 40 123 200 40 123 200 40 123 200 40 123 200 40 123 200 40 123 200 40 123 200 40 123 200 40 123 200 40 123 200 40 123 200 40 123 200 40 123 200 40 123 200 40 123 200 40 123 200 40 123 200 40 123 200 40 123 200 40 123 200 40 123 200 40 123 200 40 123 200 40 123 200 40 123 200 40 123 200 40 123 200 40 123 200 40 123 200 40 123 200 40 123 200 40 123 200 40 123 200 40 123 200 40 123 200 40 123 200 40 123 200 40 123 200 40 123 200 40 123 200 40 123 200 40 123 200 40 123 200 40 123 200 40 123 200 40 123 200 40 123 200 40 123 200 40 123 200 40 123 200 40 123 200 40 123 200 40 123 200 40 123 200 40 123 200 40 123 200 40 123 200 40 123 200 40 123 200 40 123 200 40 123 200 40 123 200 40 123 200 40 123 200 40 123 200 40 123 200 40 123 200 40 123 200 40 123 200 40 123 200 40 123 200 40 123 200 40 123 200 40 123 200 40 123 200 40 123 200 40 123 200 40 123 200 40 123 200 40 123 200 40 123 200 40 123 200 40 123 200 40 123 200 40 123 200 40 123 200 40 123 200 40 123 200 40 123 200 40 123 200 40 123 200 40 123 200 40 123 200 40 123 200 40 123 200 40 123 200 40 123 200 40 123 200 40 123 200 40 123 200 40 123 200 40 123 200 40 123 200 40 123 200 40 123 200 40 123 200 40 123 200 40 123 200 40 123 200 40 123 200 40 123 200 40 123 200 40 123 200 40 123 200 40 123 200 40 123 200 40 123 200 40 123 200 40 123 200 40 123 200 40 123 200 40 123 200 40 123 200 40 123 200 40 123 200 40 123 200 40 123 200 40 123 200 40 123 200 40 123 200 40 123 200 40 123 200 40 123 200 40 123 200 40 123 200 40 123 200 40 123 200 40 123 200 40 123 200 40 123 200 40 123 200 40 123 200 40 123 200 40 123 200 40 123 200 40 123 200 40 123 200 40 123 200 40 123 200 40 123 200 40 123 200 40 123 200 40 123 200 40 123 200 40 123 200 40 123 200 40 123 200 40 123 200 40 123 200 40 123 200 40 123 200 40 123 200 40 123 200 40 123 200 40 123 200 40 123 200 40 123 200 40 123 200 40 123 200 40 123 200 40 123 200 40 123 200 40 123 200 40 195 171 167 195 171 167 195 171 167 195 171 167 195 171 167 195 171 167 195 171 167 195 171 167 195 171 167 195 171 167 195 171 167 195 171 167 195 171 167 195 171 167 195 171 167 195 171 167 195 171 167 195 171 167 195 171 167 195 171 167 195 171 167 195 171 167 195 171 167 195 171 167 195 171 167 195 171 167 195 171 167 195 171 167 195 171 167 195 171 167 195 171 167 195 171 167 195 171 167 195 171 167 195 171 167 195 171 167 195 171 167 195 171 167 195 171 167 195 171 167 195 171 167 195 171 167 195 171 167 195 171 167 195 171 167 195 171 167 195 171 167 195 171 167 195 171 167 195 171 167 195 171 167 195 171 167 195 171 167 195 171 167 195 171 167 195 171 167 195 171 167 195 171 167 195 171 167 195 171 167 195 171 167 195 171 167 195 171 167 195 171 167 195 171 167 195 171 167 195 171 167 195 171 167 195 171 167 195 171 167 195 171 167 195 171 167 195 171 167 195 171 167 195 171 167 195 171 167 195 171 167 195 171 167 195 171 167 195 171 167 195 171 167 195 171 167 195 171 167 195 171 167 195 171 167 195 171 167 195 171 167 195 171 167 195 171 167 195 171 167 195 171 167 195 171 167 195 171 167 195 171 167 195 171 167 195 171 167 195 171 167 195 171 167 195 171 167 195 171 167 195 171 167 195 171 167 195 171 167 195 171 167 195 171 167 195 171 167 195 171 167 195 171 167 195 171 167 195 171 167 195 171 167 195 171 167 195 171 167 195 171 167 195 171 167 195 171 167 195 171 167 195 171 167 195 171 167 195 171 167 195 171 167 195 171 167 195 171 167 195 171 167 195 171 167 195 171 167 195 171 167 195 171 167 195 171 167 195 171 167 195 171 167 195 171 167 195 171 167 195 171 167 195 171 167 195 171 167 195 171 167 195 171 167 195 171 167 195 171 167 195 171 167 195 171 167 195 171 167 195 171 167 195 171 167 195 171 167 195 171 167 195 171 167 195 171 167 195 171 167 195 171 167 195 171 167 195 171 167 195 171 167 195 171 167 195 171 167 195 171 167 195 171 167 195 171 167 195 171 167 195 171 167 195 171 167 195 171 167 195 171 167 195 171 167 195 171 167 195 171 167 195 171 167 195 171 167 195 171 167 195 171 167 195 171 167 195 171 167 195 171 167 195 171 167 195 171 167 195 171 167 195 171 167 195 171 167 195 171 167 195 171 167 195 171 167 195 171 167 195 171 167 195 171 167 195 171 167 195 171 167 195 171 167 195 171 167 195 171 167 195 171 167 195 171 167 195 171 167 195 171 167 195 171 167 195 171 167 195 171 167 195 171 167 195 171 167 195 171 167 123 200 40 123 200 40 123 200 40 123 200 40 123 200 40 123 200 40 123 200 40 123 200 40 123 200 40 123 200 40 123 200 40 123 200 40 123 200 40 123 200 40 123 200 40 123 200 40 123 200 40 123 200 40 123 200 40 123 200 40 123 200 40 123 200 40 123 200 40 123 200 40 123 200 40 123 200 40 123 200 40 123 200 40 123 200 40 123 200 40 123 200 40 123 200 40 123 200 40 123 200 40 123 200 40 123 200 40 123 200 40 123 200 40 123 200 40 123 200 40 123 200 40 123 200 40 123 200 40 123 200 40 123 200 40 123 200 40 123 200 40 123 200 40 123 200 40 123 200 40 123 200 40 123 200 40 123 200 40 123 200 40 123 200 40 123 200 40 123 200 40 123 200 40 123 200 40 123 200 40 123 200 40 123 200 40 123 200 40 123 200 40 123 200 40 123 200 40 123 200 40 123 200 40 123 200 40 123 200 40 123 200 40 123 200 40 123 200 40 123 200 40 123 200 40 123 200 40 123 200 40 123 200 40 123 200 40 123 200 40 123 200 40 123 200 40 123 200 40 123 200 40 123 200 40 123 200 40 123 200 40 123 200 40 123 200 40 123 200 40 123 200 40 123 200 40 123 200 40 123 200 40 123 200 40 123 200 40 123 200 40 123 200 40 123 200 40 123 200 40 123 200 40 123 200 40 123 200 40 123 200 40 123 200 40 123 200 40 123 200 40 123 200 40 123 200 40 123 200 40 123 200 40 123 200 40 123 200 40 123 200 40 123 200 40 123 200 40 123 200 40 123 200 40 123 200 40 123 200 40 123 200 40 123 200 40 123 200 40 123 200 40 123 200 40 123 200 40 123 200 40 123 200 40 123 200 40 123 200 40 123 200 40 123 200 40 123 200 40 123 200 40 123 200 40 123 200 40 123 200 40 123 200 40 123 200 40 123 200 40 123 200 40 123 200 40 123 200 40 123 200 40 123 200 40 123 200 40 123 200 40 123 200 40 123 200 40 123 200 40 123 200 40 123 200 40 123 200 40 123 200 40 123 200 40 123 200 40 123 200 40 123 200 40 123 200 40 123 200 40 123 200 40 123 200 40 123 200 40 123 200 40 123 200 40 123 200 40 123 200 40 123 200 40 123 200 40 123 200 40 123 200 40 123 200 40 123 200 40 123 200 40 123 200 40 123 200 40 123 200 40 123 200 40 123 200 40 123 200 40 123 200 40 123 200 40 123 200 40 123 200 40 123 200 40 123 200 40 123 200 40 123 200 40 123 200 40 123 200 40 123 200 40 123 200 40 123 200 40 123 200 40 123 200 40 123 200 40 123 200 40 123 200 40 123 200 40 123 200 40 75 136 224 75 136 224 75 136 224 75 136 224 75 136 224 75 136 224 75 136 224 75 136 224 75 136 224 75 136 224 75 136 224 75 136 224 75 136 224 75 136 224 75 136 224 75 136 224 75 136 224 75 136 224 75 136 224 75 136 224 75 136 224 75 136 224 75 136 224 75 136 224 75 136 224 75 136 224 75 136 224 75 136 224 75 136 224 75 136 224 75 136 224 75 136 224 75 136 224 75 136 224 75 136 224 75 136 224 75 136 224 75 136 224 75 136 224 75 136 224 75 136 224 75 136 224 75 136 224 75 136 224 75 136 224 75 136 224 75 136 224 75 136 224 75 136 224 75 136 224 75 136 224 75 136 224 75 136 224 75 136 224 75 136 224 75 136 224 75 136 224 75 136 224 75 136 224 75 136 224 75 136 224 75 136 224 75 136 224 75 136 224 75 136 224 75 136 224 75 136 224 75 136 224 75 136 224 75 136 224 75 136 224 75 136 224 75 136 224 75 136 224 75 136 224 75 136 224 75 136 224 75 136 224 75 136 224 75 136 224 75 136 224 75 136 224 75 136 224 75 136 224 75 136 224 75 136 224 75 136 224 75 136 224 75 136 224 75 136 224 75 136 224 75 136 224 75 136 224 75 136 224 75 136 224 75 136 224 75 136 224 75 136 224 75 136 224 75 136 224 75 136 224 75 136 224 75 136 224 75 136 224 75 136 224 75 136 224 75 136 224 75 136 224 75 136 224 75 136 224 75 136 224 75 136 224 75 136 224 75 136 224 75 136 224 75 136 224 75 136 224 75 136 224 75 136 224 75 136 224 75 136 224 75 136 224 75 136 224 75 136 224 75 136 224 75 136 224 75 136 224 75 136 224 75 136 224 75 136 224 75 136 224 75 136 224 75 136 224 75 136 224 75 136 224 75 136 224 75 136 224 75 136 224 75 136 224 75 136 224 75 136 224 75 136 224 75 136 224 75 136 224 75 136 224 75 136 224 75 136 224 75 136 224 75 136 224 75 136 224 75 136 224 75 136 224 75 136 224 75 136 224 75 136 224 75 136 224 75 136 224 75 136 224 75 136 224 75 136 224 75 136 224 75 136 224 75 136 224 75 136 224 75 136 224 75 136 224 75 136 224 75 136 224 75 136 224 75 136 224 75 136 224 75 136 224 75 136 224 75 136 224 75 136 224 75 136 224 75 136 224 75 136 224 75 136 224 75 136 224 75 136 224 75 136 224 75 136 224 75 136 224 75 136 224 75 136 224 75 136 224 75 136 224 75 136 224 75 136 224 75 136 224 75 136 224 75 136 224 75 136 224 75 136 224 75 136 224 75 136 224 75 136 224 75 136 224 75 136 224 123 200 40 123 200 40 123 200 40 123 200 40 123 200 40 123 200 40 123 200 40 123 200 40 123 200 40 123 200 40 123 200 40 123 200 40 123 200 40 123 200 40 123 200 40 123 200 40 123 200 40 123 200 40 123 200 40 123 200 40 123 200 40 123 200 40 123 200 40 123 200 40 123 200 40 123 200 40 123 200 40 123 200 40 123 200 40 123 200 40 123 200 40 123 200 40 123 200 40 123 200 40 123 200 40 123 200 40 123 200 40 123 200 40 123 200 40 123 200 40 123 200 40 123 200 40 123 200 40 123 200 40 123 200 40 123 200 40 123 200 40 123 200 40 123 200 40 123 200 40 123 200 40 123 200 40 123 200 40 123 200 40 123 200 40 123 200 40 123 200 40 123 200 40 123 200 40 123 200 40 123 200 40 123 200 40 123 200 40 123 200 40 123 200 40 123 200 40 123 200 40 123 200 40 123 200 40 123 200 40 123 200 40 123 200 40 123 200 40 123 200 40 123 200 40 123 200 40 123 200 40 123 200 40 123 200 40 123 200 40 123 200 40 123 200 40 123 200 40 123 200 40 123 200 40 123 200 40 123 200 40 123 200 40 123 200 40 123 200 40 123 200 40 123 200 40 123 200 40 123 200 40 123 200 40 123 200 40 123 200 40 123 200 40 123 200 40 123 200 40 123 200 40 123 200 40 123 200 40 123 200 40 123 200 40 123 200 40 123 200 40 123 200 40 123 200 40 123 200 40 123 200 40 123 200 40 123 200 40 123 200 40 123 200 40 123 200 40 123 200 40 123 200 40 123 200 40 123 200 40 123 200 40 123 200 40 123 200 40 123 200 40 123 200 40 123 200 40 123 200 40 123 200 40 123 200 40 123 200 40 123 200 40 123 200 40 123 200 40 123 200 40 123 200 40 123 200 40 123 200 40 123 200 40 123 200 40 123 200 40 123 200 40 123 200 40 123 200 40 123 200 40 123 200 40 123 200 40 123 200 40 123 200 40 123 200 40 123 200 40 123 200 40 123 200 40 123 200 40 123 200 40 123 200 40 123 200 40 123 200 40 123 200 40 123 200 40 123 200 40 123 200 40 123 200 40 123 200 40 123 200 40 123 200 40 123 200 40 123 200 40 123 200 40 123 200 40 123 200 40 123 200 40 123 200 40 123 200 40 123 200 40 123 200 40 123 200 40 123 200 40 123 200 40 123 200 40 123 200 40 123 200 40 123 200 40 123 200 40 123 200 40 123 200 40 123 200 40 123 200 40 123 200 40 123 200 40 123 200 40 123 200 40 123 200 40 123 200 40 123 200 40 123 200 40 123 200 40 123 200 40 123 200 40 123 200 40 123 200 40 63 220 93 63 220 93 63 220 93 63 220 93 63 220 93 63 220 93 63 220 93 63 220 93 63 220 93 63 220 93 63 220 93 63 220 93 63 220 93 63 220 93 63 220 93 63 220 93 63 220 93 63 220 93 63 220 93 63 220 93 63 220 93 63 220 93 63 220 93 63 220 93 63 220 93 63 220 93 63 220 93 63 220 93 63 220 93 63 220 93 63 220 93 63 220 93 63 220 93 63 220 93 63 220 93 63 220 93 63 220 93 63 220 93 63 220 93 63 220 93 63 220 93 63 220 93 63 220 93 63 220 93 63 220 93 63 220 93 63 220 93 63 220 93 63 220 93 63 220 93 63 220 93 63 220 93 63 220 93 63 220 93 63 220 93 63 220 93 63 220 93 63 220 93 63 220 93 63 220 93 63 220 93 63 220 93 63 220 93 63 220 93 63 220 93 63 220 93 63 220 93 63 220 93 63 220 93 63 220 93 63 220 93 63 220 93 63 220 93 63 220 93 63 220 93 63 220 93 63 220 93 63 220 93 63 220 93 63 220 93 63 220 93 63 220 93 63 220 93 63 220 93 63 220 93 63 220 93 63 220 93 63 220 93 63 220 93 63 220 93 63 220 93 63 220 93 63 220 93 63 220 93 63 220 93 63 220 93 63 220 93 63 220 93 63 220 93 63 220 93 63 220 93 63 220 93 63 220 93 63 220 93 63 220 93 63 220 93 63 220 93 63 220 93 63 220 93 63 220 93 63 220 93 63 220 93 63 220 93 63 220 93 63 220 93 63 220 93 63 220 93 63 220 93 63 220 93 63 220 93 63 220 93 63 220 93 63 220 93 63 220 93 63 220 93 63 220 93 63 220 93 63 220 93 63 220 93 63 220 93 63 220 93 63 220 93 63 220 93 63 220 93 63 220 93 63 220 93 63 220 93 63 220 93 63 220 93 63 220 93 63 220 93 63 220 93 63 220 93 63 220 93 63 220 93 63 220 93 63 220 93 63 220 93 63 220 93 63 220 93 63 220 93 63 220 93 63 220 93 63 220 93 63 220 93 63 220 93 63 220 93 63 220 93 63 220 93 63 220 93 63 220 93 63 220 93 63 220 93 63 220 93 63 220 93 63 220 93 63 220 93 63 220 93 63 220 93 63 220 93 63 220 93 63 220 93 63 220 93 63 220 93 63 220 93 63 220 93 63 220 93 63 220 93 63 220 93 63 220 93 63 220 93 63 220 93 63 220 93 63 220 93 63 220 93 63 220 93 63 220 93 63 220 93 63 220 93 63 220 93 63 220 93 63 220 93 63 220 93 63 220 93 63 220 93 63 220 93 63 220 93 63 220 93 63 220 93 63 220 93 123 200 40 123 200 40 123 200 40 123 200 40 123 200 40 123 200 40 123 200 40 123 200 40 123 200 40 123 200 40 123 200 40 123 200 40 123 200 40 123 200 40 123 200 40 123 200 40 123 200 40 123 200 40 123 200 40 123 200 40 123 200 40 123 200 40 123 200 40 123 200 40 123 200 40 123 200 40 123 200 40 123 200 40 123 200 40 123 200 40 123 200 40 123 200 40 123 200 40 123 200 40 123 200 40 123 200 40 123 200 40 123 200 40 123 200 40 123 200 40 123 200 40 123 200 40 123 200 40 123 200 40 123 200 40 123 200 40 123 200 40 123 200 40 123 200 40 123 200 40 123 200 40 123 200 40 123 200 40 123 200 40 123 200 40 123 200 40 123 200 40 123 200 40 123 200 40 123 200 40 123 200 40 123 200 40 123 200 40 123 200 40 123 200 40 123 200 40 123 200 40 123 200 40 123 200 40 123 200 40 123 200 40 123 200 40 123 200 40 123 200 40 123 200 40 123 200 40 123 200 40 123 200 40 123 200 40 123 200 40 123 200 40 123 200 40 123 200 40 123 200 40 123 200 40 123 200 40 123 200 40 123 200 40 123 200 40 123 200 40 123 200 40 123 200 40 123 200 40 123 200 40 123 200 40 123 200 40 123 200 40 123 200 40 123 200 40 123 200 40 123 200 40 123 200 40 123 200 40 123 200 40 123 200 40 123 200 40 123 200 40 123 200 40 123 200 40 123 200 40 123 200 40 123 200 40 123 200 40 123 200 40 123 200 40 123 200 40 123 200 40 123 200 40 123 200 40 123 200 40 123 200 40 123 200 40 123 200 40 123 200 40 123 200 40 123 200 40 123 200 40 123 200 40 123 200 40 123 200 40 123 200 40 123 200 40 123 200 40 123 200 40 123 200 40 123 200 40 123 200 40 123 200 40 123 200 40 123 200 40 123 200 40 123 200 40 123 200 40 123 200 40 123 200 40 123 200 40 123 200 40 123 200 40 123 200 40 123 200 40 123 200 40 123 200 40 123 200 40 123 200 40 123 200 40 123 200 40 123 200 40 123 200 40 123 200 40 123 200 40 123 200 40 123 200 40 123 200 40 123 200 40 123 200 40 123 200 40 123 200 40 123 200 40 123 200 40 123 200 40 123 200 40 123 200 40 123 200 40 123 200 40 123 200 40 123 200 40 123 200 40 123 200 40 123 200 40 123 200 40 123 200 40 123 200 40 123 200 40 123 200 40 123 200 40 123 200 40 123 200 40 123 200 40 123 200 40 123 200 40 123 200 40 123 200 40 123 200 40 123 200 40 123 200 40 123 200 40 123 200 40 123 200 40 123 200 40 123 200 40 197 160 210 197 160 210 197 160 210 197 160 210 197 160 210 197 160 210 197 160 210 197 160 210 197 160 210 197 160 210 197 160 210 197 160 210 197 160 210 197 160 210 197 160 210 197 160 210 197 160 210 197 160 210 197 160 210 197 160 210 197 160 210 197 160 210 197 160 210 197 160 210 197 160 210 197 160 210 197 160 210 197 160 210 197 160 210 197 160 210 197 160 210 197 160 210 197 160 210 197 160 210 197 160 210 197 160 210 197 160 210 197 160 210 197 160 210 197 160 210 197 160 210 197 160 210 197 160 210 197 160 210 197 160 210 197 160 210 197 160 210 197 160 210 197 160 210 197 160 210 197 160 210 197 160 210 197 160 210 197 160 210 197 160 210 197 160 210 197 160 210 197 160 210 197 160 210 197 160 210 197 160 210 197 160 210 197 160 210 197 160 210 197 160 210 197 160 210 197 160 210 197 160 210 197 160 210 197 160 210 197 160 210 197 160 210 197 160 210 197 160 210 197 160 210 197 160 210 197 160 210 197 160 210 197 160 210 197 160 210 197 160 210 197 160 210 197 160 210 197 160 210 197 160 210 197 160 210 197 160 210 197 160 210 197 160 210 197 160 210 197 160 210 197 160 210 197 160 210 197 160 210 197 160 210 197 160 210 197 160 210 197 160 210 197 160 210 197 160 210 197 160 210 197 160 210 197 160 210 197 160 210 197 160 210 197 160 210 197 160 210 197 160 210 197 160 210 197 160 210 197 160 210 197 160 210 197 160 210 197 160 210 197 160 210 197 160 210 197 160 210 197 160 210 197 160 210 197 160 210 197 160 210 197 160 210 197 160 210 197 160 210 197 160 210 197 160 210 197 160 210 197 160 210 197 160 210 197 160 210 197 160 210 197 160 210 197 160 210 197 160 210 197 160 210 197 160 210 197 160 210 197 160 210 197 160 210 197 160 210 197 160 210 197 160 210 197 160 210 197 160 210 197 160 210 197 160 210 197 160 210 197 160 210 197 160 210 197 160 210 197 160 210 197 160 210 197 160 210 197 160 210 197 160 210 197 160 210 197 160 210 197 160 210 197 160 210 197 160 210 197 160 210 197 160 210 197 160 210 197 160 210 197 160 210 197 160 210 197 160 210 197 160 210 197 160 210 197 160 210 197 160 210 197 160 210 197 160 210 197 160 210 197 160 210 197 160 210 197 160 210 197 160 210 197 160 210 197 160 210 197 160 210 197 160 210 197 160 210 197 160 210 197 160 210 197 160 210 197 160 210 197 160 210 197 160 210 197 160 210 197 160 210 197 160 210 197 160 210 197 160 210 197 160 210 197 160 210 197 160 210 197 160 210 197 160 210 197 160 210 123 200 40 123 200 40 123 200 40 123 200 40 123 200 40 123 200 40 123 200 40 123 200 40 123 200 40 123 200 40 123 200 40 123 200 40 123 200 40 123 200 40 123 200 40 123 200 40 123 200 40 123 200 40 123 200 40 123 200 40 123 200 40 123 200 40 123 200 40 123 200 40 123 200 40 123 200 40 123 200 40 123 200 40 123 200 40 123 200 40 123 200 40 123 200 40 123 200 40 123 200 40 123 200 40 123 200 40 123 200 40 123 200 40 123 200 40 123 200 40 123 200 40 123 200 40 123 200 40 123 200 40 123 200 40 123 200 40 123 200 40 123 200 40 123 200 40 123 200 40 123 200 40 123 200 40 123 200 40 123 200 40 123 200 40 123 200 40 123 200 40 123 200 40 123 200 40 123 200 40 123 200 40 123 200 40 123 200 40 123 200 40 123 200 40 123 200 40 123 200 40 123 200 40 123 200 40 123 200 40 123 200 40 123 200 40 123 200 40 123 200 40 123 200 40 123 200 40 123 200 40 123 200 40 123 200 40 123 200 40 123 200 40 123 200 40 123 200 40 123 200 40 123 200 40 123 200 40 123 200 40 123 200 40 123 200 40 123 200 40 123 200 40 123 200 40 123 200 40 123 200 40 123 200 40 123 200 40 123 200 40 123 200 40 123 200 40 123 200 40 123 200 40 123 200 40 123 200 40 123 200 40 123 200 40 123 200 40 123 200 40 123 200 40 123 200 40 123 200 40 123 200 40 123 200 40 123 200 40 123 200 40 123 200 40 123 200 40 123 200 40 123 200 40 123 200 40 123 200 40 123 200 40 123 200 40 123 200 40 123 200 40 123 200 40 123 200 40 123 200 40 123 200 40 123 200 40 123 200 40 123 200 40 123 200 40 123 200 40 123 200 40 123 200 40 123 200 40 123 200 40 123 200 40 123 200 40 123 200 40 123 200 40 123 200 40 123 200 40 123 200 40 123 200 40 123 200 40 123 200 40 123 200 40 123 200 40 123 200 40 123 200 40 123 200 40 123 200 40 123 200 40 123 200 40 123 200 40 123 200 40 123 200 40 123 200 40 123 200 40 123 200 40 123 200 40 123 200 40 123 200 40 123 200 40 123 200 40 123 200 40 123 200 40 123 200 40 123 200 40 123 200 40 123 200 40 123 200 40 123 200 40 123 200 40 123 200 40 123 200 40 123 200 40 123 200 40 123 200 40 123 200 40 123 200 40 123 200 40 123 200 40 123 200 40 123 200 40 123 200 40 123 200 40 123 200 40 123 200 40 123 200 40 123 200 40 123 200 40 123 200 40 123 200 40 123 200 40 123 200 40 123 200 40 123 200 40 123 200 40 92 254 172 92 254 172 92 254 172 92 254 172 92 254 172 92 254 172 92 254 172 92 254 172 92 254 172 92 254 172 92 254 172 92 254 172 92 254 172 92 254 172 92 254 172 92 254 172 92 254 172 92 254 172 92 254 172 92 254 172 92 254 172 92 254 172 92 254 172 92 254 172 92 254 172 92 254 172 92 254 172 92 254 172 92 254 172 92 254 172 92 254 172 92 254 172 92 254 172 92 254 172 92 254 172 92 254 172 92 254 172 92 254 172 92 254 172 92 254 172 92 254 172 92 254 172 92 254 172 92 254 172 92 254 172 92 254 172 92 254 172 92 254 172 92 254 172 92 254 172 92 254 172 92 254 172 92 254 172 92 254 172 92 254 172 92 254 172 92 254 172 92 254 172 92 254 172 92 254 172 92 254 172 92 254 172 92 254 172 92 254 172 92 254 172 92 254 172 92 254 172 92 254 172 92 254 172 92 254 172 92 254 172 92 254 172 92 254 172 92 254 172 92 254 172 92 254 172 92 254 172 92 254 172 92 254 172 92 254 172 92 254 172 92 254 172 92 254 172 92 254 172 92 254 172 92 254 172 92 254 172 92 254 172 92 254 172 92 254 172 92 254 172 92 254 172 92 254 172 92 254 172 92 254 172 92 254 172 92 254 172 92 254 172 92 254 172 92 254 172 92 254 172 92 254 172 92 254 172 92 254 172 92 254 172 92 254 172 92 254 172 92 254 172 92 254 172 92 254 172 92 254 172 92 254 172 92 254 172 92 254 172 92 254 172 92 254 172 92 254 172 92 254 172 92 254 172 92 254 172 92 254 172 92 254 172 92 254 172 92 254 172 92 254 172 92 254 172 92 254 172 92 254 172 92 254 172 92 254 172 92 254 172 92 254 172 92 254 172 92 254 172 92 254 172 92 254 172 92 254 172 92 254 172 92 254 172 92 254 172 92 254 172 92 254 172 92 254 172 92 254 172 92 254 172 92 254 172 92 254 172 92 254 172 92 254 172 92 254 172 92 254 172 92 254 172 92 254 172 92 254 172 92 254 172 92 254 172 92 254 172 92 254 172 92 254 172 92 254 172 92 254 172 92 254 172 92 254 172 92 254 172 92 254 172 92 254 172 92 254 172 92 254 172 92 254 172 92 254 172 92 254 172 92 254 172 92 254 172 92 254 172 92 254 172 92 254 172 92 254 172 92 254 172 92 254 172 92 254 172 92 254 172 92 254 172 92 254 172 92 254 172 92 254 172 92 254 172 92 254 172 92 254 172 92 254 172 92 254 172 92 254 172 92 254 172 92 254 172 92 254 172 92 254 172 92 254 172 92 254 172 92 254 172 92 254 172 92 254 172 123 200 40 123 200 40 123 200 40 123 200 40 123 200 40 123 200 40 123 200 40 123 200 40 123 200 40 123 200 40 123 200 40 123 200 40 123 200 40 123 200 40 123 200 40 123 200 40 123 200 40 123 200 40 123 200 40 123 200 40 123 200 40 123 200 40 123 200 40 123 200 40 123 200 40 123 200 40 123 200 40 123 200 40 123 200 40 123 200 40 123 200 40 123 200 40 123 200 40 123 200 40 123 200 40 123 200 40 123 200 40 123 200 40 123 200 40 123 200 40 123 200 40 123 200 40 123 200 40 123 200 40 123 200 40 123 200 40 123 200 40 123 200 40 123 200 40 123 200 40 123 200 40 123 200 40 123 200 40 123 200 40 123 200 40 123 200 40 123 200 40 123 200 40 123 200 40 123 200 40 123 200 40 123 200 40 123 200 40 123 200 40 123 200 40 123 200 40 123 200 40 123 200 40 123 200 40 123 200 40 123 200 40 123 200 40 123 200 40 123 200 40 123 200 40 123 200 40 123 200 40 123 200 40 123 200 40 123 200 40 123 200 40 123 200 40 123 200 40 123 200 40 123 200 40 123 200 40 123 200 40 123 200 40 123 200 40 123 200 40 123 200 40 123 200 40 123 200 40 123 200 40 123 200 40 123 200 40 123 200 40 123 200 40 123 200 40 123 200 40 123 200 40 123 200 40 123 200 40 123 200 40 123 200 40 123 200 40 123 200 40 123 200 40 123 200 40 123 200 40 123 200 40 123 200 40 123 200 40 123 200 40 123 200 40 123 200 40 123 200 40 123 200 40 123 200 40 123 200 40 123 200 40 123 200 40 123 200 40 123 200 40 123 200 40 123 200 40 123 200 40 123 200 40 123 200 40 123 200 40 123 200 40 123 200 40 123 200 40 123 200 40 123 200 40 123 200 40 123 200 40 123 200 40 123 200 40 123 200 40 123 200 40 123 200 40 123 200 40 123 200 40 123 200 40 123 200 40 123 200 40 123 200 40 123 200 40 123 200 40 123 200 40 123 200 40 123 200 40 123 200 40 123 200 40 123 200 40 123 200 40 123 200 40 123 200 40 123 200 40 123 200 40 123 200 40 123 200 40 123 200 40 123 200 40 123 200 40 123 200 40 123 200 40 123 200 40 123 200 40 123 200 40 123 200 40 123 200 40 123 200 40 123 200 40 123 200 40 123 200 40 123 200 40 123 200 40 123 200 40 123 200 40 123 200 40 123 200 40 123 200 40 123 200 40 123 200 40 123 200 40 123 200 40 123 200 40 123 200 40 123 200 40 123 200 40 123 200 40 123 200 40 123 200 40 123 200 40 123 200 40 123 200 40 123 200 40 123 200 40 227 58 205 227 58 205 227 58 205 227 58 205 227 58 205 227 58 205 227 58 205 227 58 205 227 58 205 227 58 205 227 58 205 227 58 205 227 58 205 227 58 205 227 58 205 227 58 205 227 58 205 227 58 205 227 58 205 227 58 205 227 58 205 227 58 205 227 58 205 227 58 205 227 58 205 227 58 205 227 58 205 227 58 205 227 58 205 227 58 205 227 58 205 227 58 205 227 58 205 227 58 205 227 58 205 227 58 205 227 58 205 227 58 205 227 58 205 227 58 205 227 58 205 227 58 205 227 58 205 227 58 205 227 58 205 227 58 205 227 58 205 227 58 205 227 58 205 227 58 205 227 58 205 227 58 205 227 58 205 227 58 205 227 58 205 227 58 205 227 58 205 227 58 205 227 58 205 227 58 205 227 58 205 227 58 205 227 58 205 227 58 205 227 58 205 227 58 205 227 58 205 227 58 205 227 58 205 227 58 205 227 58 205 227 58 205 227 58 205 227 58 205 227 58 205 227 58 205 227 58 205 227 58 205 227 58 205 227 58 205 227 58 205 227 58 205 227 58 205 227 58 205 227 58 205 227 58 205 227 58 205 227 58 205 227 58 205 227 58 205 227 58 205 227 58 205 227 58 205 227 58 205 227 58 205 227 58 205 227 58 205 227 58 205 227 58 205 227 58 205 227 58 205 227 58 205 227 58 205 227 58 205 227 58 205 227 58 205 227 58 205 227 58 205 227 58 205 227 58 205 227 58 205 227 58 205 227 58 205 227 58 205 227 58 205 227 58 205 227 58 205 227 58 205 227 58 205 227 58 205 227 58 205 227 58 205 227 58 205 227 58 205 227 58 205 227 58 205 227 58 205 227 58 205 227 58 205 227 58 205 227 58 205 227 58 205 227 58 205 227 58 205 227 58 205 227 58 205 227 58 205 227 58 205 227 58 205 227 58 205 227 58 205 227 58 205 227 58 205 227 58 205 227 58 205 227 58 205 227 58 205 227 58 205 227 58 205 227 58 205 227 58 205 227 58 205 227 58 205 227 58 205 227 58 205 227 58 205 227 58 205 227 58 205 227 58 205 227 58 205 227 58 205 227 58 205 227 58 205 227 58 205 227 58 205 227 58 205 227 58 205 227 58 205 227 58 205 227 58 205 227 58 205 227 58 205 227 58 205 227 58 205 227 58 205 227 58 205 227 58 205 227 58 205 227 58 205 227 58 205 227 58 205 227 58 205 227 58 205 227 58 205 227 58 205 227 58 205 227 58 205 227 58 205 227 58 205 227 58 205 227 58 205 227 58 205 227 58 205 227 58 205 227 58 205 227 58 205 227 58 205 227 58 205 227 58 205 227 58 205 123 200 40 123 200 40 123 200 40 123 200 40 123 200 40 123 200 40 123 200 40 123 200 40 123 200 40 123 200 40 123 200 40 123 200 40 123 200 40 123 200 40 123 200 40 123 200 40 123 200 40 123 200 40 123 200 40 123 200 40 123 200 40 123 200 40 123 200 40 123 200 40 123 200 40 123 200 40 123 200 40 123 200 40 123 200 40 123 200 40 123 200 40 123 200 40 123 200 40 123 200 40 123 200 40 123 200 40 123 200 40 123 200 40 123 200 40 123 200 40 123 200 40 123 200 40 123 200 40 123 200 40 123 200 40 123 200 40 123 200 40 123 200 40 123 200 40 123 200 40 123 200 40 123 200 40 123 200 40 123 200 40 123 200 40 123 200 40 123 200 40 123 200 40 123 200 40 123 200 40 123 200 40 123 200 40 123 200 40 123 200 40 123 200 40 123 200 40 123 200 40 123 200 40 123 200 40 123 200 40 123 200 40 123 200 40 123 200 40 123 200 40 123 200 40 123 200 40 123 200 40 123 200 40 123 200 40 123 200 40 123 200 40 123 200 40 123 200 40 123 200 40 123 200 40 123 200 40 123 200 40 123 200 40 123 200 40 123 200 40 123 200 40 123 200 40 123 200 40 123 200 40 123 200 40 123 200 40 123 200 40 123 200 40 123 200 40 123 200 40 123 200 40 123 200 40 123 200 40 123 200 40 123 200 40 123 200 40 123 200 40 123 200 40 123 200 40 123 200 40 123 200 40 123 200 40 123 200 40 123 200 40 123 200 40 123 200 40 123 200 40 123 200 40 123 200 40 123 200 40 123 200 40 123 200 40 123 200 40 123 200 40 123 200 40 123 200 40 123 200 40 123 200 40 123 200 40 123 200 40 123 200 40 123 200 40 123 200 40 123 200 40 123 200 40 123 200 40 123 200 40 123 200 40 123 200 40 123 200 40 123 200 40 123 200 40 123 200 40 123 200 40 123 200 40 123 200 40 123 200 40 123 200 40 123 200 40 123 200 40 123 200 40 123 200 40 123 200 40 123 200 40 123 200 40 123 200 40 123 200 40 123 200 40 123 200 40 123 200 40 123 200 40 123 200 40 123 200 40 123 200 40 123 200 40 123 200 40 123 200 40 123 200 40 123 200 40 123 200 40 123 200 40 123 200 40 123 200 40 123 200 40 123 200 40 123 200 40 123 200 40 123 200 40 123 200 40 123 200 40 123 200 40 123 200 40 123 200 40 123 200 40 123 200 40 123 200 40 123 200 40 123 200 40 123 200 40 123 200 40 123 200 40 123 200 40 123 200 40 123 200 40 123 200 40 123 200 40 123 200 40 123 200 40 123 200 40 123 200 40 67 103 129 67 103 129 67 103 129 67 103 129 67 103 129 67 103 129 67 103 129 67 103 129 67 103 129 67 103 129 67 103 129 67 103 129 67 103 129 67 103 129 67 103 129 67 103 129 67 103 129 67 103 129 67 103 129 67 103 129 67 103 129 67 103 129 67 103 129 67 103 129 67 103 129 67 103 129 67 103 129 67 103 129 67 103 129 67 103 129 67 103 129 67 103 129 67 103 129 67 103 129 67 103 129 67 103 129 67 103 129 67 103 129 67 103 129 67 103 129 67 103 129 67 103 129 67 103 129 67 103 129 67 103 129 67 103 129 67 103 129 67 103 129 67 103 129 67 103 129 67 103 129 67 103 129 67 103 129 67 103 129 67 103 129 67 103 129 67 103 129 67 103 129 67 103 129 67 103 129 67 103 129 67 103 129 67 103 129 67 103 129 67 103 129 67 103 129 67 103 129 67 103 129 67 103 129 67 103 129 67 103 129 67 103 129 67 103 129 67 103 129 67 103 129 67 103 129 67 103 129 67 103 129 67 103 129 67 103 129 67 103 129 67 103 129 67 103 129 67 103 129 67 103 129 67 103 129 67 103 129 67 103 129 67 103 129 67 103 129 67 103 129 67 103 129 67 103 129 67 103 129 67 103 129 67 103 129 67 103 129 67 103 129 67 103 129 67 103 129 67 103 129 67 103 129 67 103 129 67 103 129 67 103 129 67 103 129 67 103 129 67 103 129 67 103 129 67 103 129 67 103 129 67 103 129 67 103 129 67 103 129 67 103 129 67 103 129 67 103 129 67 103 129 67 103 129 67 103 129 67 103 129 67 103 129 67 103 129 67 103 129 67 103 129 67 103 129 67 103 129 67 103 129 67 103 129 67 103 129 67 103 129 67 103 129 67 103 129 67 103 129 67 103 129 67 103 129 67 103 129 67 103 129 67 103 129 67 103 129 67 103 129 67 103 129 67 103 129 67 103 129 67 103 129 67 103 129 67 103 129 67 103 129 67 103 129 67 103 129 67 103 129 67 103 129 67 103 129 67 103 129 67 103 129 67 103 129 67 103 129 67 103 129 67 103 129 67 103 129 67 103 129 67 103 129 67 103 129 67 103 129 67 103 129 67 103 129 67 103 129 67 103 129 67 103 129 67 103 129 67 103 129 67 103 129 67 103 129 67 103 129 67 103 129 67 103 129 67 103 129 67 103 129 67 103 129 67 103 129 67 103 129 67 103 129 67 103 129 67 103 129 67 103 129 67 103 129 67 103 129 67 103 129 67 103 129 67 103 129 67 103 129 67 103 129 67 103 129 67 103 129 67 103 129 67 103 129 67 103 129 67 103 129 67 103 129 67 103 129 123 200 40 123 200 40 123 200 40 123 200 40 123 200 40 123 200 40 123 200 40 123 200 40 123 200 40 123 200 40 123 200 40 123 200 40 123 200 40 123 200 40 123 200 40 123 200 40 123 200 40 123 200 40 123 200 40 123 200 40 123 200 40 123 200 40 123 200 40 123 200 40 123 200 40 123 200 40 123 200 40 123 200 40 123 200 40 123 200 40 123 200 40 123 200 40 123 200 40 123 200 40 123 200 40 123 200 40 123 200 40 123 200 40 123 200 40 123 200 40 123 200 40 123 200 40 123 200 40 123 200 40 123 200 40 123 200 40 123 200 40 123 200 40 123 200 40 123 200 40 123 200 40 123 200 40 123 200 40 123 200 40 123 200 40 123 200 40 123 200 40 123 200 40 123 200 40 123 200 40 123 200 40 123 200 40 123 200 40 123 200 40 123 200 40 123 200 40 123 200 40 123 200 40 123 200 40 123 200 40 123 200 40 123 200 40 123 200 40 123 200 40 123 200 40 123 200 40 123 200 40 123 200 40 123 200 40 123 200 40 123 200 40 123 200 40 123 200 40 123 200 40 123 200 40 123 200 40 123 200 40 123 200 40 123 200 40 123 200 40 123 200 40 123 200 40 123 200 40 123 200 40 123 200 40 123 200 40 123 200 40 123 200 40 123 200 40 123 200 40 123 200 40 123 200 40 123 200 40 123 200 40 123 200 40 123 200 40 123 200 40 123 200 40 123 200 40 123 200 40 123 200 40 123 200 40 123 200 40 123 200 40 123 200 40 123 200 40 123 200 40 123 200 40 123 200 40 123 200 40 123 200 40 123 200 40 123 200 40 123 200 40 123 200 40 123 200 40 123 200 40 123 200 40 123 200 40 123 200 40 123 200 40 123 200 40 123 200 40 123 200 40 123 200 40 123 200 40 123 200 40 123 200 40 123 200 40 123 200 40 123 200 40 123 200 40 123 200 40 123 200 40 123 200 40 123 200 40 123 200 40 123 200 40 123 200 40 123 200 40 123 200 40 123 200 40 123 200 40 123 200 40 123 200 40 123 200 40 123 200 40 123 200 40 123 200 40 123 200 40 123 200 40 123 200 40 123 200 40 123 200 40 123 200 40 123 200 40 123 200 40 123 200 40 123 200 40 123 200 40 123 200 40 123 200 40 123 200 40 123 200 40 123 200 40 123 200 40 123 200 40 123 200 40 123 200 40 123 200 40 123 200 40 123 200 40 123 200 40 123 200 40 123 200 40 123 200 40 123 200 40 123 200 40 123 200 40 123 200 40 123 200 40 123 200 40 123 200 40 123 200 40 123 200 40 123 200 40 123 200 40 123 200 40 123 200 40 123 200 40 164 193 118 164 193 118 164 193 118 164 193 118 164 193 118 164 193 118 164 193 118 164 193 118 164 193 118 164 193 118 164 193 118 164 193 118 164 193 118 164 193 118 164 193 118 164 193 118 164 193 118 164 193 118 164 193 118 164 193 118 164 193 118 164 193 118 164 193 118 164 193 118 164 193 118 164 193 118 164 193 118 164 193 118 164 193 118 164 193 118 164 193 118 164 193 118 164 193 118 164 193 118 164 193 118 164 193 118 164 193 118 164 193 118 164 193 118 164 193 118 164 193 118 164 193 118 164 193 118 164 193 118 164 193 118 164 193 118 164 193 118 164 193 118 164 193 118 164 193 118 164 193 118 164 193 118 164 193 118 164 193 118 164 193 118 164 193 118 164 193 118 164 193 118 164 193 118 164 193 118 164 193 118 164 193 118 164 193 118 164 193 118 164 193 118 164 193 118 164 193 118 164 193 118 164 193 118 164 193 118 164 193 118 164 193 118 164 193 118 164 193 118 164 193 118 164 193 118 164 193 118 164 193 118 164 193 118 164 193 118 164 193 118 164 193 118 164 193 118 164 193 118 164 193 118 164 193 118 164 193 118 164 193 118 164 193 118 164 193 118 164 193 118 164 193 118 164 193 118 164 193 118 164 193 118 164 193 118 164 193 118 164 193 118 164 193 118 164 193 118 164 193 118 164 193 118 164 193 118 164 193 118 164 193 118 164 193 118 164 193 118 164 193 118 164 193 118 164 193 118 164 193 118 164 193 118 164 193 118 164 193 118 164 193 118 164 193 118 164 193 118 164 193 118 164 193 118 164 193 118 164 193 118 164 193 118 164 193 118 164 193 118 164 193 118 164 193 118 164 193 118 164 193 118 164 193 118 164 193 118 164 193 118 164 193 118 164 193 118 164 193 118 164 193 118 164 193 118 164 193 118 164 193 118 164 193 118 164 193 118 164 193 118 164 193 118 164 193 118 164 193 118 164 193 118 164 193 118 164 193 118 164 193 118 164 193 118 164 193 118 164 193 118 164 193 118 164 193 118 164 193 118 164 193 118 164 193 118 164 193 118 164 193 118 164 193 118 164 193 118 164 193 118 164 193 118 164 193 118 164 193 118 164 193 118 164 193 118 164 193 118 164 193 118 164 193 118 164 193 118 164 193 118 164 193 118 164 193 118 164 193 118 164 193 118 164 193 118 164 193 118 164 193 118 164 193 118 164 193 118 164 193 118 164 193 118 164 193 118 164 193 118 164 193 118 164 193 118 164 193 118 164 193 118 164 193 118 164 193 118 164 193 118 164 193 118 164 193 118 164 193 118 164 193 118 164 193 118 164 193 118 164 193 118 164 193 118 164 193 118 123 200 40 123 200 40 123 200 40 123 200 40 123 200 40 123 200 40 123 200 40 123 200 40 123 200 40 123 200 40 123 200 40 123 200 40 123 200 40 123 200 40 123 200 40 123 200 40 123 200 40 123 200 40 123 200 40 123 200 40 123 200 40 123 200 40 123 200 40 123 200 40 123 200 40 123 200 40 123 200 40 123 200 40 123 200 40 123 200 40 123 200 40 123 200 40 123 200 40 123 200 40 123 200 40 123 200 40 123 200 40 123 200 40 123 200 40 123 200 40 123 200 40 123 200 40 123 200 40 123 200 40 123 200 40 123 200 40 123 200 40 123 200 40 123 200 40 123 200 40 123 200 40 123 200 40 123 200 40 123 200 40 123 200 40 123 200 40 123 200 40 123 200 40 123 200 40 123 200 40 123 200 40 123 200 40 123 200 40 123 200 40 123 200 40 123 200 40 123 200 40 123 200 40 123 200 40 123 200 40 123 200 40 123 200 40 123 200 40 123 200 40 123 200 40 123 200 40 123 200 40 123 200 40 123 200 40 123 200 40 123 200 40 123 200 40 123 200 40 123 200 40 123 200 40 123 200 40 123 200 40 123 200 40 123 200 40 123 200 40 123 200 40 123 200 40 123 200 40 123 200 40 123 200 40 123 200 40 123 200 40 123 200 40 123 200 40 123 200 40 123 200 40 123 200 40 123 200 40 123 200 40 123 200 40 123 200 40 123 200 40 123 200 40 123 200 40 123 200 40 123 200 40 123 200 40 123 200 40 123 200 40 123 200 40 123 200 40 123 200 40 123 200 40 123 200 40 123 200 40 123 200 40 123 200 40 123 200 40 123 200 40 123 200 40 123 200 40 123 200 40 123 200 40 123 200 40 123 200 40 123 200 40 123 200 40 123 200 40 123 200 40 123 200 40 123 200 40 123 200 40 123 200 40 123 200 40 123 200 40 123 200 40 123 200 40 123 200 40 123 200 40 123 200 40 123 200 40 123 200 40 123 200 40 123 200 40 123 200 40 123 200 40 123 200 40 123 200 40 123 200 40 123 200 40 123 200 40 123 200 40 123 200 40 123 200 40 123 200 40 123 200 40 123 200 40 123 200 40 123 200 40 123 200 40 123 200 40 123 200 40 123 200 40 123 200 40 123 200 40 123 200 40 123 200 40 123 200 40 123 200 40 123 200 40 123 200 40 123 200 40 123 200 40 123 200 40 123 200 40 123 200 40 123 200 40 123 200 40 123 200 40 123 200 40 123 200 40 123 200 40 123 200 40 123 200 40 123 200 40 123 200 40 123 200 40 123 200 40 123 200 40 123 200 40 123 200 40 123 200 40 123 200 40 123 200 40 123 200 40 165 84 116 165 84 116 165 84 116 165 84 116 165 84 116 165 84 116 165 84 116 165 84 116 165 84 116 165 84 116 165 84 116 165 84 116 165 84 116 165 84 116 165 84 116 165 84 116 165 84 116 165 84 116 165 84 116 165 84 116 165 84 116 165 84 116 165 84 116 165 84 116 165 84 116 165 84 116 165 84 116 165 84 116 165 84 116 165 84 116 165 84 116 165 84 116 165 84 116 165 84 116 165 84 116 165 84 116 165 84 116 165 84 116 165 84 116 165 84 116 165 84 116 165 84 116 165 84 116 165 84 116 165 84 116 165 84 116 165 84 116 165 84 116 165 84 116 165 84 116 165 84 116 165 84 116 165 84 116 165 84 116 165 84 116 165 84 116 165 84 116 165 84 116 165 84 116 165 84 116 165 84 116 165 84 116 165 84 116 165 84 116 165 84 116 165 84 116 165 84 116 165 84 116 165 84 116 165 84 116 165 84 116 165 84 116 165 84 116 165 84 116 165 84 116 165 84 116 165 84 116 165 84 116 165 84 116 165 84 116 165 84 116 165 84 116 165 84 116 165 84 116 165 84 116 165 84 116 165 84 116 165 84 116 165 84 116 165 84 116 165 84 116 165 84 116 165 84 116 165 84 116 165 84 116 165 84 116 165 84 116 165 84 116 165 84 116 165 84 116 165 84 116 165 84 116 165 84 116 165 84 116 165 84 116 165 84 116 165 84 116 165 84 116 165 84 116 165 84 116 165 84 116 165 84 116 165 84 116 165 84 116 165 84 116 165 84 116 165 84 116 165 84 116 165 84 116 165 84 116 165 84 116 165 84 116 165 84 116 165 84 116 165 84 116 165 84 116 165 84 116 165 84 116 165 84 116 165 84 116 165 84 116 165 84 116 165 84 116 165 84 116 165 84 116 165 84 116 165 84 116 165 84 116 165 84 116 165 84 116 165 84 116 165 84 116 165 84 116 165 84 116 165 84 116 165 84 116 165 84 116 165 84 116 165 84 116 165 84 116 165 84 116 165 84 116 165 84 116 165 84 116 165 84 116 165 84 116 165 84 116 165 84 116 165 84 116 165 84 116 165 84 116 165 84 116 165 84 116 165 84 116 165 84 116 165 84 116 165 84 116 165 84 116 165 84 116 165 84 116 165 84 116 165 84 116 165 84 116 165 84 116 165 84 116 165 84 116 165 84 116 165 84 116 165 84 116 165 84 116 165 84 116 165 84 116 165 84 116 165 84 116 165 84 116 165 84 116 165 84 116 165 84 116 165 84 116 165 84 116 165 84 116 165 84 116 165 84 116 165 84 116 165 84 116 165 84 116 165 84 116 165 84 116 165 84 116 165 84 116 123 200 40 123 200 40 123 200 40 123 200 40 123 200 40 123 200 40 123 200 40 123 200 40 123 200 40 123 200 40 123 200 40 123 200 40 123 200 40 123 200 40 123 200 40 123 200 40 123 200 40 123 200 40 123 200 40 123 200 40 123 200 40 123 200 40 123 200 40 123 200 40 123 200 40 123 200 40 123 200 40 123 200 40 123 200 40 123 200 40 123 200 40 123 200 40 123 200 40 123 200 40 123 200 40 123 200 40 123 200 40 123 200 40 123 200 40 123 200 40 123 200 40 123 200 40 123 200 40 123 200 40 123 200 40 123 200 40 123 200 40 123 200 40 123 200 40 123 200 40 123 200 40 123 200 40 123 200 40 123 200 40 123 200 40 123 200 40 123 200 40 123 200 40 123 200 40 123 200 40 123 200 40 123 200 40 123 200 40 123 200 40 123 200 40 123 200 40 123 200 40 123 200 40 123 200 40 123 200 40 123 200 40 123 200 40 123 200 40 123 200 40 123 200 40 123 200 40 123 200 40 123 200 40 123 200 40 123 200 40 123 200 40 123 200 40 123 200 40 123 200 40 123 200 40 123 200 40 123 200 40 123 200 40 123 200 40 123 200 40 123 200 40 123 200 40 123 200 40 123 200 40 123 200 40 123 200 40 123 200 40 123 200 40 123 200 40 123 200 40 123 200 40 123 200 40 123 200 40 123 200 40 123 200 40 123 200 40 123 200 40 123 200 40 123 200 40 123 200 40 123 200 40 123 200 40 123 200 40 123 200 40 123 200 40 123 200 40 123 200 40 123 200 40 123 200 40 123 200 40 123 200 40 123 200 40 123 200 40 123 200 40 123 200 40 123 200 40 123 200 40 123 200 40 123 200 40 123 200 40 123 200 40 123 200 40 123 200 40 123 200 40 123 200 40 123 200 40 123 200 40 123 200 40 123 200 40 123 200 40 123 200 40 123 200 40 123 200 40 123 200 40 123 200 40 123 200 40 123 200 40 123 200 40 123 200 40 123 200 40 123 200 40 123 200 40 123 200 40 123 200 40 123 200 40 123 200 40 123 200 40 123 200 40 123 200 40 123 200 40 123 200 40 123 200 40 123 200 40 123 200 40 123 200 40 123 200 40 123 200 40 123 200 40 123 200 40 123 200 40 123 200 40 123 200 40 123 200 40 123 200 40 123 200 40 123 200 40 123 200 40 123 200 40 123 200 40 123 200 40 123 200 40 123 200 40 123 200 40 123 200 40 123 200 40 123 200 40 123 200 40 123 200 40 123 200 40 123 200 40 123 200 40 123 200 40 123 200 40 123 200 40 123 200 40 123 200 40 123 200 40 123 200 40 123 200 40 123 200 40 94 60 175 94 60 175 94 60 175 94 60 175 94 60 175 94 60 175 94 60 175 94 60 175 94 60 175 94 60 175 94 60 175 94 60 175 94 60 175 94 60 175 94 60 175 94 60 175 94 60 175 94 60 175 94 60 175 94 60 175 94 60 175 94 60 175 94 60 175 94 60 175 94 60 175 94 60 175 94 60 175 94 60 175 94 60 175 94 60 175 94 60 175 94 60 175 94 60 175 94 60 175 94 60 175 94 60 175 94 60 175 94 60 175 94 60 175 94 60 175 94 60 175 94 60 175 94 60 175 94 60 175 94 60 175 94 60 175 94 60 175 94 60 175 94 60 175 94 60 175 94 60 175 94 60 175 94 60 175 94 60 175 94 60 175 94 60 175 94 60 175 94 60 175 94 60 175 94 60 175 94 60 175 94 60 175 94 60 175 94 60 175 94 60 175 94 60 175 94 60 175 94 60 175 94 60 175 94 60 175 94 60 175 94 60 175 94 60 175 94 60 175 94 60 175 94 60 175 94 60 175 94 60 175 94 60 175 94 60 175 94 60 175 94 60 175 94 60 175 94 60 175 94 60 175 94 60 175 94 60 175 94 60 175 94 60 175 94 60 175 94 60 175 94 60 175 94 60 175 94 60 175 94 60 175 94 60 175 94 60 175 94 60 175 94 60 175 94 60 175 94 60 175 94 60 175 94 60 175 94 60 175 94 60 175 94 60 175 94 60 175 94 60 175 94 60 175 94 60 175 94 60 175 94 60 175 94 60 175 94 60 175 94 60 175 94 60 175 94 60 175 94 60 175 94 60 175 94 60 175 94 60 175 94 60 175 94 60 175 94 60 175 94 60 175 94 60 175 94 60 175 94 60 175 94 60 175 94 60 175 94 60 175 94 60 175 94 60 175 94 60 175 94 60 175 94 60 175 94 60 175 94 60 175 94 60 175 94 60 175 94 60 175 94 60 175 94 60 175 94 60 175 94 60 175 94 60 175 94 60 175 94 60 175 94 60 175 94 60 175 94 60 175 94 60 175 94 60 175 94 60 175 94 60 175 94 60 175 94 60 175 94 60 175 94 60 175 94 60 175 94 60 175 94 60 175 94 60 175 94 60 175 94 60 175 94 60 175 94 60 175 94 60 175 94 60 175 94 60 175 94 60 175 94 60 175 94 60 175 94 60 175 94 60 175 94 60 175 94 60 175 94 60 175 94 60 175 94 60 175 94 60 175 94 60 175 94 60 175 94 60 175 94 60 175 94 60 175 94 60 175 94 60 175 94 60 175 94 60 175 94 60 175 94 60 175 94 60 175 94 60 175 94 60 175 94 60 175 94 60 175 94 60 175 94 60 175 94 60 175 123 200 40 123 200 40 123 200 40 123 200 40 123 200 40 123 200 40 123 200 40 123 200 40 123 200 40 123 200 40 123 200 40 123 200 40 123 200 40 123 200 40 123 200 40 123 200 40 123 200 40 123 200 40 123 200 40 123 200 40 123 200 40 123 200 40 123 200 40 123 200 40 123 200 40 123 200 40 123 200 40 123 200 40 123 200 40 123 200 40 123 200 40 123 200 40 123 200 40 123 200 40 123 200 40 123 200 40 123 200 40 123 200 40 123 200 40 123 200 40 123 200 40 123 200 40 123 200 40 123 200 40 123 200 40 123 200 40 123 200 40 123 200 40 123 200 40 123 200 40 123 200 40 123 200 40 123 200 40 123 200 40 123 200 40 123 200 40 123 200 40 123 200 40 123 200 40 123 200 40 123 200 40 123 200 40 123 200 40 123 200 40 123 200 40 123 200 40 123 200 40 123 200 40 123 200 40 123 200 40 123 200 40 123 200 40 123 200 40 123 200 40 123 200 40 123 200 40 123 200 40 123 200 40 123 200 40 123 200 40 123 200 40 123 200 40 123 200 40 123 200 40 123 200 40 123 200 40 123 200 40 123 200 40 123 200 40 123 200 40 123 200 40 123 200 40 123 200 40 123 200 40 123 200 40 123 200 40 123 200 40 123 200 40 123 200 40 123 200 40 123 200 40 123 200 40 123 200 40 123 200 40 123 200 40 123 200 40 123 200 40 123 200 40 123 200 40 123 200 40 123 200 40 123 200 40 123 200 40 123 200 40 123 200 40 123 200 40 123 200 40 123 200 40 123 200 40 123 200 40 123 200 40 123 200 40 123 200 40 123 200 40 123 200 40 123 200 40 123 200 40 123 200 40 123 200 40 123 200 40 123 200 40 123 200 40 123 200 40 123 200 40 123 200 40 123 200 40 123 200 40 123 200 40 123 200 40 123 200 40 123 200 40 123 200 40 123 200 40 123 200 40 123 200 40 123 200 40 123 200 40 123 200 40 123 200 40 123 200 40 123 200 40 123 200 40 123 200 40 123 200 40 123 200 40 123 200 40 123 200 40 123 200 40 123 200 40 123 200 40 123 200 40 123 200 40 123 200 40 123 200 40 123 200 40 123 200 40 123 200 40 123 200 40 123 200 40 123 200 40 123 200 40 123 200 40 123 200 40 123 200 40 123 200 40 123 200 40 123 200 40 123 200 40 123 200 40 123 200 40 123 200 40 123 200 40 123 200 40 123 200 40 123 200 40 123 200 40 123 200 40 123 200 40 123 200 40 123 200 40 123 200 40 123 200 40 123 200 40 123 200 40 123 200 40 123 200 40 123 200 40 123 200 40 123 200 40 123 200 40 9 228 176 9 228 176 9 228 176 9 228 176 9 228 176 9 228 176 9 228 176 9 228 176 9 228 176 9 228 176 9 228 176 9 228 176 9 228 176 9 228 176 9 228 176 9 228 176 9 228 176 9 228 176 9 228 176 9 228 176 9 228 176 9 228 176 9 228 176 9 228 176 9 228 176 9 228 176 9 228 176 9 228 176 9 228 176 9 228 176 9 228 176 9 228 176 9 228 176 9 228 176 9 228 176 9 228 176 9 228 176 9 228 176 9 228 176 9 228 176 9 228 176 9 228 176 9 228 176 9 228 176 9 228 176 9 228 176 9 228 176 9 228 176 9 228 176 9 228 176 9 228 176 9 228 176 9 228 176 9 228 176 9 228 176 9 228 176 9 228 176 9 228 176 9 228 176 9 228 176 9 228 176 9 228 176 9 228 176 9 228 176 9 228 176 9 228 176 9 228 176 9 228 176 9 228 176 9 228 176 9 228 176 9 228 176 9 228 176 9 228 176 9 228 176 9 228 176 9 228 176 9 228 176 9 228 176 9 228 176 9 228 176 9 228 176 9 228 176 9 228 176 9 228 176 9 228 176 9 228 176 9 228 176 9 228 176 9 228 176 9 228 176 9 228 176 9 228 176 9 228 176 9 228 176 9 228 176 9 228 176 9 228 176 9 228 176 9 228 176 9 228 176 9 228 176 9 228 176 9 228 176 9 228 176 9 228 176 9 228 176 9 228 176 9 228 176 9 228 176 9 228 176 9 228 176 9 228 176 9 228 176 9 228 176 9 228 176 9 228 176 9 228 176 9 228 176 9 228 176 9 228 176 9 228 176 9 228 176 9 228 176 9 228 176 9 228 176 9 228 176 9 228 176 9 228 176 9 228 176 9 228 176 9 228 176 9 228 176 9 228 176 9 228 176 9 228 176 9 228 176 9 228 176 9 228 176 9 228 176 9 228 176 9 228 176 9 228 176 9 228 176 9 228 176 9 228 176 9 228 176 9 228 176 9 228 176 9 228 176 9 228 176 9 228 176 9 228 176 9 228 176 9 228 176 9 228 176 9 228 176 9 228 176 9 228 176 9 228 176 9 228 176 9 228 176 9 228 176 9 228 176 9 228 176 9 228 176 9 228 176 9 228 176 9 228 176 9 228 176 9 228 176 9 228 176 9 228 176 9 228 176 9 228 176 9 228 176 9 228 176 9 228 176 9 228 176 9 228 176 9 228 176 9 228 176 9 228 176 9 228 176 9 228 176 9 228 176 9 228 176 9 228 176 9 228 176 9 228 176 9 228 176 9 228 176 9 228 176 9 228 176 9 228 176 9 228 176 9 228 176 9 228 176 9 228 176 9 228 176 123 200 40 123 200 40 123 200 40 123 200 40 123 200 40 123 200 40 123 200 40 123 200 40 123 200 40 123 200 40 123 200 40 123 200 40 123 200 40 123 200 40 123 200 40 123 200 40 123 200 40 123 200 40 123 200 40 123 200 40 123 200 40 123 200 40 123 200 40 123 200 40 123 200 40 123 200 40 123 200 40 123 200 40 123 200 40 123 200 40 123 200 40 123 200 40 123 200 40 123 200 40 123 200 40 123 200 40 123 200 40 123 200 40 123 200 40 123 200 40 123 200 40 123 200 40 123 200 40 123 200 40 123 200 40 123 200 40 123 200 40 123 200 40 123 200 40 123 200 40 123 200 40 123 200 40 123 200 40 123 200 40 123 200 40 123 200 40 123 200 40 123 200 40 123 200 40 123 200 40 123 200 40 123 200 40 123 200 40 123 200 40 123 200 40 123 200 40 123 200 40 123 200 40 123 200 40 123 200 40 123 200 40 123 200 40 123 200 40 123 200 40 123 200 40 123 200 40 123 200 40 123 200 40 123 200 40 123 200 40 123 200 40 123 200 40 123 200 40 123 200 40 123 200 40 123 200 40 123 200 40 123 200 40 123 200 40 123 200 40 123 200 40 123 200 40 123 200 40 123 200 40 123 200 40 123 200 40 123 200 40 123 200 40 123 200 40 123 200 40 123 200 40 123 200 40 123 200 40 123 200 40 123 200 40 123 200 40 123 200 40 123 200 40 123 200 40 123 200 40 123 200 40 123 200 40 123 200 40 123 200 40 123 200 40 123 200 40 123 200 40 123 200 40 123 200 40 123 200 40 123 200 40 123 200 40 123 200 40 123 200 40 123 200 40 123 200 40 123 200 40 123 200 40 123 200 40 123 200 40 123 200 40 123 200 40 123 200 40 123 200 40 123 200 40 123 200 40 123 200 40 123 200 40 123 200 40 123 200 40 123 200 40 123 200 40 123 200 40 123 200 40 123 200 40 123 200 40 123 200 40 123 200 40 123 200 40 123 200 40 123 200 40 123 200 40 123 200 40 123 200 40 123 200 40 123 200 40 123 200 40 123 200 40 123 200 40 123 200 40 123 200 40 123 200 40 123 200 40 123 200 40 123 200 40 123 200 40 123 200 40 123 200 40 123 200 40 123 200 40 123 200 40 123 200 40 123 200 40 123 200 40 123 200 40 123 200 40 123 200 40 123 200 40 123 200 40 123 200 40 123 200 40 123 200 40 123 200 40 123 200 40 123 200 40 123 200 40 123 200 40 123 200 40 123 200 40 123 200 40 123 200 40 123 200 40 123 200 40 123 200 40 123 200 40 123 200 40 123 200 40 123 200 40 123 200 40 123 200 40 145 196 115 145 196 115 145 196 115 145 196 115 145 196 115 145 196 115 145 196 115 145 196 115 145 196 115 145 196 115 145 196 115 145 196 115 145 196 115 145 196 115 145 196 115 145 196 115 145 196 115 145 196 115 145 196 115 145 196 115 145 196 115 145 196 115 145 196 115 145 196 115 145 196 115 145 196 115 145 196 115 145 196 115 145 196 115 145 196 115 145 196 115 145 196 115 145 196 115 145 196 115 145 196 115 145 196 115 145 196 115 145 196 115 145 196 115 145 196 115 145 196 115 145 196 115 145 196 115 145 196 115 145 196 115 145 196 115 145 196 115 145 196 115 145 196 115 145 196 115 145 196 115 145 196 115 145 196 115 145 196 115 145 196 115 145 196 115 145 196 115 145 196 115 145 196 115 145 196 115 145 196 115 145 196 115 145 196 115 145 196 115 145 196 115 145 196 115 145 196 115 145 196 115 145 196 115 145 196 115 145 196 115 145 196 115 145 196 115 145 196 115 145 196 115 145 196 115 145 196 115 145 196 115 145 196 115 145 196 115 145 196 115 145 196 115 145 196 115 145 196 115 145 196 115 145 196 115 145 196 115 145 196 115 145 196 115 145 196 115 145 196 115 145 196 115 145 196 115 145 196 115 145 196 115 145 196 115 145 196 115 145 196 115 145 196 115 145 196 115 145 196 115 145 196 115 145 196 115 145 196 115 145 196 115 145 196 115 145 196 115 145 196 115 145 196 115 145 196 115 145 196 115 145 196 115 145 196 115 145 196 115 145 196 115 145 196 115 145 196 115 145 196 115 145 196 115 145 196 115 145 196 115 145 196 115 145 196 115 145 196 115 145 196 115 145 196 115 145 196 115 145 196 115 145 196 115 145 196 115 145 196 115 145 196 115 145 196 115 145 196 115 145 196 115 145 196 115 145 196 115 145 196 115 145 196 115 145 196 115 145 196 115 145 196 115 145 196 115 145 196 115 145 196 115 145 196 115 145 196 115 145 196 115 145 196 115 145 196 115 145 196 115 145 196 115 145 196 115 145 196 115 145 196 115 145 196 115 145 196 115 145 196 115 145 196 115 145 196 115 145 196 115 145 196 115 145 196 115 145 196 115 145 196 115 145 196 115 145 196 115 145 196 115 145 196 115 145 196 115 145 196 115 145 196 115 145 196 115 145 196 115 145 196 115 145 196 115 145 196 115 145 196 115 145 196 115 145 196 115 145 196 115 145 196 115 145 196 115 145 196 115 145 196 115 145 196 115 145 196 115 145 196 115 145 196 115 145 196 115 145 196 115 145 196 115 145 196 115 145 196 115 145 196 115 145 196 115 145 196 115 145 196 115 145 196 115 145 196 115 123 200 40 123 200 40 123 200 40 123 200 40 123 200 40 123 200 40 123 200 40 123 200 40 123 200 40 123 200 40 123 200 40 123 200 40 123 200 40 123 200 40 123 200 40 123 200 40 123 200 40 123 200 40 123 200 40 123 200 40 123 200 40 123 200 40 123 200 40 123 200 40 123 200 40 123 200 40 123 200 40 123 200 40 123 200 40 123 200 40 123 200 40 123 200 40 123 200 40 123 200 40 123 200 40 123 200 40 123 200 40 123 200 40 123 200 40 123 200 40 123 200 40 123 200 40 123 200 40 123 200 40 123 200 40 123 200 40 123 200 40 123 200 40 123 200 40 123 200 40 123 200 40 123 200 40 123 200 40 123 200 40 123 200 40 123 200 40 123 200 40 123 200 40 123 200 40 123 200 40 123 200 40 123 200 40 123 200 40 123 200 40 123 200 40 123 200 40 123 200 40 123 200 40 123 200 40 123 200 40 123 200 40 123 200 40 123 200 40 123 200 40 123 200 40 123 200 40 123 200 40 123 200 40 123 200 40 123 200 40 123 200 40 123 200 40 123 200 40 123 200 40 123 200 40 123 200 40 123 200 40 123 200 40 123 200 40 123 200 40 123 200 40 123 200 40 123 200 40 123 200 40 123 200 40 123 200 40 123 200 40 123 200 40 123 200 40 123 200 40 123 200 40 123 200 40 123 200 40 123 200 40 123 200 40 123 200 40 123 200 40 123 200 40 123 200 40 123 200 40 123 200 40 123 200 40 123 200 40 123 200 40 123 200 40 123 200 40 123 200 40 123 200 40 123 200 40 123 200 40 123 200 40 123 200 40 123 200 40 123 200 40 123 200 40 123 200 40 123 200 40 123 200 40 123 200 40 123 200 40 123 200 40 123 200 40 123 200 40 123 200 40 123 200 40 123 200 40 123 200 40 123 200 40 123 200 40 123 200 40 123 200 40 123 200 40 123 200 40 123 200 40 123 200 40 123 200 40 123 200 40 123 200 40 123 200 40 123 200 40 123 200 40 123 200 40 123 200 40 123 200 40 123 200 40 123 200 40 123 200 40 123 200 40 123 200 40 123 200 40 123 200 40 123 200 40 123 200 40 123 200 40 123 200 40 123 200 40 123 200 40 123 200 40 123 200 40 123 200 40 123 200 40 123 200 40 123 200 40 123 200 40 123 200 40 123 200 40 123 200 40 123 200 40 123 200 40 123 200 40 123 200 40 123 200 40 123 200 40 123 200 40 123 200 40 123 200 40 123 200 40 123 200 40 123 200 40 123 200 40 123 200 40 123 200 40 123 200 40 123 200 40 123 200 40 123 200 40 123 200 40 123 200 40 123 200 40 123 200 40 110 33 191 110 33 191 110 33 191 110 33 191 110 33 191 110 33 191 110 33 191 110 33 191 110 33 191 110 33 191 110 33 191 110 33 191 110 33 191 110 33 191 110 33 191 110 33 191 110 33 191 110 33 191 110 33 191 110 33 191 110 33 191 110 33 191 110 33 191 110 33 191 110 33 191 110 33 191 110 33 191 110 33 191 110 33 191 110 33 191 110 33 191 110 33 191 110 33 191 110 33 191 110 33 191 110 33 191 110 33 191 110 33 191 110 33 191 110 33 191 110 33 191 110 33 191 110 33 191 110 33 191 110 33 191 110 33 191 110 33 191 110 33 191 110 33 191 110 33 191 110 33 191 110 33 191 110 33 191 110 33 191 110 33 191 110 33 191 110 33 191 110 33 191 110 33 191 110 33 191 110 33 191 110 33 191 110 33 191 110 33 191 110 33 191 110 33 191 110 33 191 110 33 191 110 33 191 110 33 191 110 33 191 110 33 191 110 33 191 110 33 191 110 33 191 110 33 191 110 33 191 110 33 191 110 33 191 110 33 191 110 33 191 110 33 191 110 33 191 110 33 191 110 33 191 110 33 191 110 33 191 110 33 191 110 33 191 110 33 191 110 33 191 110 33 191 110 33 191 110 33 191 110 33 191 110 33 191 110 33 191 110 33 191 110 33 191 110 33 191 110 33 191 110 33 191 110 33 191 110 33 191 110 33 191 110 33 191 110 33 191 110 33 191 110 33 191 110 33 191 110 33 191 110 33 191 110 33 191 110 33 191 110 33 191 110 33 191 110 33 191 110 33 191 110 33 191 110 33 191 110 33 191 110 33 191 110 33 191 110 33 191 110 33 191 110 33 191 110 33 191 110 33 191 110 33 191 110 33 191 110 33 191 110 33 191 110 33 191 110 33 191 110 33 191 110 33 191 110 33 191 110 33 191 110 33 191 110 33 191 110 33 191 110 33 191 110 33 191 110 33 191 110 33 191 110 33 191 110 33 191 110 33 191 110 33 191 110 33 191 110 33 191 110 33 191 110 33 191 110 33 191 110 33 191 110 33 191 110 33 191 110 33 191 110 33 191 110 33 191 110 33 191 110 33 191 110 33 191 110 33 191 110 33 191 110 33 191 110 33 191 110 33 191 110 33 191 110 33 191 110 33 191 110 33 191 110 33 191 110 33 191 110 33 191 110 33 191 110 33 191 110 33 191 110 33 191 110 33 191 110 33 191 110 33 191 110 33 191 110 33 191 110 33 191 110 33 191 110 33 191 110 33 191 110 33 191 110 33 191 110 33 191 110 33 191 110 33 191 110 33 191 110 33 191 110 33 191 110 33 191 110 33 191 110 33 191 110 33 191 123 200 40 123 200 40 123 200 40 123 200 40 123 200 40 123 200 40 123 200 40 123 200 40 123 200 40 123 200 40 123 200 40 123 200 40 123 200 40 123 200 40 123 200 40 123 200 40 123 200 40 123 200 40 123 200 40 123 200 40 123 200 40 123 200 40 123 200 40 123 200 40 123 200 40 123 200 40 123 200 40 123 200 40 123 200 40 123 200 40 123 200 40 123 200 40 123 200 40 123 200 40 123 200 40 123 200 40 123 200 40 123 200 40 123 200 40 123 200 40 123 200 40 123 200 40 123 200 40 123 200 40 123 200 40 123 200 40 123 200 40 123 200 40 123 200 40 123 200 40 123 200 40 123 200 40 123 200 40 123 200 40 123 200 40 123 200 40 123 200 40 123 200 40 123 200 40 123 200 40 123 200 40 123 200 40 123 200 40 123 200 40 123 200 40 123 200 40 123 200 40 123 200 40 123 200 40 123 200 40 123 200 40 123 200 40 123 200 40 123 200 40 123 200 40 123 200 40 123 200 40 123 200 40 123 200 40 123 200 40 123 200 40 123 200 40 123 200 40 123 200 40 123 200 40 123 200 40 123 200 40 123 200 40 123 200 40 123 200 40 123 200 40 123 200 40 123 200 40 123 200 40 123 200 40 123 200 40 123 200 40 123 200 40 123 200 40 123 200 40 123 200 40 123 200 40 123 200 40 123 200 40 123 200 40 123 200 40 123 200 40 123 200 40 123 200 40 123 200 40 123 200 40 123 200 40 123 200 40 123 200 40 123 200 40 123 200 40 123 200 40 123 200 40 123 200 40 123 200 40 123 200 40 123 200 40 123 200 40 123 200 40 123 200 40 123 200 40 123 200 40 123 200 40 123 200 40 123 200 40 123 200 40 123 200 40 123 200 40 123 200 40 123 200 40 123 200 40 123 200 40 123 200 40 123 200 40 123 200 40 123 200 40 123 200 40 123 200 40 123 200 40 123 200 40 123 200 40 123 200 40 123 200 40 123 200 40 123 200 40 123 200 40 123 200 40 123 200 40 123 200 40 123 200 40 123 200 40 123 200 40 123 200 40 123 200 40 123 200 40 123 200 40 123 200 40 123 200 40 123 200 40 123 200 40 123 200 40 123 200 40 123 200 40 123 200 40 123 200 40 123 200 40 123 200 40 123 200 40 123 200 40 123 200 40 123 200 40 123 200 40 123 200 40 123 200 40 123 200 40 123 200 40 123 200 40 123 200 40 123 200 40 123 200 40 123 200 40 123 200 40 123 200 40 123 200 40 123 200 40 123 200 40 123 200 40 123 200 40 123 200 40 123 200 40 123 200 40 123 200 40 123 200 40 123 200 40 123 200 40 14 244 254 14 244 254 14 244 254 14 244 254 14 244 254 14 244 254 14 244 254 14 244 254 14 244 254 14 244 254 14 244 254 14 244 254 14 244 254 14 244 254 14 244 254 14 244 254 14 244 254 14 244 254 14 244 254 14 244 254 14 244 254 14 244 254 14 244 254 14 244 254 14 244 254 14 244 254 14 244 254 14 244 254 14 244 254 14 244 254 14 244 254 14 244 254 14 244 254 14 244 254 14 244 254 14 244 254 14 244 254 14 244 254 14 244 254 14 244 254 14 244 254 14 244 254 14 244 254 14 244 254 14 244 254 14 244 254 14 244 254 14 244 254 14 244 254 14 244 254 14 244 254 14 244 254 14 244 254 14 244 254 14 244 254 14 244 254 14 244 254 14 244 254 14 244 254 14 244 254 14 244 254 14 244 254 14 244 254 14 244 254 14 244 254 14 244 254 14 244 254 14 244 254 14 244 254 14 244 254 14 244 254 14 244 254 14 244 254 14 244 254 14 244 254 14 244 254 14 244 254 14 244 254 14 244 254 14 244 254 14 244 254 14 244 254 14 244 254 14 244 254 14 244 254 14 244 254 14 244 254 14 244 254 14 244 254 14 244 254 14 244 254 14 244 254 14 244 254 14 244 254 14 244 254 14 244 254 14 244 254 14 244 254 14 244 254 14 244 254 14 244 254 14 244 254 14 244 254 14 244 254 14 244 254 14 244 254 14 244 254 14 244 254 14 244 254 14 244 254 14 244 254 14 244 254 14 244 254 14 244 254 14 244 254 14 244 254 14 244 254 14 244 254 14 244 254 14 244 254 14 244 254 14 244 254 14 244 254 14 244 254 14 244 254 14 244 254 14 244 254 14 244 254 14 244 254 14 244 254 14 244 254 14 244 254 14 244 254 14 244 254 14 244 254 14 244 254 14 244 254 14 244 254 14 244 254 14 244 254 14 244 254 14 244 254 14 244 254 14 244 254 14 244 254 14 244 254 14 244 254 14 244 254 14 244 254 14 244 254 14 244 254 14 244 254 14 244 254 14 244 254 14 244 254 14 244 254 14 244 254 14 244 254 14 244 254 14 244 254 14 244 254 14 244 254 14 244 254 14 244 254 14 244 254 14 244 254 14 244 254 14 244 254 14 244 254 14 244 254 14 244 254 14 244 254 14 244 254 14 244 254 14 244 254 14 244 254 14 244 254 14 244 254 14 244 254 14 244 254 14 244 254 14 244 254 14 244 254 14 244 254 14 244 254 14 244 254 14 244 254 14 244 254 14 244 254 14 244 254 14 244 254 14 244 254 14 244 254 14 244 254 14 244 254 14 244 254 14 244 254 14 244 254 14 244 254 14 244 254 123 200 40 123 200 40 123 200 40 123 200 40 123 200 40 123 200 40 123 200 40 123 200 40 123 200 40 123 200 40 123 200 40 123 200 40 123 200 40 123 200 40 123 200 40 123 200 40 123 200 40 123 200 40 123 200 40 123 200 40 123 200 40 123 200 40 123 200 40 123 200 40 123 200 40 123 200 40 123 200 40 123 200 40 123 200 40 123 200 40 123 200 40 123 200 40 123 200 40 123 200 40 123 200 40 123 200 40 123 200 40 123 200 40 123 200 40 123 200 40 123 200 40 123 200 40 123 200 40 123 200 40 123 200 40 123 200 40 123 200 40 123 200 40 123 200 40 123 200 40 123 200 40 123 200 40 123 200 40 123 200 40 123 200 40 123 200 40 123 200 40 123 200 40 123 200 40 123 200 40 123 200 40 123 200 40 123 200 40 123 200 40 123 200 40 123 200 40 123 200 40 123 200 40 123 200 40 123 200 40 123 200 40 123 200 40 123 200 40 123 200 40 123 200 40 123 200 40 123 200 40 123 200 40 123 200 40 123 200 40 123 200 40 123 200 40 123 200 40 123 200 40 123 200 40 123 200 40 123 200 40 123 200 40 123 200 40 123 200 40 123 200 40 123 200 40 123 200 40 123 200 40 123 200 40 123 200 40 123 200 40 123 200 40 123 200 40 123 200 40 123 200 40 123 200 40 123 200 40 123 200 40 123 200 40 123 200 40 123 200 40 123 200 40 123 200 40 123 200 40 123 200 40 123 200 40 123 200 40 123 200 40 123 200 40 123 200 40 123 200 40 123 200 40 123 200 40 123 200 40 123 200 40 123 200 40 123 200 40 123 200 40 123 200 40 123 200 40 123 200 40 123 200 40 123 200 40 123 200 40 123 200 40 123 200 40 123 200 40 123 200 40 123 200 40 123 200 40 123 200 40 123 200 40 123 200 40 123 200 40 123 200 40 123 200 40 123 200 40 123 200 40 123 200 40 123 200 40 123 200 40 123 200 40 123 200 40 123 200 40 123 200 40 123 200 40 123 200 40 123 200 40 123 200 40 123 200 40 123 200 40 123 200 40 123 200 40 123 200 40 123 200 40 123 200 40 123 200 40 123 200 40 123 200 40 123 200 40 123 200 40 123 200 40 123 200 40 123 200 40 123 200 40 123 200 40 123 200 40 123 200 40 123 200 40 123 200 40 123 200 40 123 200 40 123 200 40 123 200 40 123 200 40 123 200 40 123 200 40 123 200 40 123 200 40 123 200 40 123 200 40 123 200 40 123 200 40 123 200 40 123 200 40 123 200 40 123 200 40 123 200 40 123 200 40 123 200 40 123 200 40 123 200 40 123 200 40 123 200 40 12 160 196 12 160 196 12 160 196 12 160 196 12 160 196 12 160 196 12 160 196 12 160 196 12 160 196 12 160 196 12 160 196 12 160 196 12 160 196 12 160 196 12 160 196 12 160 196 12 160 196 12 160 196 12 160 196 12 160 196 12 160 196 12 160 196 12 160 196 12 160 196 12 160 196 12 160 196 12 160 196 12 160 196 12 160 196 12 160 196 12 160 196 12 160 196 12 160 196 12 160 196 12 160 196 12 160 196 12 160 196 12 160 196 12 160 196 12 160 196 12 160 196 12 160 196 12 160 196 12 160 196 12 160 196 12 160 196 12 160 196 12 160 196 12 160 196 12 160 196 12 160 196 12 160 196 12 160 196 12 160 196 12 160 196 12 160 196 12 160 196 12 160 196 12 160 196 12 160 196 12 160 196 12 160 196 12 160 196 12 160 196 12 160 196 12 160 196 12 160 196 12 160 196 12 160 196 12 160 196 12 160 196 12 160 196 12 160 196 12 160 196 12 160 196 12 160 196 12 160 196 12 160 196 12 160 196 12 160 196 12 160 196 12 160 196 12 160 196 12 160 196 12 160 196 12 160 196 12 160 196 12 160 196 12 160 196 12 160 196 12 160 196 12 160 196 12 160 196 12 160 196 12 160 196 12 160 196 12 160 196 12 160 196 12 160 196 12 160 196 12 160 196 12 160 196 12 160 196 12 160 196 12 160 196 12 160 196 12 160 196 12 160 196 12 160 196 12 160 196 12 160 196 12 160 196 12 160 196 12 160 196 12 160 196 12 160 196 12 160 196 12 160 196 12 160 196 12 160 196 12 160 196 12 160 196 12 160 196 12 160 196 12 160 196 12 160 196 12 160 196 12 160 196 12 160 196 12 160 196 12 160 196 12 160 196 12 160 196 12 160 196 12 160 196 12 160 196 12 160 196 12 160 196 12 160 196 12 160 196 12 160 196 12 160 196 12 160 196 12 160 196 12 160 196 12 160 196 12 160 196 12 160 196 12 160 196 12 160 196 12 160 196 12 160 196 12 160 196 12 160 196 12 160 196 12 160 196 12 160 196 12 160 196 12 160 196 12 160 196 12 160 196 12 160 196 12 160 196 12 160 196 12 160 196 12 160 196 12 160 196 12 160 196 12 160 196 12 160 196 12 160 196 12 160 196 12 160 196 12 160 196 12 160 196 12 160 196 12 160 196 12 160 196 12 160 196 12 160 196 12 160 196 12 160 196 12 160 196 12 160 196 12 160 196 12 160 196 12 160 196 12 160 196 12 160 196 12 160 196 12 160 196 12 160 196 12 160 196 12 160 196 12 160 196 12 160 196 12 160 196 12 160 196 12 160 196 12 160 196 123 200 40 123 200 40 123 200 40 123 200 40 123 200 40 123 200 40 123 200 40 123 200 40 123 200 40 123 200 40 123 200 40 123 200 40 123 200 40 123 200 40 123 200 40 123 200 40 123 200 40 123 200 40 123 200 40 123 200 40 123 200 40 123 200 40 123 200 40 123 200 40 123 200 40 123 200 40 123 200 40 123 200 40 123 200 40 123 200 40 123 200 40 123 200 40 123 200 40 123 200 40 123 200 40 123 200 40 123 200 40 123 200 40 123 200 40 123 200 40 123 200 40 123 200 40 123 200 40 123 200 40 123 200 40 123 200 40 123 200 40 123 200 40 123 200 40 123 200 40 123 200 40 123 200 40 123 200 40 123 200 40 123 200 40 123 200 40 123 200 40 123 200 40 123 200 40 123 200 40 123 200 40 123 200 40 123 200 40 123 200 40 123 200 40 123 200 40 123 200 40 123 200 40 123 200 40 123 200 40 123 200 40 123 200 40 123 200 40 123 200 40 123 200 40 123 200 40 123 200 40 123 200 40 123 200 40 123 200 40 123 200 40 123 200 40 123 200 40 123 200 40 123 200 40 123 200 40 123 200 40 123 200 40 123 200 40 123 200 40 123 200 40 123 200 40 123 200 40 123 200 40 123 200 40 123 200 40 123 200 40 123 200 40 123 200 40 123 200 40 123 200 40 123 200 40 123 200 40 123 200 40 123 200 40 123 200 40 123 200 40 123 200 40 123 200 40 123 200 40 123 200 40 123 200 40 123 200 40 123 200 40 123 200 40 123 200 40 123 200 40 123 200 40 123 200 40 123 200 40 123 200 40 123 200 40 123 200 40 123 200 40 123 200 40 123 200 40 123 200 40 123 200 40 123 200 40 123 200 40 123 200 40 123 200 40 123 200 40 123 200 40 123 200 40 123 200 40 123 200 40 123 200 40 123 200 40 123 200 40 123 200 40 123 200 40 123 200 40 123 200 40 123 200 40 123 200 40 123 200 40 123 200 40 123 200 40 123 200 40 123 200 40 123 200 40 123 200 40 123 200 40 123 200 40 123 200 40 123 200 40 123 200 40 123 200 40 123 200 40 123 200 40 123 200 40 123 200 40 123 200 40 123 200 40 123 200 40 123 200 40 123 200 40 123 200 40 123 200 40 123 200 40 123 200 40 123 200 40 123 200 40 123 200 40 123 200 40 123 200 40 123 200 40 123 200 40 123 200 40 123 200 40 123 200 40 123 200 40 123 200 40 123 200 40 123 200 40 123 200 40 123 200 40 123 200 40 123 200 40 123 200 40 123 200 40 123 200 40 123 200 40 123 200 40 123 200 40 123 200 40 123 200 40 123 200 40 123 200 40 70 109 32 70 109 32 70 109 32 70 109 32 70 109 32 70 109 32 70 109 32 70 109 32 70 109 32 70 109 32 70 109 32 70 109 32 70 109 32 70 109 32 70 109 32 70 109 32 70 109 32 70 109 32 70 109 32 70 109 32 70 109 32 70 109 32 70 109 32 70 109 32 70 109 32 70 109 32 70 109 32 70 109 32 70 109 32 70 109 32 70 109 32 70 109 32 70 109 32 70 109 32 70 109 32 70 109 32 70 109 32 70 109 32 70 109 32 70 109 32 70 109 32 70 109 32 70 109 32 70 109 32 70 109 32 70 109 32 70 109 32 70 109 32 70 109 32 70 109 32 70 109 32 70 109 32 70 109 32 70 109 32 70 109 32 70 109 32 70 109 32 70 109 32 70 109 32 70 109 32 70 109 32 70 109 32 70 109 32 70 109 32 70 109 32 70 109 32 70 109 32 70 109 32 70 109 32 70 109 32 70 109 32 70 109 32 70 109 32 70 109 32 70 109 32 70 109 32 70 109 32 70 109 32 70 109 32 70 109 32 70 109 32 70 109 32 70 109 32 70 109 32 70 109 32 70 109 32 70 109 32 70 109 32 70 109 32 70 109 32 70 109 32 70 109 32 70 109 32 70 109 32 70 109 32 70 109 32 70 109 32 70 109 32 70 109 32 70 109 32 70 109 32 70 109 32 70 109 32 70 109 32 70 109 32 70 109 32 70 109 32 70 109 32 70 109 32 70 109 32 70 109 32 70 109 32 70 109 32 70 109 32 70 109 32 70 109 32 70 109 32 70 109 32 70 109 32 70 109 32 70 109 32 70 109 32 70 109 32 70 109 32 70 109 32 70 109 32 70 109 32 70 109 32 70 109 32 70 109 32 70 109 32 70 109 32 70 109 32 70 109 32 70 109 32 70 109 32 70 109 32 70 109 32 70 109 32 70 109 32 70 109 32 70 109 32 70 109 32 70 109 32 70 109 32 70 109 32 70 109 32 70 109 32 70 109 32 70 109 32 70 109 32 70 109 32 70 109 32 70 109 32 70 109 32 70 109 32 70 109 32 70 109 32 70 109 32 70 109 32 70 109 32 70 109 32 70 109 32 70 109 32 70 109 32 70 109 32 70 109 32 70 109 32 70 109 32 70 109 32 70 109 32 70 109 32 70 109 32 70 109 32 70 109 32 70 109 32 70 109 32 70 109 32 70 109 32 70 109 32 70 109 32 70 109 32 70 109 32 70 109 32 70 109 32 70 109 32 70 109 32 70 109 32 70 109 32 70 109 32 70 109 32 70 109 32 70 109 32 70 109 32 70 109 32 70 109 32 70 109 32 70 109 32 70 109 32 70 109 32 123 200 40 123 200 40 123 200 40 123 200 40 123 200 40 123 200 40 123 200 40 123 200 40 123 200 40 123 200 40 123 200 40 123 200 40 123 200 40 123 200 40 123 200 40 123 200 40 123 200 40 123 200 40 123 200 40 123 200 40 123 200 40 123 200 40 123 200 40 123 200 40 123 200 40 123 200 40 123 200 40 123 200 40 123 200 40 123 200 40 123 200 40 123 200 40 123 200 40 123 200 40 123 200 40 123 200 40 123 200 40 123 200 40 123 200 40 123 200 40 123 200 40 123 200 40 123 200 40 123 200 40 123 200 40 123 200 40 123 200 40 123 200 40 123 200 40 123 200 40 123 200 40 123 200 40 123 200 40 123 200 40 123 200 40 123 200 40 123 200 40 123 200 40 123 200 40 123 200 40 123 200 40 123 200 40 123 200 40 123 200 40 123 200 40 123 200 40 123 200 40 123 200 40 123 200 40 123 200 40 123 200 40 123 200 40 123 200 40 123 200 40 123 200 40 123 200 40 123 200 40 123 200 40 123 200 40 123 200 40 123 200 40 123 200 40 123 200 40 123 200 40 123 200 40 123 200 40 123 200 40 123 200 40 123 200 40 123 200 40 123 200 40 123 200 40 123 200 40 123 200 40 123 200 40 123 200 40 123 200 40 123 200 40 123 200 40 123 200 40 123 200 40 123 200 40 123 200 40 123 200 40 123 200 40 123 200 40 123 200 40 123 200 40 123 200 40 123 200 40 123 200 40 123 200 40 123 200 40 123 200 40 123 200 40 123 200 40 123 200 40 123 200 40 123 200 40 123 200 40 123 200 40 123 200 40 123 200 40 123 200 40 123 200 40 123 200 40 123 200 40 123 200 40 123 200 40 123 200 40 123 200 40 123 200 40 123 200 40 123 200 40 123 200 40 123 200 40 123 200 40 123 200 40 123 200 40 123 200 40 123 200 40 123 200 40 123 200 40 123 200 40 123 200 40 123 200 40 123 200 40 123 200 40 123 200 40 123 200 40 123 200 40 123 200 40 123 200 40 123 200 40 123 200 40 123 200 40 123 200 40 123 200 40 123 200 40 123 200 40 123 200 40 123 200 40 123 200 40 123 200 40 123 200 40 123 200 40 123 200 40 123 200 40 123 200 40 123 200 40 123 200 40 123 200 40 123 200 40 123 200 40 123 200 40 123 200 40 123 200 40 123 200 40 123 200 40 123 200 40 123 200 40 123 200 40 123 200 40 123 200 40 123 200 40 123 200 40 123 200 40 123 200 40 123 200 40 123 200 40 123 200 40 123 200 40 123 200 40 123 200 40 123 200 40 123 200 40 123 200 40 123 200 40 123 200 40 123 200 40 174 238 3 174 238 3 174 238 3 174 238 3 174 238 3 174 238 3 174 238 3 174 238 3 174 238 3 174 238 3 174 238 3 174 238 3 174 238 3 174 238 3 174 238 3 174 238 3 174 238 3 174 238 3 174 238 3 174 238 3 174 238 3 174 238 3 174 238 3 174 238 3 174 238 3 174 238 3 174 238 3 174 238 3 174 238 3 174 238 3 174 238 3 174 238 3 174 238 3 174 238 3 174 238 3 174 238 3 174 238 3 174 238 3 174 238 3 174 238 3 174 238 3 174 238 3 174 238 3 174 238 3 174 238 3 174 238 3 174 238 3 174 238 3 174 238 3 174 238 3 174 238 3 174 238 3 174 238 3 174 238 3 174 238 3 174 238 3 174 238 3 174 238 3 174 238 3 174 238 3 174 238 3 174 238 3 174 238 3 174 238 3 174 238 3 174 238 3 174 238 3 174 238 3 174 238 3 174 238 3 174 238 3 174 238 3 174 238 3 174 238 3 174 238 3 174 238 3 174 238 3 174 238 3 174 238 3 174 238 3 174 238 3 174 238 3 174 238 3 174 238 3 174 238 3 174 238 3 174 238 3 174 238 3 174 238 3 174 238 3 174 238 3 174 238 3 174 238 3 174 238 3 174 238 3 174 238 3 174 238 3 174 238 3 174 238 3 174 238 3 174 238 3 174 238 3 174 238 3 174 238 3 174 238 3 174 238 3 174 238 3 174 238 3 174 238 3 174 238 3 174 238 3 174 238 3 174 238 3 174 238 3 174 238 3 174 238 3 174 238 3 174 238 3 174 238 3 174 238 3 174 238 3 174 238 3 174 238 3 174 238 3 174 238 3 174 238 3 174 238 3 174 238 3 174 238 3 174 238 3 174 238 3 174 238 3 174 238 3 174 238 3 174 238 3 174 238 3 174 238 3 174 238 3 174 238 3 174 238 3 174 238 3 174 238 3 174 238 3 174 238 3 174 238 3 174 238 3 174 238 3 174 238 3 174 238 3 174 238 3 174 238 3 174 238 3 174 238 3 174 238 3 174 238 3 174 238 3 174 238 3 174 238 3 174 238 3 174 238 3 174 238 3 174 238 3 174 238 3 174 238 3 174 238 3 174 238 3 174 238 3 174 238 3 174 238 3 174 238 3 174 238 3 174 238 3 174 238 3 174 238 3 174 238 3 174 238 3 174 238 3 174 238 3 174 238 3 174 238 3 174 238 3 174 238 3 174 238 3 174 238 3 174 238 3 174 238 3 174 238 3 174 238 3 174 238 3 174 238 3 174 238 3 174 238 3 174 238 3 174 238 3 174 238 3 174 238 3 174 238 3 174 238 3 174 238 3 174 238 3 123 200 40 123 200 40 123 200 40 123 200 40 123 200 40 123 200 40 123 200 40 123 200 40 123 200 40 123 200 40 123 200 40 123 200 40 123 200 40 123 200 40 123 200 40 123 200 40 123 200 40 123 200 40 123 200 40 123 200 40 123 200 40 123 200 40 123 200 40 123 200 40 123 200 40 123 200 40 123 200 40 123 200 40 123 200 40 123 200 40 123 200 40 123 200 40 123 200 40 123 200 40 123 200 40 123 200 40 123 200 40 123 200 40 123 200 40 123 200 40 123 200 40 123 200 40 123 200 40 123 200 40 123 200 40 123 200 40 123 200 40 123 200 40 123 200 40 123 200 40 123 200 40 123 200 40 123 200 40 123 200 40 123 200 40 123 200 40 123 200 40 123 200 40 123 200 40 123 200 40 123 200 40 123 200 40 123 200 40 123 200 40 123 200 40 123 200 40 123 200 40 123 200 40 123 200 40 123 200 40 123 200 40 123 200 40 123 200 40 123 200 40 123 200 40 123 200 40 123 200 40 123 200 40 123 200 40 123 200 40 123 200 40 123 200 40 123 200 40 123 200 40 123 200 40 123 200 40 123 200 40 123 200 40 123 200 40 123 200 40 123 200 40 123 200 40 123 200 40 123 200 40 123 200 40 123 200 40 123 200 40 123 200 40 123 200 40 123 200 40 123 200 40 123 200 40 123 200 40 123 200 40 123 200 40 123 200 40 123 200 40 123 200 40 123 200 40 123 200 40 123 200 40 123 200 40 123 200 40 123 200 40 123 200 40 123 200 40 123 200 40 123 200 40 123 200 40 123 200 40 123 200 40 123 200 40 123 200 40 123 200 40 123 200 40 123 200 40 123 200 40 123 200 40 123 200 40 123 200 40 123 200 40 123 200 40 123 200 40 123 200 40 123 200 40 123 200 40 123 200 40 123 200 40 123 200 40 123 200 40 123 200 40 123 200 40 123 200 40 123 200 40 123 200 40 123 200 40 123 200 40 123 200 40 123 200 40 123 200 40 123 200 40 123 200 40 123 200 40 123 200 40 123 200 40 123 200 40 123 200 40 123 200 40 123 200 40 123 200 40 123 200 40 123 200 40 123 200 40 123 200 40 123 200 40 123 200 40 123 200 40 123 200 40 123 200 40 123 200 40 123 200 40 123 200 40 123 200 40 123 200 40 123 200 40 123 200 40 123 200 40 123 200 40 123 200 40 123 200 40 123 200 40 123 200 40 123 200 40 123 200 40 123 200 40 123 200 40 123 200 40 123 200 40 123 200 40 123 200 40 123 200 40 123 200 40 123 200 40 123 200 40 123 200 40 123 200 40 123 200 40 123 200 40 123 200 40 123 200 40 111 101 70 111 101 70 111 101 70 111 101 70 111 101 70 111 101 70 111 101 70 111 101 70 111 101 70 111 101 70 111 101 70 111 101 70 111 101 70 111 101 70 111 101 70 111 101 70 111 101 70 111 101 70 111 101 70 111 101 70 111 101 70 111 101 70 111 101 70 111 101 70 111 101 70 111 101 70 111 101 70 111 101 70 111 101 70 111 101 70 111 101 70 111 101 70 111 101 70 111 101 70 111 101 70 111 101 70 111 101 70 111 101 70 111 101 70 111 101 70 111 101 70 111 101 70 111 101 70 111 101 70 111 101 70 111 101 70 111 101 70 111 101 70 111 101 70 111 101 70 111 101 70 111 101 70 111 101 70 111 101 70 111 101 70 111 101 70 111 101 70 111 101 70 111 101 70 111 101 70 111 101 70 111 101 70 111 101 70 111 101 70 111 101 70 111 101 70 111 101 70 111 101 70 111 101 70 111 101 70 111 101 70 111 101 70 111 101 70 111 101 70 111 101 70 111 101 70 111 101 70 111 101 70 111 101 70 111 101 70 111 101 70 111 101 70 111 101 70 111 101 70 111 101 70 111 101 70 111 101 70 111 101 70 111 101 70 111 101 70 111 101 70 111 101 70 111 101 70 111 101 70 111 101 70 111 101 70 111 101 70 111 101 70 111 101 70 111 101 70 111 101 70 111 101 70 111 101 70 111 101 70 111 101 70 111 101 70 111 101 70 111 101 70 111 101 70 111 101 70 111 101 70 111 101 70 111 101 70 111 101 70 111 101 70 111 101 70 111 101 70 111 101 70 111 101 70 111 101 70 111 101 70 111 101 70 111 101 70 111 101 70 111 101 70 111 101 70 111 101 70 111 101 70 111 101 70 111 101 70 111 101 70 111 101 70 111 101 70 111 101 70 111 101 70 111 101 70 111 101 70 111 101 70 111 101 70 111 101 70 111 101 70 111 101 70 111 101 70 111 101 70 111 101 70 111 101 70 111 101 70 111 101 70 111 101 70 111 101 70 111 101 70 111 101 70 111 101 70 111 101 70 111 101 70 111 101 70 111 101 70 111 101 70 111 101 70 111 101 70 111 101 70 111 101 70 111 101 70 111 101 70 111 101 70 111 101 70 111 101 70 111 101 70 111 101 70 111 101 70 111 101 70 111 101 70 111 101 70 111 101 70 111 101 70 111 101 70 111 101 70 111 101 70 111 101 70 111 101 70 111 101 70 111 101 70 111 101 70 111 101 70 111 101 70 111 101 70 111 101 70 111 101 70 111 101 70 111 101 70 111 101 70 111 101 70 111 101 70 111 101 70 111 101 70 111 101 70 111 101 70 111 101 70 111 101 70 111 101 70 123 200 40 123 200 40 123 200 40 123 200 40 123 200 40 123 200 40 123 200 40 123 200 40 123 200 40 123 200 40 123 200 40 123 200 40 123 200 40 123 200 40 123 200 40 123 200 40 123 200 40 123 200 40 123 200 40 123 200 40 123 200 40 123 200 40 123 200 40 123 200 40 123 200 40 123 200 40 123 200 40 123 200 40 123 200 40 123 200 40 123 200 40 123 200 40 123 200 40 123 200 40 123 200 40 123 200 40 123 200 40 123 200 40 123 200 40 123 200 40 123 200 40 123 200 40 123 200 40 123 200 40 123 200 40 123 200 40 123 200 40 123 200 40 123 200 40 123 200 40 123 200 40 123 200 40 123 200 40 123 200 40 123 200 40 123 200 40 123 200 40 123 200 40 123 200 40 123 200 40 123 200 40 123 200 40 123 200 40 123 200 40 123 200 40 123 200 40 123 200 40 123 200 40 123 200 40 123 200 40 123 200 40 123 200 40 123 200 40 123 200 40 123 200 40 123 200 40 123 200 40 123 200 40 123 200 40 123 200 40 123 200 40 123 200 40 123 200 40 123 200 40 123 200 40 123 200 40 123 200 40 123 200 40 123 200 40 123 200 40 123 200 40 123 200 40 123 200 40 123 200 40 123 200 40 123 200 40 123 200 40 123 200 40 123 200 40 123 200 40 123 200 40 123 200 40 123 200 40 123 200 40 123 200 40 123 200 40 123 200 40 123 200 40 123 200 40 123 200 40 123 200 40 123 200 40 123 200 40 123 200 40 123 200 40 123 200 40 123 200 40 123 200 40 123 200 40 123 200 40 123 200 40 123 200 40 123 200 40 123 200 40 123 200 40 123 200 40 123 200 40 123 200 40 123 200 40 123 200 40 123 200 40 123 200 40 123 200 40 123 200 40 123 200 40 123 200 40 123 200 40 123 200 40 123 200 40 123 200 40 123 200 40 123 200 40 123 200 40 123 200 40 123 200 40 123 200 40 123 200 40 123 200 40 123 200 40 123 200 40 123 200 40 123 200 40 123 200 40 123 200 40 123 200 40 123 200 40 123 200 40 123 200 40 123 200 40 123 200 40 123 200 40 123 200 40 123 200 40 123 200 40 123 200 40 123 200 40 123 200 40 123 200 40 123 200 40 123 200 40 123 200 40 123 200 40 123 200 40 123 200 40 123 200 40 123 200 40 123 200 40 123 200 40 123 200 40 123 200 40 123 200 40 123 200 40 123 200 40 123 200 40 123 200 40 123 200 40 123 200 40 123 200 40 123 200 40 123 200 40 123 200 40 123 200 40 123 200 40 123 200 40 123 200 40 123 200 40 123 200 40 123 200 40 123 200 40 123 200 40 195 217 235 195 217 235 195 217 235 195 217 235 195 217 235 195 217 235 195 217 235 195 217 235 195 217 235 195 217 235 195 217 235 195 217 235 195 217 235 195 217 235 195 217 235 195 217 235 195 217 235 195 217 235 195 217 235 195 217 235 195 217 235 195 217 235 195 217 235 195 217 235 195 217 235 195 217 235 195 217 235 195 217 235 195 217 235 195 217 235 195 217 235 195 217 235 195 217 235 195 217 235 195 217 235 195 217 235 195 217 235 195 217 235 195 217 235 195 217 235 195 217 235 195 217 235 195 217 235 195 217 235 195 217 235 195 217 235 195 217 235 195 217 235 195 217 235 195 217 235 195 217 235 195 217 235 195 217 235 195 217 235 195 217 235 195 217 235 195 217 235 195 217 235 195 217 235 195 217 235 195 217 235 195 217 235 195 217 235 195 217 235 195 217 235 195 217 235 195 217 235 195 217 235 195 217 235 195 217 235 195 217 235 195 217 235 195 217 235 195 217 235 195 217 235 195 217 235 195 217 235 195 217 235 195 217 235 195 217 235 195 217 235 195 217 235 195 217 235 195 217 235 195 217 235 195 217 235 195 217 235 195 217 235 195 217 235 195 217 235 195 217 235 195 217 235 195 217 235 195 217 235 195 217 235 195 217 235 195 217 235 195 217 235 195 217 235 195 217 235 195 217 235 195 217 235 195 217 235 195 217 235 195 217 235 195 217 235 195 217 235 195 217 235 195 217 235 195 217 235 195 217 235 195 217 235 195 217 235 195 217 235 195 217 235 195 217 235 195 217 235 195 217 235 195 217 235 195 217 235 195 217 235 195 217 235 195 217 235 195 217 235 195 217 235 195 217 235 195 217 235 195 217 235 195 217 235 195 217 235 195 217 235 195 217 235 195 217 235 195 217 235 195 217 235 195 217 235 195 217 235 195 217 235 195 217 235 195 217 235 195 217 235 195 217 235 195 217 235 195 217 235 195 217 235 195 217 235 195 217 235 195 217 235 195 217 235 195 217 235 195 217 235 195 217 235 195 217 235 195 217 235 195 217 235 195 217 235 195 217 235 195 217 235 195 217 235 195 217 235 195 217 235 195 217 235 195 217 235 195 217 235 195 217 235 195 217 235 195 217 235 195 217 235 195 217 235 195 217 235 195 217 235 195 217 235 195 217 235 195 217 235 195 217 235 195 217 235 195 217 235 195 217 235 195 217 235 195 217 235 195 217 235 195 217 235 195 217 235 195 217 235 195 217 235 195 217 235 195 217 235 195 217 235 195 217 235 195 217 235 195 217 235 195 217 235 195 217 235 195 217 235 195 217 235 195 217 235 195 217 235 195 217 235 195 217 235 195 217 235 123 200 40 123 200 40 123 200 40 123 200 40 123 200 40 123 200 40 123 200 40 123 200 40 123 200 40 123 200 40 123 200 40 123 200 40 123 200 40 123 200 40 123 200 40 123 200 40 123 200 40 123 200 40 123 200 40 123 200 40 123 200 40 123 200 40 123 200 40 123 200 40 123 200 40 123 200 40 123 200 40 123 200 40 123 200 40 123 200 40 123 200 40 123 200 40 123 200 40 123 200 40 123 200 40 123 200 40 123 200 40 123 200 40 123 200 40 123 200 40 123 200 40 123 200 40 123 200 40 123 200 40 123 200 40 123 200 40 123 200 40 123 200 40 123 200 40 123 200 40 123 200 40 123 200 40 123 200 40 123 200 40 123 200 40 123 200 40 123 200 40 123 200 40 123 200 40 123 200 40 123 200 40 123 200 40 123 200 40 123 200 40 123 200 40 123 200 40 123 200 40 123 200 40 123 200 40 123 200 40 123 200 40 123 200 40 123 200 40 123 200 40 123 200 40 123 200 40 123 200 40 123 200 40 123 200 40 123 200 40 123 200 40 123 200 40 123 200 40 123 200 40 123 200 40 123 200 40 123 200 40 123 200 40 123 200 40 123 200 40 123 200 40 123 200 40 123 200 40 123 200 40 123 200 40 123 200 40 123 200 40 123 200 40 123 200 40 123 200 40 123 200 40 123 200 40 123 200 40 123 200 40 123 200 40 123 200 40 123 200 40 123 200 40 123 200 40 123 200 40 123 200 40 123 200 40 123 200 40 123 200 40 123 200 40 123 200 40 123 200 40 123 200 40 123 200 40 123 200 40 123 200 40 123 200 40 123 200 40 123 200 40 123 200 40 123 200 40 123 200 40 123 200 40 123 200 40 123 200 40 123 200 40 123 200 40 123 200 40 123 200 40 123 200 40 123 200 40 123 200 40 123 200 40 123 200 40 123 200 40 123 200 40 123 200 40 123 200 40 123 200 40 123 200 40 123 200 40 123 200 40 123 200 40 123 200 40 123 200 40 123 200 40 123 200 40 123 200 40 123 200 40 123 200 40 123 200 40 123 200 40 123 200 40 123 200 40 123 200 40 123 200 40 123 200 40 123 200 40 123 200 40 123 200 40 123 200 40 123 200 40 123 200 40 123 200 40 123 200 40 123 200 40 123 200 40 123 200 40 123 200 40 123 200 40 123 200 40 123 200 40 123 200 40 123 200 40 123 200 40 123 200 40 123 200 40 123 200 40 123 200 40 123 200 40 123 200 40 123 200 40 123 200 40 123 200 40 123 200 40 123 200 40 123 200 40 123 200 40 123 200 40 123 200 40 123 200 40 123 200 40 123 200 40 123 200 40 123 200 40 0 136 144 0 136 144 0 136 144 0 136 144 0 136 144 0 136 144 0 136 144 0 136 144 0 136 144 0 136 144 0 136 144 0 136 144 0 136 144 0 136 144 0 136 144 0 136 144 0 136 144 0 136 144 0 136 144 0 136 144 0 136 144 0 136 144 0 136 144 0 136 144 0 136 144 0 136 144 0 136 144 0 136 144 0 136 144 0 136 144 0 136 144 0 136 144 0 136 144 0 136 144 0 136 144 0 136 144 0 136 144 0 136 144 0 136 144 0 136 144 0 136 144 0 136 144 0 136 144 0 136 144 0 136 144 0 136 144 0 136 144 0 136 144 0 136 144 0 136 144 0 136 144 0 136 144 0 136 144 0 136 144 0 136 144 0 136 144 0 136 144 0 136 144 0 136 144 0 136 144 0 136 144 0 136 144 0 136 144 0 136 144 0 136 144 0 136 144 0 136 144 0 136 144 0 136 144 0 136 144 0 136 144 0 136 144 0 136 144 0 136 144 0 136 144 0 136 144 0 136 144 0 136 144 0 136 144 0 136 144 0 136 144 0 136 144 0 136 144 0 136 144 0 136 144 0 136 144 0 136 144 0 136 144 0 136 144 0 136 144 0 136 144 0 136 144 0 136 144 0 136 144 0 136 144 0 136 144 0 136 144 0 136 144 0 136 144 0 136 144 0 136 144 0 136 144 0 136 144 0 136 144 0 136 144 0 136 144 0 136 144 0 136 144 0 136 144 0 136 144 0 136 144 0 136 144 0 136 144 0 136 144 0 136 144 0 136 144 0 136 144 0 136 144 0 136 144 0 136 144 0 136 144 0 136 144 0 136 144 0 136 144 0 136 144 0 136 144 0 136 144 0 136 144 0 136 144 0 136 144 0 136 144 0 136 144 0 136 144 0 136 144 0 136 144 0 136 144 0 136 144 0 136 144 0 136 144 0 136 144 0 136 144 0 136 144 0 136 144 0 136 144 0 136 144 0 136 144 0 136 144 0 136 144 0 136 144 0 136 144 0 136 144 0 136 144 0 136 144 0 136 144 0 136 144 0 136 144 0 136 144 0 136 144 0 136 144 0 136 144 0 136 144 0 136 144 0 136 144 0 136 144 0 136 144 0 136 144 0 136 144 0 136 144 0 136 144 0 136 144 0 136 144 0 136 144 0 136 144 0 136 144 0 136 144 0 136 144 0 136 144 0 136 144 0 136 144 0 136 144 0 136 144 0 136 144 0 136 144 0 136 144 0 136 144 0 136 144 0 136 144 0 136 144 0 136 144 0 136 144 0 136 144 0 136 144 0 136 144 0 136 144 0 136 144 0 136 144 0 136 144 0 136 144 0 136 144 0 136 144 123 200 40 123 200 40 123 200 40 123 200 40 123 200 40 123 200 40 123 200 40 123 200 40 123 200 40 123 200 40 123 200 40 123 200 40 123 200 40 123 200 40 123 200 40 123 200 40 123 200 40 123 200 40 123 200 40 123 200 40 123 200 40 123 200 40 123 200 40 123 200 40 123 200 40 123 200 40 123 200 40 123 200 40 123 200 40 123 200 40 123 200 40 123 200 40 123 200 40 123 200 40 123 200 40 123 200 40 123 200 40 123 200 40 123 200 40 123 200 40 123 200 40 123 200 40 123 200 40 123 200 40 123 200 40 123 200 40 123 200 40 123 200 40 123 200 40 123 200 40 123 200 40 123 200 40 123 200 40 123 200 40 123 200 40 123 200 40 123 200 40 123 200 40 123 200 40 123 200 40 123 200 40 123 200 40 123 200 40 123 200 40 123 200 40 123 200 40 123 200 40 123 200 40 123 200 40 123 200 40 123 200 40 123 200 40 123 200 40 123 200 40 123 200 40 123 200 40 123 200 40 123 200 40 123 200 40 123 200 40 123 200 40 123 200 40 123 200 40 123 200 40 123 200 40 123 200 40 123 200 40 123 200 40 123 200 40 123 200 40 123 200 40 123 200 40 123 200 40 123 200 40 123 200 40 123 200 40 123 200 40 123 200 40 123 200 40 123 200 40 123 200 40 123 200 40 123 200 40 123 200 40 123 200 40 123 200 40 123 200 40 123 200 40 123 200 40 123 200 40 123 200 40 123 200 40 123 200 40 123 200 40 123 200 40 123 200 40 123 200 40 123 200 40 123 200 40 123 200 40 123 200 40 123 200 40 123 200 40 123 200 40 123 200 40 123 200 40 123 200 40 123 200 40 123 200 40 123 200 40 123 200 40 123 200 40 123 200 40 123 200 40 123 200 40 123 200 40 123 200 40 123 200 40 123 200 40 123 200 40 123 200 40 123 200 40 123 200 40 123 200 40 123 200 40 123 200 40 123 200 40 123 200 40 123 200 40 123 200 40 123 200 40 123 200 40 123 200 40 123 200 40 123 200 40 123 200 40 123 200 40 123 200 40 123 200 40 123 200 40 123 200 40 123 200 40 123 200 40 123 200 40 123 200 40 123 200 40 123 200 40 123 200 40 123 200 40 123 200 40 123 200 40 123 200 40 123 200 40 123 200 40 123 200 40 123 200 40 123 200 40 123 200 40 123 200 40 123 200 40 123 200 40 123 200 40 123 200 40 123 200 40 123 200 40 123 200 40 123 200 40 123 200 40 123 200 40 123 200 40 123 200 40 123 200 40 123 200 40 123 200 40 123 200 40 123 200 40 123 200 40 123 200 40 123 200 40 123 200 40 228 57 238 228 57 238 228 57 238 228 57 238 228 57 238 228 57 238 228 57 238 228 57 238 228 57 238 228 57 238 228 57 238 228 57 238 228 57 238 228 57 238 228 57 238 228 57 238 228 57 238 228 57 238 228 57 238 228 57 238 228 57 238 228 57 238 228 57 238 228 57 238 228 57 238 228 57 238 228 57 238 228 57 238 228 57 238 228 57 238 228 57 238 228 57 238 228 57 238 228 57 238 228 57 238 228 57 238 228 57 238 228 57 238 228 57 238 228 57 238 228 57 238 228 57 238 228 57 238 228 57 238 228 57 238 228 57 238 228 57 238 228 57 238 228 57 238 228 57 238 228 57 238 228 57 238 228 57 238 228 57 238 228 57 238 228 57 238 228 57 238 228 57 238 228 57 238 228 57 238 228 57 238 228 57 238 228 57 238 228 57 238 228 57 238 228 57 238 228 57 238 228 57 238 228 57 238 228 57 238 228 57 238 228 57 238 228 57 238 228 57 238 228 57 238 228 57 238 228 57 238 228 57 238 228 57 238 228 57 238 228 57 238 228 57 238 228 57 238 228 57 238 228 57 238 228 57 238 228 57 238 228 57 238 228 57 238 228 57 238 228 57 238 228 57 238 228 57 238 228 57 238 228 57 238 228 57 238 228 57 238 228 57 238 228 57 238 228 57 238 228 57 238 228 57 238 228 57 238 228 57 238 228 57 238 228 57 238 228 57 238 228 57 238 228 57 238 228 57 238 228 57 238 228 57 238 228 57 238 228 57 238 228 57 238 228 57 238 228 57 238 228 57 238 228 57 238 228 57 238 228 57 238 228 57 238 228 57 238 228 57 238 228 57 238 228 57 238 228 57 238 228 57 238 228 57 238 228 57 238 228 57 238 228 57 238 228 57 238 228 57 238 228 57 238 228 57 238 228 57 238 228 57 238 228 57 238 228 57 238 228 57 238 228 57 238 228 57 238 228 57 238 228 57 238 228 57 238 228 57 238 228 57 238 228 57 238 228 57 238 228 57 238 228 57 238 228 57 238 228 57 238 228 57 238 228 57 238 228 57 238 228 57 238 228 57 238 228 57 238 228 57 238 228 57 238 228 57 238 228 57 238 228 57 238 228 57 238 228 57 238 228 57 238 228 57 238 228 57 238 228 57 238 228 57 238 228 57 238 228 57 238 228 57 238 228 57 238 228 57 238 228 57 238 228 57 238 228 57 238 228 57 238 228 57 238 228 57 238 228 57 238 228 57 238 228 57 238 228 57 238 228 57 238 228 57 238 228 57 238 228 57 238 228 57 238 228 57 238 228 57 238 228 57 238 228 57 238 228 57 238 228 57 238 228 57 238 228 57 238 123 200 40 123 200 40 123 200 40 123 200 40 123 200 40 123 200 40 123 200 40 123 200 40 123 200 40 123 200 40 123 200 40 123 200 40 123 200 40 123 200 40 123 200 40 123 200 40 123 200 40 123 200 40 123 200 40 123 200 40 123 200 40 123 200 40 123 200 40 123 200 40 123 200 40 123 200 40 123 200 40 123 200 40 123 200 40 123 200 40 123 200 40 123 200 40 123 200 40 123 200 40 123 200 40 123 200 40 123 200 40 123 200 40 123 200 40 123 200 40 123 200 40 123 200 40 123 200 40 123 200 40 123 200 40 123 200 40 123 200 40 123 200 40 123 200 40 123 200 40 123 200 40 123 200 40 123 200 40 123 200 40 123 200 40 123 200 40 123 200 40 123 200 40 123 200 40 123 200 40 123 200 40 123 200 40 123 200 40 123 200 40 123 200 40 123 200 40 123 200 40 123 200 40 123 200 40 123 200 40 123 200 40 123 200 40 123 200 40 123 200 40 123 200 40 123 200 40 123 200 40 123 200 40 123 200 40 123 200 40 123 200 40 123 200 40 123 200 40 123 200 40 123 200 40 123 200 40 123 200 40 123 200 40 123 200 40 123 200 40 123 200 40 123 200 40 123 200 40 123 200 40 123 200 40 123 200 40 123 200 40 123 200 40 123 200 40 123 200 40 123 200 40 123 200 40 123 200 40 123 200 40 123 200 40 123 200 40 123 200 40 123 200 40 123 200 40 123 200 40 123 200 40 123 200 40 123 200 40 123 200 40 123 200 40 123 200 40 123 200 40 123 200 40 123 200 40 123 200 40 123 200 40 123 200 40 123 200 40 123 200 40 123 200 40 123 200 40 123 200 40 123 200 40 123 200 40 123 200 40 123 200 40 123 200 40 123 200 40 123 200 40 123 200 40 123 200 40 123 200 40 123 200 40 123 200 40 123 200 40 123 200 40 123 200 40 123 200 40 123 200 40 123 200 40 123 200 40 123 200 40 123 200 40 123 200 40 123 200 40 123 200 40 123 200 40 123 200 40 123 200 40 123 200 40 123 200 40 123 200 40 123 200 40 123 200 40 123 200 40 123 200 40 123 200 40 123 200 40 123 200 40 123 200 40 123 200 40 123 200 40 123 200 40 123 200 40 123 200 40 123 200 40 123 200 40 123 200 40 123 200 40 123 200 40 123 200 40 123 200 40 123 200 40 123 200 40 123 200 40 123 200 40 123 200 40 123 200 40 123 200 40 123 200 40 123 200 40 123 200 40 123 200 40 123 200 40 123 200 40 123 200 40 123 200 40 123 200 40 123 200 40 123 200 40 123 200 40 123 200 40 123 200 40 123 200 40 123 200 40 168 172 247 168 172 247 168 172 247 168 172 247 168 172 247 168 172 247 168 172 247 168 172 247 168 172 247 168 172 247 168 172 247 168 172 247 168 172 247 168 172 247 168 172 247 168 172 247 168 172 247 168 172 247 168 172 247 168 172 247 168 172 247 168 172 247 168 172 247 168 172 247 168 172 247 168 172 247 168 172 247 168 172 247 168 172 247 168 172 247 168 172 247 168 172 247 168 172 247 168 172 247 168 172 247 168 172 247 168 172 247 168 172 247 168 172 247 168 172 247 168 172 247 168 172 247 168 172 247 168 172 247 168 172 247 168 172 247 168 172 247 168 172 247 168 172 247 168 172 247 168 172 247 168 172 247 168 172 247 168 172 247 168 172 247 168 172 247 168 172 247 168 172 247 168 172 247 168 172 247 168 172 247 168 172 247 168 172 247 168 172 247 168 172 247 168 172 247 168 172 247 168 172 247 168 172 247 168 172 247 168 172 247 168 172 247 168 172 247 168 172 247 168 172 247 168 172 247 168 172 247 168 172 247 168 172 247 168 172 247 168 172 247 168 172 247 168 172 247 168 172 247 168 172 247 168 172 247 168 172 247 168 172 247 168 172 247 168 172 247 168 172 247 168 172 247 168 172 247 168 172 247 168 172 247 168 172 247 168 172 247 168 172 247 168 172 247 168 172 247 168 172 247 168 172 247 168 172 247 168 172 247 168 172 247 168 172 247 168 172 247 168 172 247 168 172 247 168 172 247 168 172 247 168 172 247 168 172 247 168 172 247 168 172 247 168 172 247 168 172 247 168 172 247 168 172 247 168 172 247 168 172 247 168 172 247 168 172 247 168 172 247 168 172 247 168 172 247 168 172 247 168 172 247 168 172 247 168 172 247 168 172 247 168 172 247 168 172 247 168 172 247 168 172 247 168 172 247 168 172 247 168 172 247 168 172 247 168 172 247 168 172 247 168 172 247 168 172 247 168 172 247 168 172 247 168 172 247 168 172 247 168 172 247 168 172 247 168 172 247 168 172 247 168 172 247 168 172 247 168 172 247 168 172 247 168 172 247 168 172 247 168 172 247 168 172 247 168 172 247 168 172 247 168 172 247 168 172 247 168 172 247 168 172 247 168 172 247 168 172 247 168 172 247 168 172 247 168 172 247 168 172 247 168 172 247 168 172 247 168 172 247 168 172 247 168 172 247 168 172 247 168 172 247 168 172 247 168 172 247 168 172 247 168 172 247 168 172 247 168 172 247 168 172 247 168 172 247 168 172 247 168 172 247 168 172 247 168 172 247 168 172 247 168 172 247 168 172 247 168 172 247 168 172 247 168 172 247 168 172 247 168 172 247 168 172 247 168 172 247 123 200 40 123 200 40 123 200 40 123 200 40 123 200 40 123 200 40 123 200 40 123 200 40 123 200 40 123 200 40 123 200 40 123 200 40 123 200 40 123 200 40 123 200 40 123 200 40 123 200 40 123 200 40 123 200 40 123 200 40 123 200 40 123 200 40 123 200 40 123 200 40 123 200 40 123 200 40 123 200 40 123 200 40 123 200 40 123 200 40 123 200 40 123 200 40 123 200 40 123 200 40 123 200 40 123 200 40 123 200 40 123 200 40 123 200 40 123 200 40 123 200 40 123 200 40 123 200 40 123 200 40 123 200 40 123 200 40 123 200 40 123 200 40 123 200 40 123 200 40 123 200 40 123 200 40 123 200 40 123 200 40 123 200 40 123 200 40 123 200 40 123 200 40 123 200 40 123 200 40 123 200 40 123 200 40 123 200 40 123 200 40 123 200 40 123 200 40 123 200 40 123 200 40 123 200 40 123 200 40 123 200 40 123 200 40 123 200 40 123 200 40 123 200 40 123 200 40 123 200 40 123 200 40 123 200 40 123 200 40 123 200 40 123 200 40 123 200 40 123 200 40 123 200 40 123 200 40 123 200 40 123 200 40 123 200 40 123 200 40 123 200 40 123 200 40 123 200 40 123 200 40 123 200 40 123 200 40 123 200 40 123 200 40 123 200 40 123 200 40 123 200 40 123 200 40 123 200 40 123 200 40 123 200 40 123 200 40 123 200 40 123 200 40 123 200 40 123 200 40 123 200 40 123 200 40 123 200 40 123 200 40 123 200 40 123 200 40 123 200 40 123 200 40 123 200 40 123 200 40 123 200 40 123 200 40 123 200 40 123 200 40 123 200 40 123 200 40 123 200 40 123 200 40 123 200 40 123 200 40 123 200 40 123 200 40 123 200 40 123 200 40 123 200 40 123 200 40 123 200 40 123 200 40 123 200 40 123 200 40 123 200 40 123 200 40 123 200 40 123 200 40 123 200 40 123 200 40 123 200 40 123 200 40 123 200 40 123 200 40 123 200 40 123 200 40 123 200 40 123 200 40 123 200 40 123 200 40 123 200 40 123 200 40 123 200 40 123 200 40 123 200 40 123 200 40 123 200 40 123 200 40 123 200 40 123 200 40 123 200 40 123 200 40 123 200 40 123 200 40 123 200 40 123 200 40 123 200 40 123 200 40 123 200 40 123 200 40 123 200 40 123 200 40 123 200 40 123 200 40 123 200 40 123 200 40 123 200 40 123 200 40 123 200 40 123 200 40 123 200 40 123 200 40 123 200 40 123 200 40 123 200 40 123 200 40 123 200 40 123 200 40 123 200 40 123 200 40 123 200 40 123 200 40 123 200 40 123 200 40 202 107 137 202 107 137 202 107 137 202 107 137 202 107 137 202 107 137 202 107 137 202 107 137 202 107 137 202 107 137 202 107 137 202 107 137 202 107 137 202 107 137 202 107 137 202 107 137 202 107 137 202 107 137 202 107 137 202 107 137 202 107 137 202 107 137 202 107 137 202 107 137 202 107 137 202 107 137 202 107 137 202 107 137 202 107 137 202 107 137 202 107 137 202 107 137 202 107 137 202 107 137 202 107 137 202 107 137 202 107 137 202 107 137 202 107 137 202 107 137 202 107 137 202 107 137 202 107 137 202 107 137 202 107 137 202 107 137 202 107 137 202 107 137 202 107 137 202 107 137 202 107 137 202 107 137 202 107 137 202 107 137 202 107 137 202 107 137 202 107 137 202 107 137 202 107 137 202 107 137 202 107 137 202 107 137 202 107 137 202 107 137 202 107 137 202 107 137 202 107 137 202 107 137 202 107 137 202 107 137 202 107 137 202 107 137 202 107 137 202 107 137 202 107 137 202 107 137 202 107 137 202 107 137 202 107 137 202 107 137 202 107 137 202 107 137 202 107 137 202 107 137 202 107 137 202 107 137 202 107 137 202 107 137 202 107 137 202 107 137 202 107 137 202 107 137 202 107 137 202 107 137 202 107 137 202 107 137 202 107 137 202 107 137 202 107 137 202 107 137 202 107 137 202 107 137 202 107 137 202 107 137 202 107 137 202 107 137 202 107 137 202 107 137 202 107 137 202 107 137 202 107 137 202 107 137 202 107 137 202 107 137 202 107 137 202 107 137 202 107 137 202 107 137 202 107 137 202 107 137 202 107 137 202 107 137 202 107 137 202 107 137 202 107 137 202 107 137 202 107 137 202 107 137 202 107 137 202 107 137 202 107 137 202 107 137 202 107 137 202 107 137 202 107 137 202 107 137 202 107 137 202 107 137 202 107 137 202 107 137 202 107 137 202 107 137 202 107 137 202 107 137 202 107 137 202 107 137 202 107 137 202 107 137 202 107 137 202 107 137 202 107 137 202 107 137 202 107 137 202 107 137 202 107 137 202 107 137 202 107 137 202 107 137 202 107 137 202 107 137 202 107 137 202 107 137 202 107 137 202 107 137 202 107 137 202 107 137 202 107 137 202 107 137 202 107 137 202 107 137 202 107 137 202 107 137 202 107 137 202 107 137 202 107 137 202 107 137 202 107 137 202 107 137 202 107 137 202 107 137 202 107 137 202 107 137 202 107 137 202 107 137 202 107 137 202 107 137 202 107 137 202 107 137 202 107 137 202 107 137 202 107 137 202 107 137 202 107 137 202 107 137 202 107 137 202 107 137 202 107 137 202 107 137 202 107 137 202 107 137 123 200 40 123 200 40 123 200 40 123 200 40 123 200 40 123 200 40 123 200 40 123 200 40 123 200 40 123 200 40 123 200 40 123 200 40 123 200 40 123 200 40 123 200 40 123 200 40 123 200 40 123 200 40 123 200 40 123 200 40 123 200 40 123 200 40 123 200 40 123 200 40 123 200 40 123 200 40 123 200 40 123 200 40 123 200 40 123 200 40 123 200 40 123 200 40 123 200 40 123 200 40 123 200 40 123 200 40 123 200 40 123 200 40 123 200 40 123 200 40 123 200 40 123 200 40 123 200 40 123 200 40 123 200 40 123 200 40 123 200 40 123 200 40 123 200 40 123 200 40 123 200 40 123 200 40 123 200 40 123 200 40 123 200 40 123 200 40 123 200 40 123 200 40 123 200 40 123 200 40 123 200 40 123 200 40 123 200 40 123 200 40 123 200 40 123 200 40 123 200 40 123 200 40 123 200 40 123 200 40 123 200 40 123 200 40 123 200 40 123 200 40 123 200 40 123 200 40 123 200 40 123 200 40 123 200 40 123 200 40 123 200 40 123 200 40 123 200 40 123 200 40 123 200 40 123 200 40 123 200 40 123 200 40 123 200 40 123 200 40 123 200 40 123 200 40 123 200 40 123 200 40 123 200 40 123 200 40 123 200 40 123 200 40 123 200 40 123 200 40 123 200 40 123 200 40 123 200 40 123 200 40 123 200 40 123 200 40 123 200 40 123 200 40 123 200 40 123 200 40 123 200 40 123 200 40 123 200 40 123 200 40 123 200 40 123 200 40 123 200 40 123 200 40 123 200 40 123 200 40 123 200 40 123 200 40 123 200 40 123 200 40 123 200 40 123 200 40 123 200 40 123 200 40 123 200 40 123 200 40 123 200 40 123 200 40 123 200 40 123 200 40 123 200 40 123 200 40 123 200 40 123 200 40 123 200 40 123 200 40 123 200 40 123 200 40 123 200 40 123 200 40 123 200 40 123 200 40 123 200 40 123 200 40 123 200 40 123 200 40 123 200 40 123 200 40 123 200 40 123 200 40 123 200 40 123 200 40 123 200 40 123 200 40 123 200 40 123 200 40 123 200 40 123 200 40 123 200 40 123 200 40 123 200 40 123 200 40 123 200 40 123 200 40 123 200 40 123 200 40 123 200 40 123 200 40 123 200 40 123 200 40 123 200 40 123 200 40 123 200 40 123 200 40 123 200 40 123 200 40 123 200 40 123 200 40 123 200 40 123 200 40 123 200 40 123 200 40 123 200 40 123 200 40 123 200 40 123 200 40 123 200 40 123 200 40 123 200 40 123 200 40 123 200 40 123 200 40 123 200 40 123 200 40 123 200 40 123 200 40 190 106 247 190 106 247 190 106 247 190 106 247 190 106 247 190 106 247 190 106 247 190 106 247 190 106 247 190 106 247 190 106 247 190 106 247 190 106 247 190 106 247 190 106 247 190 106 247 190 106 247 190 106 247 190 106 247 190 106 247 190 106 247 190 106 247 190 106 247 190 106 247 190 106 247 190 106 247 190 106 247 190 106 247 190 106 247 190 106 247 190 106 247 190 106 247 190 106 247 190 106 247 190 106 247 190 106 247 190 106 247 190 106 247 190 106 247 190 106 247 190 106 247 190 106 247 190 106 247 190 106 247 190 106 247 190 106 247 190 106 247 190 106 247 190 106 247 190 106 247 190 106 247 190 106 247 190 106 247 190 106 247 190 106 247 190 106 247 190 106 247 190 106 247 190 106 247 190 106 247 190 106 247 190 106 247 190 106 247 190 106 247 190 106 247 190 106 247 190 106 247 190 106 247 190 106 247 190 106 247 190 106 247 190 106 247 190 106 247 190 106 247 190 106 247 190 106 247 190 106 247 190 106 247 190 106 247 190 106 247 190 106 247 190 106 247 190 106 247 190 106 247 190 106 247 190 106 247 190 106 247 190 106 247 190 106 247 190 106 247 190 106 247 190 106 247 190 106 247 190 106 247 190 106 247 190 106 247 190 106 247 190 106 247 190 106 247 190 106 247 190 106 247 190 106 247 190 106 247 190 106 247 190 106 247 190 106 247 190 106 247 190 106 247 190 106 247 190 106 247 190 106 247 190 106 247 190 106 247 190 106 247 190 106 247 190 106 247 190 106 247 190 106 247 190 106 247 190 106 247 190 106 247 190 106 247 190 106 247 190 106 247 190 106 247 190 106 247 190 106 247 190 106 247 190 106 247 190 106 247 190 106 247 190 106 247 190 106 247 190 106 247 190 106 247 190 106 247 190 106 247 190 106 247 190 106 247 190 106 247 190 106 247 190 106 247 190 106 247 190 106 247 190 106 247 190 106 247 190 106 247 190 106 247 190 106 247 190 106 247 190 106 247 190 106 247 190 106 247 190 106 247 190 106 247 190 106 247 190 106 247 190 106 247 190 106 247 190 106 247 190 106 247 190 106 247 190 106 247 190 106 247 190 106 247 190 106 247 190 106 247 190 106 247 190 106 247 190 106 247 190 106 247 190 106 247 190 106 247 190 106 247 190 106 247 190 106 247 190 106 247 190 106 247 190 106 247 190 106 247 190 106 247 190 106 247 190 106 247 190 106 247 190 106 247 190 106 247 190 106 247 190 106 247 190 106 247 190 106 247 190 106 247 190 106 247 190 106 247 190 106 247 190 106 247 190 106 247 190 106 247 190 106 247 190 106 247 190 106 247 123 200 40 123 200 40 123 200 40 123 200 40 123 200 40 123 200 40 123 200 40 123 200 40 123 200 40 123 200 40 123 200 40 123 200 40 123 200 40 123 200 40 123 200 40 123 200 40 123 200 40 123 200 40 123 200 40 123 200 40 123 200 40 123 200 40 123 200 40 123 200 40 123 200 40 123 200 40 123 200 40 123 200 40 123 200 40 123 200 40 123 200 40 123 200 40 123 200 40 123 200 40 123 200 40 123 200 40 123 200 40 123 200 40 123 200 40 123 200 40 123 200 40 123 200 40 123 200 40 123 200 40 123 200 40 123 200 40 123 200 40 123 200 40 123 200 40 123 200 40 123 200 40 123 200 40 123 200 40 123 200 40 123 200 40 123 200 40 123 200 40 123 200 40 123 200 40 123 200 40 123 200 40 123 200 40 123 200 40 123 200 40 123 200 40 123 200 40 123 200 40 123 200 40 123 200 40 123 200 40 123 200 40 123 200 40 123 200 40 123 200 40 123 200 40 123 200 40 123 200 40 123 200 40 123 200 40 123 200 40 123 200 40 123 200 40 123 200 40 123 200 40 123 200 40 123 200 40 123 200 40 123 200 40 123 200 40 123 200 40 123 200 40 123 200 40 123 200 40 123 200 40 123 200 40 123 200 40 123 200 40 123 200 40 123 200 40 123 200 40 123 200 40 123 200 40 123 200 40 123 200 40 123 200 40 123 200 40 123 200 40 123 200 40 123 200 40 123 200 40 123 200 40 123 200 40 123 200 40 123 200 40 123 200 40 123 200 40 123 200 40 123 200 40 123 200 40 123 200 40 123 200 40 123 200 40 123 200 40 123 200 40 123 200 40 123 200 40 123 200 40 123 200 40 123 200 40 123 200 40 123 200 40 123 200 40 123 200 40 123 200 40 123 200 40 123 200 40 123 200 40 123 200 40 123 200 40 123 200 40 123 200 40 123 200 40 123 200 40 123 200 40 123 200 40 123 200 40 123 200 40 123 200 40 123 200 40 123 200 40 123 200 40 123 200 40 123 200 40 123 200 40 123 200 40 123 200 40 123 200 40 123 200 40 123 200 40 123 200 40 123 200 40 123 200 40 123 200 40 123 200 40 123 200 40 123 200 40 123 200 40 123 200 40 123 200 40 123 200 40 123 200 40 123 200 40 123 200 40 123 200 40 123 200 40 123 200 40 123 200 40 123 200 40 123 200 40 123 200 40 123 200 40 123 200 40 123 200 40 123 200 40 123 200 40 123 200 40 123 200 40 123 200 40 123 200 40 123 200 40 123 200 40 123 200 40 123 200 40 123 200 40 123 200 40 123 200 40 123 200 40 123 200 40 123 200 40 123 200 40 94 46 5 94 46 5 94 46 5 94 46 5 94 46 5 94 46 5 94 46 5 94 46 5 94 46 5 94 46 5 94 46 5 94 46 5 94 46 5 94 46 5 94 46 5 94 46 5 94 46 5 94 46 5 94 46 5 94 46 5 94 46 5 94 46 5 94 46 5 94 46 5 94 46 5 94 46 5 94 46 5 94 46 5 94 46 5 94 46 5 94 46 5 94 46 5 94 46 5 94 46 5 94 46 5 94 46 5 94 46 5 94 46 5 94 46 5 94 46 5 94 46 5 94 46 5 94 46 5 94 46 5 94 46 5 94 46 5 94 46 5 94 46 5 94 46 5 94 46 5 94 46 5 94 46 5 94 46 5 94 46 5 94 46 5 94 46 5 94 46 5 94 46 5 94 46 5 94 46 5 94 46 5 94 46 5 94 46 5 94 46 5 94 46 5 94 46 5 94 46 5 94 46 5 94 46 5 94 46 5 94 46 5 94 46 5 94 46 5 94 46 5 94 46 5 94 46 5 94 46 5 94 46 5 94 46 5 94 46 5 94 46 5 94 46 5 94 46 5 94 46 5 94 46 5 94 46 5 94 46 5 94 46 5 94 46 5 94 46 5 94 46 5 94 46 5 94 46 5 94 46 5 94 46 5 94 46 5 94 46 5 94 46 5 94 46 5 94 46 5 94 46 5 94 46 5 94 46 5 94 46 5 94 46 5 94 46 5 94 46 5 94 46 5 94 46 5 94 46 5 94 46 5 94 46 5 94 46 5 94 46 5 94 46 5 94 46 5 94 46 5 94 46 5 94 46 5 94 46 5 94 46 5 94 46 5 94 46 5 94 46 5 94 46 5 94 46 5 94 46 5 94 46 5 94 46 5 94 46 5 94 46 5 94 46 5 94 46 5 94 46 5 94 46 5 94 46 5 94 46 5 94 46 5 94 46 5 94 46 5 94 46 5 94 46 5 94 46 5 94 46 5 94 46 5 94 46 5 94 46 5 94 46 5 94 46 5 94 46 5 94 46 5 94 46 5 94 46 5 94 46 5 94 46 5 94 46 5 94 46 5 94 46 5 94 46 5 94 46 5 94 46 5 94 46 5 94 46 5 94 46 5 94 46 5 94 46 5 94 46 5 94 46 5 94 46 5 94 46 5 94 46 5 94 46 5 94 46 5 94 46 5 94 46 5 94 46 5 94 46 5 94 46 5 94 46 5 94 46 5 94 46 5 94 46 5 94 46 5 94 46 5 94 46 5 94 46 5 94 46 5 94 46 5 94 46 5 94 46 5 94 46 5 94 46 5 94 46 5 94 46 5 94 46 5 94 46 5 94 46 5 94 46 5 94 46 5 94 46 5 123 200 40 123 200 40 123 200 40 123 200 40 123 200 40 123 200 40 123 200 40 123 200 40 123 200 40 123 200 40 123 200 40 123 200 40 123 200 40 123 200 40 123 200 40 123 200 40 123 200 40 123 200 40 123 200 40 123 200 40 123 200 40 123 200 40 123 200 40 123 200 40 123 200 40 123 200 40 123 200 40 123 200 40 123 200 40 123 200 40 123 200 40 123 200 40 123 200 40 123 200 40 123 200 40 123 200 40 123 200 40 123 200 40 123 200 40 123 200 40 123 200 40 123 200 40 123 200 40 123 200 40 123 200 40 123 200 40 123 200 40 123 200 40 123 200 40 123 200 40 123 200 40 123 200 40 123 200 40 123 200 40 123 200 40 123 200 40 123 200 40 123 200 40 123 200 40 123 200 40 123 200 40 123 200 40 123 200 40 123 200 40 123 200 40 123 200 40 123 200 40 123 200 40 123 200 40 123 200 40 123 200 40 123 200 40 123 200 40 123 200 40 123 200 40 123 200 40 123 200 40 123 200 40 123 200 40 123 200 40 123 200 40 123 200 40 123 200 40 123 200 40 123 200 40 123 200 40 123 200 40 123 200 40 123 200 40 123 200 40 123 200 40 123 200 40 123 200 40 123 200 40 123 200 40 123 200 40 123 200 40 123 200 40 123 200 40 123 200 40 123 200 40 123 200 40 123 200 40 123 200 40 123 200 40 123 200 40 123 200 40 123 200 40 123 200 40 123 200 40 123 200 40 123 200 40 123 200 40 123 200 40 123 200 40 123 200 40 123 200 40 123 200 40 123 200 40 123 200 40 123 200 40 123 200 40 123 200 40 123 200 40 123 200 40 123 200 40 123 200 40 123 200 40 123 200 40 123 200 40 123 200 40 123 200 40 123 200 40 123 200 40 123 200 40 123 200 40 123 200 40 123 200 40 123 200 40 123 200 40 123 200 40 123 200 40 123 200 40 123 200 40 123 200 40 123 200 40 123 200 40 123 200 40 123 200 40 123 200 40 123 200 40 123 200 40 123 200 40 123 200 40 123 200 40 123 200 40 123 200 40 123 200 40 123 200 40 123 200 40 123 200 40 123 200 40 123 200 40 123 200 40 123 200 40 123 200 40 123 200 40 123 200 40 123 200 40 123 200 40 123 200 40 123 200 40 123 200 40 123 200 40 123 200 40 123 200 40 123 200 40 123 200 40 123 200 40 123 200 40 123 200 40 123 200 40 123 200 40 123 200 40 123 200 40 123 200 40 123 200 40 123 200 40 123 200 40 123 200 40 123 200 40 123 200 40 123 200 40 123 200 40 123 200 40 123 200 40 123 200 40 123 200 40 123 200 40 123 200 40 204 78 17 204 78 17 204 78 17 204 78 17 204 78 17 204 78 17 204 78 17 204 78 17 204 78 17 204 78 17 204 78 17 204 78 17 204 78 17 204 78 17 204 78 17 204 78 17 204 78 17 204 78 17 204 78 17 204 78 17 204 78 17 204 78 17 204 78 17 204 78 17 204 78 17 204 78 17 204 78 17 204 78 17 204 78 17 204 78 17 204 78 17 204 78 17 204 78 17 204 78 17 204 78 17 204 78 17 204 78 17 204 78 17 204 78 17 204 78 17 204 78 17 204 78 17 204 78 17 204 78 17 204 78 17 204 78 17 204 78 17 204 78 17 204 78 17 204 78 17 204 78 17 204 78 17 204 78 17 204 78 17 204 78 17 204 78 17 204 78 17 204 78 17 204 78 17 204 78 17 204 78 17 204 78 17 204 78 17 204 78 17 204 78 17 204 78 17 204 78 17 204 78 17 204 78 17 204 78 17 204 78 17 204 78 17 204 78 17 204 78 17 204 78 17 204 78 17 204 78 17 204 78 17 204 78 17 204 78 17 204 78 17 204 78 17 204 78 17 204 78 17 204 78 17 204 78 17 204 78 17 204 78 17 204 78 17 204 78 17 204 78 17 204 78 17 204 78 17 204 78 17 204 78 17 204 78 17 204 78 17 204 78 17 204 78 17 204 78 17 204 78 17 204 78 17 204 78 17 204 78 17 204 78 17 204 78 17 204 78 17 204 78 17 204 78 17 204 78 17 204 78 17 204 78 17 204 78 17 204 78 17 204 78 17 204 78 17 204 78 17 204 78 17 204 78 17 204 78 17 204 78 17 204 78 17 204 78 17 204 78 17 204 78 17 204 78 17 204 78 17 204 78 17 204 78 17 204 78 17 204 78 17 204 78 17 204 78 17 204 78 17 204 78 17 204 78 17 204 78 17 204 78 17 204 78 17 204 78 17 204 78 17 204 78 17 204 78 17 204 78 17 204 78 17 204 78 17 204 78 17 204 78 17 204 78 17 204 78 17 204 78 17 204 78 17 204 78 17 204 78 17 204 78 17 204 78 17 204 78 17 204 78 17 204 78 17 204 78 17 204 78 17 204 78 17 204 78 17 204 78 17 204 78 17 204 78 17 204 78 17 204 78 17 204 78 17 204 78 17 204 78 17 204 78 17 204 78 17 204 78 17 204 78 17 204 78 17 204 78 17 204 78 17 204 78 17 204 78 17 204 78 17 204 78 17 204 78 17 204 78 17 204 78 17 204 78 17 204 78 17 204 78 17 204 78 17 204 78 17 204 78 17 204 78 17 204 78 17 204 78 17 204 78 17 204 78 17 204 78 17 204 78 17 204 78 17 204 78 17 123 200 40 123 200 40 123 200 40 123 200 40 123 200 40 123 200 40 123 200 40 123 200 40 123 200 40 123 200 40 123 200 40 123 200 40 123 200 40 123 200 40 123 200 40 123 200 40 123 200 40 123 200 40 123 200 40 123 200 40 123 200 40 123 200 40 123 200 40 123 200 40 123 200 40 123 200 40 123 200 40 123 200 40 123 200 40 123 200 40 123 200 40 123 200 40 123 200 40 123 200 40 123 200 40 123 200 40 123 200 40 123 200 40 123 200 40 123 200 40 123 200 40 123 200 40 123 200 40 123 200 40 123 200 40 123 200 40 123 200 40 123 200 40 123 200 40 123 200 40 123 200 40 123 200 40 123 200 40 123 200 40 123 200 40 123 200 40 123 200 40 123 200 40 123 200 40 123 200 40 123 200 40 123 200 40 123 200 40 123 200 40 123 200 40 123 200 40 123 200 40 123 200 40 123 200 40 123 200 40 123 200 40 123 200 40 123 200 40 123 200 40 123 200 40 123 200 40 123 200 40 123 200 40 123 200 40 123 200 40 123 200 40 123 200 40 123 200 40 123 200 40 123 200 40 123 200 40 123 200 40 123 200 40 123 200 40 123 200 40 123 200 40 123 200 40 123 200 40 123 200 40 123 200 40 123 200 40 123 200 40 123 200 40 123 200 40 123 200 40 123 200 40 123 200 40 123 200 40 123 200 40 123 200 40 123 200 40 123 200 40 123 200 40 123 200 40 123 200 40 123 200 40 123 200 40 123 200 40 123 200 40 123 200 40 123 200 40 123 200 40 123 200 40 123 200 40 123 200 40 123 200 40 123 200 40 123 200 40 123 200 40 123 200 40 123 200 40 123 200 40 123 200 40 123 200 40 123 200 40 123 200 40 123 200 40 123 200 40 123 200 40 123 200 40 123 200 40 123 200 40 123 200 40 123 200 40 123 200 40 123 200 40 123 200 40 123 200 40 123 200 40 123 200 40 123 200 40 123 200 40 123 200 40 123 200 40 123 200 40 123 200 40 123 200 40 123 200 40 123 200 40 123 200 40 123 200 40 123 200 40 123 200 40 123 200 40 123 200 40 123 200 40 123 200 40 123 200 40 123 200 40 123 200 40 123 200 40 123 200 40 123 200 40 123 200 40 123 200 40 123 200 40 123 200 40 123 200 40 123 200 40 123 200 40 123 200 40 123 200 40 123 200 40 123 200 40 123 200 40 123 200 40 123 200 40 123 200 40 123 200 40 123 200 40 123 200 40 123 200 40 123 200 40 123 200 40 123 200 40 123 200 40 123 200 40 123 200 40 123 200 40 123 200 40 123 200 40 123 200 40 123 200 40 123 200 40 123 200 40 186 81 87 186 81 87 186 81 87 186 81 87 186 81 87 186 81 87 186 81 87 186 81 87 186 81 87 186 81 87 186 81 87 186 81 87 186 81 87 186 81 87 186 81 87 186 81 87 186 81 87 186 81 87 186 81 87 186 81 87 186 81 87 186 81 87 186 81 87 186 81 87 186 81 87 186 81 87 186 81 87 186 81 87 186 81 87 186 81 87 186 81 87 186 81 87 186 81 87 186 81 87 186 81 87 186 81 87 186 81 87 186 81 87 186 81 87 186 81 87 186 81 87 186 81 87 186 81 87 186 81 87 186 81 87 186 81 87 186 81 87 186 81 87 186 81 87 186 81 87 186 81 87 186 81 87 186 81 87 186 81 87 186 81 87 186 81 87 186 81 87 186 81 87 186 81 87 186 81 87 186 81 87 186 81 87 186 81 87 186 81 87 186 81 87 186 81 87 186 81 87 186 81 87 186 81 87 186 81 87 186 81 87 186 81 87 186 81 87 186 81 87 186 81 87 186 81 87 186 81 87 186 81 87 186 81 87 186 81 87 186 81 87 186 81 87 186 81 87 186 81 87 186 81 87 186 81 87 186 81 87 186 81 87 186 81 87 186 81 87 186 81 87 186 81 87 186 81 87 186 81 87 186 81 87 186 81 87 186 81 87 186 81 87 186 81 87 186 81 87 186 81 87 186 81 87 186 81 87 186 81 87 186 81 87 186 81 87 186 81 87 186 81 87 186 81 87 186 81 87 186 81 87 186 81 87 186 81 87 186 81 87 186 81 87 186 81 87 186 81 87 186 81 87 186 81 87 186 81 87 186 81 87 186 81 87 186 81 87 186 81 87 186 81 87 186 81 87 186 81 87 186 81 87 186 81 87 186 81 87 186 81 87 186 81 87 186 81 87 186 81 87 186 81 87 186 81 87 186 81 87 186 81 87 186 81 87 186 81 87 186 81 87 186 81 87 186 81 87 186 81 87 186 81 87 186 81 87 186 81 87 186 81 87 186 81 87 186 81 87 186 81 87 186 81 87 186 81 87 186 81 87 186 81 87 186 81 87 186 81 87 186 81 87 186 81 87 186 81 87 186 81 87 186 81 87 186 81 87 186 81 87 186 81 87 186 81 87 186 81 87 186 81 87 186 81 87 186 81 87 186 81 87 186 81 87 186 81 87 186 81 87 186 81 87 186 81 87 186 81 87 186 81 87 186 81 87 186 81 87 186 81 87 186 81 87 186 81 87 186 81 87 186 81 87 186 81 87 186 81 87 186 81 87 186 81 87 186 81 87 186 81 87 186 81 87 186 81 87 186 81 87 186 81 87 186 81 87 186 81 87 186 81 87 186 81 87 186 81 87 123 200 40 123 200 40 123 200 40 123 200 40 123 200 40 123 200 40 123 200 40 123 200 40 123 200 40 123 200 40 123 200 40 123 200 40 123 200 40 123 200 40 123 200 40 123 200 40 123 200 40 123 200 40 123 200 40 123 200 40 123 200 40 123 200 40 123 200 40 123 200 40 123 200 40 123 200 40 123 200 40 123 200 40 123 200 40 123 200 40 123 200 40 123 200 40 123 200 40 123 200 40 123 200 40 123 200 40 123 200 40 123 200 40 123 200 40 123 200 40 123 200 40 123 200 40 123 200 40 123 200 40 123 200 40 123 200 40 123 200 40 123 200 40 123 200 40 123 200 40 123 200 40 123 200 40 123 200 40 123 200 40 123 200 40 123 200 40 123 200 40 123 200 40 123 200 40 123 200 40 123 200 40 123 200 40 123 200 40 123 200 40 123 200 40 123 200 40 123 200 40 123 200 40 123 200 40 123 200 40 123 200 40 123 200 40 123 200 40 123 200 40 123 200 40 123 200 40 123 200 40 123 200 40 123 200 40 123 200 40 123 200 40 123 200 40 123 200 40 123 200 40 123 200 40 123 200 40 123 200 40 123 200 40 123 200 40 123 200 40 123 200 40 123 200 40 123 200 40 123 200 40 123 200 40 123 200 40 123 200 40 123 200 40 123 200 40 123 200 40 123 200 40 123 200 40 123 200 40 123 200 40 123 200 40 123 200 40 123 200 40 123 200 40 123 200 40 123 200 40 123 200 40 123 200 40 123 200 40 123 200 40 123 200 40 123 200 40 123 200 40 123 200 40 123 200 40 123 200 40 123 200 40 123 200 40 123 200 40 123 200 40 123 200 40 123 200 40 123 200 40 123 200 40 123 200 40 123 200 40 123 200 40 123 200 40 123 200 40 123 200 40 123 200 40 123 200 40 123 200 40 123 200 40 123 200 40 123 200 40 123 200 40 123 200 40 123 200 40 123 200 40 123 200 40 123 200 40 123 200 40 123 200 40 123 200 40 123 200 40 123 200 40 123 200 40 123 200 40 123 200 40 123 200 40 123 200 40 123 200 40 123 200 40 123 200 40 123 200 40 123 200 40 123 200 40 123 200 40 123 200 40 123 200 40 123 200 40 123 200 40 123 200 40 123 200 40 123 200 40 123 200 40 123 200 40 123 200 40 123 200 40 123 200 40 123 200 40 123 200 40 123 200 40 123 200 40 123 200 40 123 200 40 123 200 40 123 200 40 123 200 40 123 200 40 123 200 40 123 200 40 123 200 40 123 200 40 123 200 40 123 200 40 123 200 40 123 200 40 123 200 40 123 200 40 123 200 40 123 200 40 123 200 40 123 200 40 123 200 40 31 151 5 31 151 5 31 151 5 31 151 5 31 151 5 31 151 5 31 151 5 31 151 5 31 151 5 31 151 5 31 151 5 31 151 5 31 151 5 31 151 5 31 151 5 31 151 5 31 151 5 31 151 5 31 151 5 31 151 5 31 151 5 31 151 5 31 151 5 31 151 5 31 151 5 31 151 5 31 151 5 31 151 5 31 151 5 31 151 5 31 151 5 31 151 5 31 151 5 31 151 5 31 151 5 31 151 5 31 151 5 31 151 5 31 151 5 31 151 5 31 151 5 31 151 5 31 151 5 31 151 5 31 151 5 31 151 5 31 151 5 31 151 5 31 151 5 31 151 5 31 151 5 31 151 5 31 151 5 31 151 5 31 151 5 31 151 5 31 151 5 31 151 5 31 151 5 31 151 5 31 151 5 31 151 5 31 151 5 31 151 5 31 151 5 31 151 5 31 151 5 31 151 5 31 151 5 31 151 5 31 151 5 31 151 5 31 151 5 31 151 5 31 151 5 31 151 5 31 151 5 31 151 5 31 151 5 31 151 5 31 151 5 31 151 5 31 151 5 31 151 5 31 151 5 31 151 5 31 151 5 31 151 5 31 151 5 31 151 5 31 151 5 31 151 5 31 151 5 31 151 5 31 151 5 31 151 5 31 151 5 31 151 5 31 151 5 31 151 5 31 151 5 31 151 5 31 151 5 31 151 5 31 151 5 31 151 5 31 151 5 31 151 5 31 151 5 31 151 5 31 151 5 31 151 5 31 151 5 31 151 5 31 151 5 31 151 5 31 151 5 31 151 5 31 151 5 31 151 5 31 151 5 31 151 5 31 151 5 31 151 5 31 151 5 31 151 5 31 151 5 31 151 5 31 151 5 31 151 5 31 151 5 31 151 5 31 151 5 31 151 5 31 151 5 31 151 5 31 151 5 31 151 5 31 151 5 31 151 5 31 151 5 31 151 5 31 151 5 31 151 5 31 151 5 31 151 5 31 151 5 31 151 5 31 151 5 31 151 5 31 151 5 31 151 5 31 151 5 31 151 5 31 151 5 31 151 5 31 151 5 31 151 5 31 151 5 31 151 5 31 151 5 31 151 5 31 151 5 31 151 5 31 151 5 31 151 5 31 151 5 31 151 5 31 151 5 31 151 5 31 151 5 31 151 5 31 151 5 31 151 5 31 151 5 31 151 5 31 151 5 31 151 5 31 151 5 31 151 5 31 151 5 31 151 5 31 151 5 31 151 5 31 151 5 31 151 5 31 151 5 31 151 5 31 151 5 31 151 5 31 151 5 31 151 5 31 151 5 31 151 5 31 151 5 31 151 5 31 151 5 31 151 5 31 151 5 31 151 5 123 200 40 123 200 40 123 200 40 123 200 40 123 200 40 123 200 40 123 200 40 123 200 40 123 200 40 123 200 40 123 200 40 123 200 40 123 200 40 123 200 40 123 200 40 123 200 40 123 200 40 123 200 40 123 200 40 123 200 40 123 200 40 123 200 40 123 200 40 123 200 40 123 200 40 123 200 40 123 200 40 123 200 40 123 200 40 123 200 40 123 200 40 123 200 40 123 200 40 123 200 40 123 200 40 123 200 40 123 200 40 123 200 40 123 200 40 123 200 40 123 200 40 123 200 40 123 200 40 123 200 40 123 200 40 123 200 40 123 200 40 123 200 40 123 200 40 123 200 40 123 200 40 123 200 40 123 200 40 123 200 40 123 200 40 123 200 40 123 200 40 123 200 40 123 200 40 123 200 40 123 200 40 123 200 40 123 200 40 123 200 40 123 200 40 123 200 40 123 200 40 123 200 40 123 200 40 123 200 40 123 200 40 123 200 40 123 200 40 123 200 40 123 200 40 123 200 40 123 200 40 123 200 40 123 200 40 123 200 40 123 200 40 123 200 40 123 200 40 123 200 40 123 200 40 123 200 40 123 200 40 123 200 40 123 200 40 123 200 40 123 200 40 123 200 40 123 200 40 123 200 40 123 200 40 123 200 40 123 200 40 123 200 40 123 200 40 123 200 40 123 200 40 123 200 40 123 200 40 123 200 40 123 200 40 123 200 40 123 200 40 123 200 40 123 200 40 123 200 40 123 200 40 123 200 40 123 200 40 123 200 40 123 200 40 123 200 40 123 200 40 123 200 40 123 200 40 123 200 40 123 200 40 123 200 40 123 200 40 123 200 40 123 200 40 123 200 40 123 200 40 123 200 40 123 200 40 123 200 40 123 200 40 123 200 40 123 200 40 123 200 40 123 200 40 123 200 40 123 200 40 123 200 40 123 200 40 123 200 40 123 200 40 123 200 40 123 200 40 123 200 40 123 200 40 123 200 40 123 200 40 123 200 40 123 200 40 123 200 40 123 200 40 123 200 40 123 200 40 123 200 40 123 200 40 123 200 40 123 200 40 123 200 40 123 200 40 123 200 40 123 200 40 123 200 40 123 200 40 123 200 40 123 200 40 123 200 40 123 200 40 123 200 40 123 200 40 123 200 40 123 200 40 123 200 40 123 200 40 123 200 40 123 200 40 123 200 40 123 200 40 123 200 40 123 200 40 123 200 40 123 200 40 123 200 40 123 200 40 123 200 40 123 200 40 123 200 40 123 200 40 123 200 40 123 200 40 123 200 40 123 200 40 123 200 40 123 200 40 123 200 40 123 200 40 123 200 40 123 200 40 123 200 40 123 200 40 123 200 40 249 130 116 249 130 116 249 130 116 249 130 116 249 130 116 249 130 116 249 130 116 249 130 116 249 130 116 249 130 116 249 130 116 249 130 116 249 130 116 249 130 116 249 130 116 249 130 116 249 130 116 249 130 116 249 130 116 249 130 116 249 130 116 249 130 116 249 130 116 249 130 116 249 130 116 249 130 116 249 130 116 249 130 116 249 130 116 249 130 116 249 130 116 249 130 116 249 130 116 249 130 116 249 130 116 249 130 116 249 130 116 249 130 116 249 130 116 249 130 116 249 130 116 249 130 116 249 130 116 249 130 116 249 130 116 249 130 116 249 130 116 249 130 116 249 130 116 249 130 116 249 130 116 249 130 116 249 130 116 249 130 116 249 130 116 249 130 116 249 130 116 249 130 116 249 130 116 249 130 116 249 130 116 249 130 116 249 130 116 249 130 116 249 130 116 249 130 116 249 130 116 249 130 116 249 130 116 249 130 116 249 130 116 249 130 116 249 130 116 249 130 116 249 130 116 249 130 116 249 130 116 249 130 116 249 130 116 249 130 116 249 130 116 249 130 116 249 130 116 249 130 116 249 130 116 249 130 116 249 130 116 249 130 116 249 130 116 249 130 116 249 130 116 249 130 116 249 130 116 249 130 116 249 130 116 249 130 116 249 130 116 249 130 116 249 130 116 249 130 116 249 130 116 249 130 116 249 130 116 249 130 116 249 130 116 249 130 116 249 130 116 249 130 116 249 130 116 249 130 116 249 130 116 249 130 116 249 130 116 249 130 116 249 130 116 249 130 116 249 130 116 249 130 116 249 130 116 249 130 116 249 130 116 249 130 116 249 130 116 249 130 116 249 130 116 249 130 116 249 130 116 249 130 116 249 130 116 249 130 116 249 130 116 249 130 116 249 130 116 249 130 116 249 130 116 249 130 116 249 130 116 249 130 116 249 130 116 249 130 116 249 130 116 249 130 116 249 130 116 249 130 116 249 130 116 249 130 116 249 130 116 249 130 116 249 130 116 249 130 116 249 130 116 249 130 116 249 130 116 249 130 116 249 130 116 249 130 116 249 130 116 249 130 116 249 130 116 249 130 116 249 130 116 249 130 116 249 130 116 249 130 116 249 130 116 249 130 116 249 130 116 249 130 116 249 130 116 249 130 116 249 130 116 249 130 116 249 130 116 249 130 116 249 130 116 249 130 116 249 130 116 249 130 116 249 130 116 249 130 116 249 130 116 249 130 116 249 130 116 249 130 116 249 130 116 249 130 116 249 130 116 249 130 116 249 130 116 249 130 116 249 130 116 249 130 116 249 130 116 249 130 116 249 130 116 249 130 116 249 130 116 249 130 116 249 130 116 249 130 116 123 200 40 123 200 40 123 200 40 123 200 40 123 200 40 123 200 40 123 200 40 123 200 40 123 200 40 123 200 40 123 200 40 123 200 40 123 200 40 123 200 40 123 200 40 123 200 40 123 200 40 123 200 40 123 200 40 123 200 40 123 200 40 123 200 40 123 200 40 123 200 40 123 200 40 123 200 40 123 200 40 123 200 40 123 200 40 123 200 40 123 200 40 123 200 40 123 200 40 123 200 40 123 200 40 123 200 40 123 200 40 123 200 40 123 200 40 123 200 40 123 200 40 123 200 40 123 200 40 123 200 40 123 200 40 123 200 40 123 200 40 123 200 40 123 200 40 123 200 40 123 200 40 123 200 40 123 200 40 123 200 40 123 200 40 123 200 40 123 200 40 123 200 40 123 200 40 123 200 40 123 200 40 123 200 40 123 200 40 123 200 40 123 200 40 123 200 40 123 200 40 123 200 40 123 200 40 123 200 40 123 200 40 123 200 40 123 200 40 123 200 40 123 200 40 123 200 40 123 200 40 123 200 40 123 200 40 123 200 40 123 200 40 123 200 40 123 200 40 123 200 40 123 200 40 123 200 40 123 200 40 123 200 40 123 200 40 123 200 40 123 200 40 123 200 40 123 200 40 123 200 40 123 200 40 123 200 40 123 200 40 123 200 40 123 200 40 123 200 40 123 200 40 123 200 40 123 200 40 123 200 40 123 200 40 123 200 40 123 200 40 123 200 40 123 200 40 123 200 40 123 200 40 123 200 40 123 200 40 123 200 40 123 200 40 123 200 40 123 200 40 123 200 40 123 200 40 123 200 40 123 200 40 123 200 40 123 200 40 123 200 40 123 200 40 123 200 40 123 200 40 123 200 40 123 200 40 123 200 40 123 200 40 123 200 40 123 200 40 123 200 40 123 200 40 123 200 40 123 200 40 123 200 40 123 200 40 123 200 40 123 200 40 123 200 40 123 200 40 123 200 40 123 200 40 123 200 40 123 200 40 123 200 40 123 200 40 123 200 40 123 200 40 123 200 40 123 200 40 123 200 40 123 200 40 123 200 40 123 200 40 123 200 40 123 200 40 123 200 40 123 200 40 123 200 40 123 200 40 123 200 40 123 200 40 123 200 40 123 200 40 123 200 40 123 200 40 123 200 40 123 200 40 123 200 40 123 200 40 123 200 40 123 200 40 123 200 40 123 200 40 123 200 40 123 200 40 123 200 40 123 200 40 123 200 40 123 200 40 123 200 40 123 200 40 123 200 40 123 200 40 123 200 40 123 200 40 123 200 40 123 200 40 123 200 40 123 200 40 123 200 40 123 200 40 123 200 40 123 200 40 123 200 40 123 200 40 123 200 40 129 18 56 129 18 56 129 18 56 129 18 56 129 18 56 129 18 56 129 18 56 129 18 56 129 18 56 129 18 56 129 18 56 129 18 56 129 18 56 129 18 56 129 18 56 129 18 56 129 18 56 129 18 56 129 18 56 129 18 56 129 18 56 129 18 56 129 18 56 129 18 56 129 18 56 129 18 56 129 18 56 129 18 56 129 18 56 129 18 56 129 18 56 129 18 56 129 18 56 129 18 56 129 18 56 129 18 56 129 18 56 129 18 56 129 18 56 129 18 56 129 18 56 129 18 56 129 18 56 129 18 56 129 18 56 129 18 56 129 18 56 129 18 56 129 18 56 129 18 56 129 18 56 129 18 56 129 18 56 129 18 56 129 18 56 129 18 56 129 18 56 129 18 56 129 18 56 129 18 56 129 18 56 129 18 56 129 18 56 129 18 56 129 18 56 129 18 56 129 18 56 129 18 56 129 18 56 129 18 56 129 18 56 129 18 56 129 18 56 129 18 56 129 18 56 129 18 56 129 18 56 129 18 56 129 18 56 129 18 56 129 18 56 129 18 56 129 18 56 129 18 56 129 18 56 129 18 56 129 18 56 129 18 56 129 18 56 129 18 56 129 18 56 129 18 56 129 18 56 129 18 56 129 18 56 129 18 56 129 18 56 129 18 56 129 18 56 129 18 56 129 18 56 129 18 56 129 18 56 129 18 56 129 18 56 129 18 56 129 18 56 129 18 56 129 18 56 129 18 56 129 18 56 129 18 56 129 18 56 129 18 56 129 18 56 129 18 56 129 18 56 129 18 56 129 18 56 129 18 56 129 18 56 129 18 56 129 18 56 129 18 56 129 18 56 129 18 56 129 18 56 129 18 56 129 18 56 129 18 56 129 18 56 129 18 56 129 18 56 129 18 56 129 18 56 129 18 56 129 18 56 129 18 56 129 18 56 129 18 56 129 18 56 129 18 56 129 18 56 129 18 56 129 18 56 129 18 56 129 18 56 129 18 56 129 18 56 129 18 56 129 18 56 129 18 56 129 18 56 129 18 56 129 18 56 129 18 56 129 18 56 129 18 56 129 18 56 129 18 56 129 18 56 129 18 56 129 18 56 129 18 56 129 18 56 129 18 56 129 18 56 129 18 56 129 18 56 129 18 56 129 18 56 129 18 56 129 18 56 129 18 56 129 18 56 129 18 56 129 18 56 129 18 56 129 18 56 129 18 56 129 18 56 129 18 56 129 18 56 129 18 56 129 18 56 129 18 56 129 18 56 129 18 56 129 18 56 129 18 56 129 18 56 129 18 56 129 18 56 129 18 56 129 18 56 129 18 56 129 18 56 129 18 56 129 18 56 129 18 56 123 200 40 123 200 40 123 200 40 123 200 40 123 200 40 123 200 40 123 200 40 123 200 40 123 200 40 123 200 40 123 200 40 123 200 40 123 200 40 123 200 40 123 200 40 123 200 40 123 200 40 123 200 40 123 200 40 123 200 40 123 200 40 123 200 40 123 200 40 123 200 40 123 200 40 123 200 40 123 200 40 123 200 40 123 200 40 123 200 40 123 200 40 123 200 40 123 200 40 123 200 40 123 200 40 123 200 40 123 200 40 123 200 40 123 200 40 123 200 40 123 200 40 123 200 40 123 200 40 123 200 40 123 200 40 123 200 40 123 200 40 123 200 40 123 200 40 123 200 40 123 200 40 123 200 40 123 200 40 123 200 40 123 200 40 123 200 40 123 200 40 123 200 40 123 200 40 123 200 40 123 200 40 123 200 40 123 200 40 123 200 40 123 200 40 123 200 40 123 200 40 123 200 40 123 200 40 123 200 40 123 200 40 123 200 40 123 200 40 123 200 40 123 200 40 123 200 40 123 200 40 123 200 40 123 200 40 123 200 40 123 200 40 123 200 40 123 200 40 123 200 40 123 200 40 123 200 40 123 200 40 123 200 40 123 200 40 123 200 40 123 200 40 123 200 40 123 200 40 123 200 40 123 200 40 123 200 40 123 200 40 123 200 40 123 200 40 123 200 40 123 200 40 123 200 40 123 200 40 123 200 40 123 200 40 123 200 40 123 200 40 123 200 40 123 200 40 123 200 40 123 200 40 123 200 40 123 200 40 123 200 40 123 200 40 123 200 40 123 200 40 123 200 40 123 200 40 123 200 40 123 200 40 123 200 40 123 200 40 123 200 40 123 200 40 123 200 40 123 200 40 123 200 40 123 200 40 123 200 40 123 200 40 123 200 40 123 200 40 123 200 40 123 200 40 123 200 40 123 200 40 123 200 40 123 200 40 123 200 40 123 200 40 123 200 40 123 200 40 123 200 40 123 200 40 123 200 40 123 200 40 123 200 40 123 200 40 123 200 40 123 200 40 123 200 40 123 200 40 123 200 40 123 200 40 123 200 40 123 200 40 123 200 40 123 200 40 123 200 40 123 200 40 123 200 40 123 200 40 123 200 40 123 200 40 123 200 40 123 200 40 123 200 40 123 200 40 123 200 40 123 200 40 123 200 40 123 200 40 123 200 40 123 200 40 123 200 40 123 200 40 123 200 40 123 200 40 123 200 40 123 200 40 123 200 40 123 200 40 123 200 40 123 200 40 123 200 40 123 200 40 123 200 40 123 200 40 123 200 40 123 200 40 123 200 40 123 200 40 123 200 40 123 200 40 123 200 40 123 200 40 123 200 40 123 200 40 123 200 40 186 0 56 186 0 56 186 0 56 186 0 56 186 0 56 186 0 56 186 0 56 186 0 56 186 0 56 186 0 56 186 0 56 186 0 56 186 0 56 186 0 56 186 0 56 186 0 56 186 0 56 186 0 56 186 0 56 186 0 56 186 0 56 186 0 56 186 0 56 186 0 56 186 0 56 186 0 56 186 0 56 186 0 56 186 0 56 186 0 56 186 0 56 186 0 56 186 0 56 186 0 56 186 0 56 186 0 56 186 0 56 186 0 56 186 0 56 186 0 56 186 0 56 186 0 56 186 0 56 186 0 56 186 0 56 186 0 56 186 0 56 186 0 56 186 0 56 186 0 56 186 0 56 186 0 56 186 0 56 186 0 56 186 0 56 186 0 56 186 0 56 186 0 56 186 0 56 186 0 56 186 0 56 186 0 56 186 0 56 186 0 56 186 0 56 186 0 56 186 0 56 186 0 56 186 0 56 186 0 56 186 0 56 186 0 56 186 0 56 186 0 56 186 0 56 186 0 56 186 0 56 186 0 56 186 0 56 186 0 56 186 0 56 186 0 56 186 0 56 186 0 56 186 0 56 186 0 56 186 0 56 186 0 56 186 0 56 186 0 56 186 0 56 186 0 56 186 0 56 186 0 56 186 0 56 186 0 56 186 0 56 186 0 56 186 0 56 186 0 56 186 0 56 186 0 56 186 0 56 186 0 56 186 0 56 186 0 56 186 0 56 186 0 56 186 0 56 186 0 56 186 0 56 186 0 56 186 0 56 186 0 56 186 0 56 186 0 56 186 0 56 186 0 56 186 0 56 186 0 56 186 0 56 186 0 56 186 0 56 186 0 56 186 0 56 186 0 56 186 0 56 186 0 56 186 0 56 186 0 56 186 0 56 186 0 56 186 0 56 186 0 56 186 0 56 186 0 56 186 0 56 186 0 56 186 0 56 186 0 56 186 0 56 186 0 56 186 0 56 186 0 56 186 0 56 186 0 56 186 0 56 186 0 56 186 0 56 186 0 56 186 0 56 186 0 56 186 0 56 186 0 56 186 0 56 186 0 56 186 0 56 186 0 56 186 0 56 186 0 56 186 0 56 186 0 56 186 0 56 186 0 56 186 0 56 186 0 56 186 0 56 186 0 56 186 0 56 186 0 56 186 0 56 186 0 56 186 0 56 186 0 56 186 0 56 186 0 56 186 0 56 186 0 56 186 0 56 186 0 56 186 0 56 186 0 56 186 0 56 186 0 56 186 0 56 186 0 56 186 0 56 186 0 56 186 0 56 186 0 56 186 0 56 186 0 56 186 0 56 186 0 56 186 0 56 186 0 56 186 0 56 186 0 56 186 0 56 186 0 56 123 200 40 123 200 40 123 200 40 123 200 40 123 200 40 123 200 40 123 200 40 123 200 40 123 200 40 123 200 40 123 200 40 123 200 40 123 200 40 123 200 40 123 200 40 123 200 40 123 200 40 123 200 40 123 200 40 123 200 40 123 200 40 123 200 40 123 200 40 123 200 40 123 200 40 123 200 40 123 200 40 123 200 40 123 200 40 123 200 40 123 200 40 123 200 40 123 200 40 123 200 40 123 200 40 123 200 40 123 200 40 123 200 40 123 200 40 123 200 40 123 200 40 123 200 40 123 200 40 123 200 40 123 200 40 123 200 40 123 200 40 123 200 40 123 200 40 123 200 40 123 200 40 123 200 40 123 200 40 123 200 40 123 200 40 123 200 40 123 200 40 123 200 40 123 200 40 123 200 40 123 200 40 123 200 40 123 200 40 123 200 40 123 200 40 123 200 40 123 200 40 123 200 40 123 200 40 123 200 40 123 200 40 123 200 40 123 200 40 123 200 40 123 200 40 123 200 40 123 200 40 123 200 40 123 200 40 123 200 40 123 200 40 123 200 40 123 200 40 123 200 40 123 200 40 123 200 40 123 200 40 123 200 40 123 200 40 123 200 40 123 200 40 123 200 40 123 200 40 123 200 40 123 200 40 123 200 40 123 200 40 123 200 40 123 200 40 123 200 40 123 200 40 123 200 40 123 200 40 123 200 40 123 200 40 123 200 40 123 200 40 123 200 40 123 200 40 123 200 40 123 200 40 123 200 40 123 200 40 123 200 40 123 200 40 123 200 40 123 200 40 123 200 40 123 200 40 123 200 40 123 200 40 123 200 40 123 200 40 123 200 40 123 200 40 123 200 40 123 200 40 123 200 40 123 200 40 123 200 40 123 200 40 123 200 40 123 200 40 123 200 40 123 200 40 123 200 40 123 200 40 123 200 40 123 200 40 123 200 40 123 200 40 123 200 40 123 200 40 123 200 40 123 200 40 123 200 40 123 200 40 123 200 40 123 200 40 123 200 40 123 200 40 123 200 40 123 200 40 123 200 40 123 200 40 123 200 40 123 200 40 123 200 40 123 200 40 123 200 40 123 200 40 123 200 40 123 200 40 123 200 40 123 200 40 123 200 40 123 200 40 123 200 40 123 200 40 123 200 40 123 200 40 123 200 40 123 200 40 123 200 40 123 200 40 123 200 40 123 200 40 123 200 40 123 200 40 123 200 40 123 200 40 123 200 40 123 200 40 123 200 40 123 200 40 123 200 40 123 200 40 123 200 40 123 200 40 123 200 40 123 200 40 123 200 40 123 200 40 123 200 40 123 200 40 123 200 40 123 200 40 123 200 40 123 200 40 123 200 40 103 248 28 103 248 28 103 248 28 103 248 28 103 248 28 103 248 28 103 248 28 103 248 28 103 248 28 103 248 28 103 248 28 103 248 28 103 248 28 103 248 28 103 248 28 103 248 28 103 248 28 103 248 28 103 248 28 103 248 28 103 248 28 103 248 28 103 248 28 103 248 28 103 248 28 103 248 28 103 248 28 103 248 28 103 248 28 103 248 28 103 248 28 103 248 28 103 248 28 103 248 28 103 248 28 103 248 28 103 248 28 103 248 28 103 248 28 103 248 28 103 248 28 103 248 28 103 248 28 103 248 28 103 248 28 103 248 28 103 248 28 103 248 28 103 248 28 103 248 28 103 248 28 103 248 28 103 248 28 103 248 28 103 248 28 103 248 28 103 248 28 103 248 28 103 248 28 103 248 28 103 248 28 103 248 28 103 248 28 103 248 28 103 248 28 103 248 28 103 248 28 103 248 28 103 248 28 103 248 28 103 248 28 103 248 28 103 248 28 103 248 28 103 248 28 103 248 28 103 248 28 103 248 28 103 248 28 103 248 28 103 248 28 103 248 28 103 248 28 103 248 28 103 248 28 103 248 28 103 248 28 103 248 28 103 248 28 103 248 28 103 248 28 103 248 28 103 248 28 103 248 28 103 248 28 103 248 28 103 248 28 103 248 28 103 248 28 103 248 28 103 248 28 103 248 28 103 248 28 103 248 28 103 248 28 103 248 28 103 248 28 103 248 28 103 248 28 103 248 28 103 248 28 103 248 28 103 248 28 103 248 28 103 248 28 103 248 28 103 248 28 103 248 28 103 248 28 103 248 28 103 248 28 103 248 28 103 248 28 103 248 28 103 248 28 103 248 28 103 248 28 103 248 28 103 248 28 103 248 28 103 248 28 103 248 28 103 248 28 103 248 28 103 248 28 103 248 28 103 248 28 103 248 28 103 248 28 103 248 28 103 248 28 103 248 28 103 248 28 103 248 28 103 248 28 103 248 28 103 248 28 103 248 28 103 248 28 103 248 28 103 248 28 103 248 28 103 248 28 103 248 28 103 248 28 103 248 28 103 248 28 103 248 28 103 248 28 103 248 28 103 248 28 103 248 28 103 248 28 103 248 28 103 248 28 103 248 28 103 248 28 103 248 28 103 248 28 103 248 28 103 248 28 103 248 28 103 248 28 103 248 28 103 248 28 103 248 28 103 248 28 103 248 28 103 248 28 103 248 28 103 248 28 103 248 28 103 248 28 103 248 28 103 248 28 103 248 28 103 248 28 103 248 28 103 248 28 103 248 28 103 248 28 103 248 28 103 248 28 103 248 28 103 248 28 103 248 28 103 248 28 103 248 28 103 248 28 103 248 28 123 200 40 123 200 40 123 200 40 123 200 40 123 200 40 123 200 40 123 200 40 123 200 40 123 200 40 123 200 40 123 200 40 123 200 40 123 200 40 123 200 40 123 200 40 123 200 40 123 200 40 123 200 40 123 200 40 123 200 40 123 200 40 123 200 40 123 200 40 123 200 40 123 200 40 123 200 40 123 200 40 123 200 40 123 200 40 123 200 40 123 200 40 123 200 40 123 200 40 123 200 40 123 200 40 123 200 40 123 200 40 123 200 40 123 200 40 123 200 40 123 200 40 123 200 40 123 200 40 123 200 40 123 200 40 123 200 40 123 200 40 123 200 40 123 200 40 123 200 40 123 200 40 123 200 40 123 200 40 123 200 40 123 200 40 123 200 40 123 200 40 123 200 40 123 200 40 123 200 40 123 200 40 123 200 40 123 200 40 123 200 40 123 200 40 123 200 40 123 200 40 123 200 40 123 200 40 123 200 40 123 200 40 123 200 40 123 200 40 123 200 40 123 200 40 123 200 40 123 200 40 123 200 40 123 200 40 123 200 40 123 200 40 123 200 40 123 200 40 123 200 40 123 200 40 123 200 40 123 200 40 123 200 40 123 200 40 123 200 40 123 200 40 123 200 40 123 200 40 123 200 40 123 200 40 123 200 40 123 200 40 123 200 40 123 200 40 123 200 40 123 200 40 123 200 40 123 200 40 123 200 40 123 200 40 123 200 40 123 200 40 123 200 40 123 200 40 123 200 40 123 200 40 123 200 40 123 200 40 123 200 40 123 200 40 123 200 40 123 200 40 123 200 40 123 200 40 123 200 40 123 200 40 123 200 40 123 200 40 123 200 40 123 200 40 123 200 40 123 200 40 123 200 40 123 200 40 123 200 40 123 200 40 123 200 40 123 200 40 123 200 40 123 200 40 123 200 40 123 200 40 123 200 40 123 200 40 123 200 40 123 200 40 123 200 40 123 200 40 123 200 40 123 200 40 123 200 40 123 200 40 123 200 40 123 200 40 123 200 40 123 200 40 123 200 40 123 200 40 123 200 40 123 200 40 123 200 40 123 200 40 123 200 40 123 200 40 123 200 40 123 200 40 123 200 40 123 200 40 123 200 40 123 200 40 123 200 40 123 200 40 123 200 40 123 200 40 123 200 40 123 200 40 123 200 40 123 200 40 123 200 40 123 200 40 123 200 40 123 200 40 123 200 40 123 200 40 123 200 40 123 200 40 123 200 40 123 200 40 123 200 40 123 200 40 123 200 40 123 200 40 123 200 40 123 200 40 123 200 40 123 200 40 123 200 40 123 200 40 123 200 40 123 200 40 123 200 40 123 200 40 123 200 40 123 200 40 123 200 40 210 129 196 210 129 196 210 129 196 210 129 196 210 129 196 210 129 196 210 129 196 210 129 196 210 129 196 210 129 196 210 129 196 210 129 196 210 129 196 210 129 196 210 129 196 210 129 196 210 129 196 210 129 196 210 129 196 210 129 196 210 129 196 210 129 196 210 129 196 210 129 196 210 129 196 210 129 196 210 129 196 210 129 196 210 129 196 210 129 196 210 129 196 210 129 196 210 129 196 210 129 196 210 129 196 210 129 196 210 129 196 210 129 196 210 129 196 210 129 196 210 129 196 210 129 196 210 129 196 210 129 196 210 129 196 210 129 196 210 129 196 210 129 196 210 129 196 210 129 196 210 129 196 210 129 196 210 129 196 210 129 196 210 129 196 210 129 196 210 129 196 210 129 196 210 129 196 210 129 196 210 129 196 210 129 196 210 129 196 210 129 196 210 129 196 210 129 196 210 129 196 210 129 196 210 129 196 210 129 196 210 129 196 210 129 196 210 129 196 210 129 196 210 129 196 210 129 196 210 129 196 210 129 196 210 129 196 210 129 196 210 129 196 210 129 196 210 129 196 210 129 196 210 129 196 210 129 196 210 129 196 210 129 196 210 129 196 210 129 196 210 129 196 210 129 196 210 129 196 210 129 196 210 129 196 210 129 196 210 129 196 210 129 196 210 129 196 210 129 196 210 129 196 210 129 196 210 129 196 210 129 196 210 129 196 210 129 196 210 129 196 210 129 196 210 129 196 210 129 196 210 129 196 210 129 196 210 129 196 210 129 196 210 129 196 210 129 196 210 129 196 210 129 196 210 129 196 210 129 196 210 129 196 210 129 196 210 129 196 210 129 196 210 129 196 210 129 196 210 129 196 210 129 196 210 129 196 210 129 196 210 129 196 210 129 196 210 129 196 210 129 196 210 129 196 210 129 196 210 129 196 210 129 196 210 129 196 210 129 196 210 129 196 210 129 196 210 129 196 210 129 196 210 129 196 210 129 196 210 129 196 210 129 196 210 129 196 210 129 196 210 129 196 210 129 196 210 129 196 210 129 196 210 129 196 210 129 196 210 129 196 210 129 196 210 129 196 210 129 196 210 129 196 210 129 196 210 129 196 210 129 196 210 129 196 210 129 196 210 129 196 210 129 196 210 129 196 210 129 196 210 129 196 210 129 196 210 129 196 210 129 196 210 129 196 210 129 196 210 129 196 210 129 196 210 129 196 210 129 196 210 129 196 210 129 196 210 129 196 210 129 196 210 129 196 210 129 196 210 129 196 210 129 196 210 129 196 210 129 196 210 129 196 210 129 196 210 129 196 210 129 196 210 129 196 210 129 196 210 129 196 210 129 196 210 129 196 210 129 196 123 200 40 123 200 40 123 200 40 123 200 40 123 200 40 123 200 40 123 200 40 123 200 40 123 200 40 123 200 40 123 200 40 123 200 40 123 200 40 123 200 40 123 200 40 123 200 40 123 200 40 123 200 40 123 200 40 123 200 40 123 200 40 123 200 40 123 200 40 123 200 40 123 200 40 123 200 40 123 200 40 123 200 40 123 200 40 123 200 40 123 200 40 123 200 40 123 200 40 123 200 40 123 200 40 123 200 40 123 200 40 123 200 40 123 200 40 123 200 40 123 200 40 123 200 40 123 200 40 123 200 40 123 200 40 123 200 40 123 200 40 123 200 40 123 200 40 123 200 40 123 200 40 123 200 40 123 200 40 123 200 40 123 200 40 123 200 40 123 200 40 123 200 40 123 200 40 123 200 40 123 200 40 123 200 40 123 200 40 123 200 40 123 200 40 123 200 40 123 200 40 123 200 40 123 200 40 123 200 40 123 200 40 123 200 40 123 200 40 123 200 40 123 200 40 123 200 40 123 200 40 123 200 40 123 200 40 123 200 40 123 200 40 123 200 40 123 200 40 123 200 40 123 200 40 123 200 40 123 200 40 123 200 40 123 200 40 123 200 40 123 200 40 123 200 40 123 200 40 123 200 40 123 200 40 123 200 40 123 200 40 123 200 40 123 200 40 123 200 40 123 200 40 123 200 40 123 200 40 123 200 40 123 200 40 123 200 40 123 200 40 123 200 40 123 200 40 123 200 40 123 200 40 123 200 40 123 200 40 123 200 40 123 200 40 123 200 40 123 200 40 123 200 40 123 200 40 123 200 40 123 200 40 123 200 40 123 200 40 123 200 40 123 200 40 123 200 40 123 200 40 123 200 40 123 200 40 123 200 40 123 200 40 123 200 40 123 200 40 123 200 40 123 200 40 123 200 40 123 200 40 123 200 40 123 200 40 123 200 40 123 200 40 123 200 40 123 200 40 123 200 40 123 200 40 123 200 40 123 200 40 123 200 40 123 200 40 123 200 40 123 200 40 123 200 40 123 200 40 123 200 40 123 200 40 123 200 40 123 200 40 123 200 40 123 200 40 123 200 40 123 200 40 123 200 40 123 200 40 123 200 40 123 200 40 123 200 40 123 200 40 123 200 40 123 200 40 123 200 40 123 200 40 123 200 40 123 200 40 123 200 40 123 200 40 123 200 40 123 200 40 123 200 40 123 200 40 123 200 40 123 200 40 123 200 40 123 200 40 123 200 40 123 200 40 123 200 40 123 200 40 123 200 40 123 200 40 123 200 40 123 200 40 123 200 40 123 200 40 123 200 40 123 200 40 123 200 40 123 200 40 123 200 40 123 200 40 123 200 40 60 120 142 60 120 142 60 120 142 60 120 142 60 120 142 60 120 142 60 120 142 60 120 142 60 120 142 60 120 142 60 120 142 60 120 142 60 120 142 60 120 142 60 120 142 60 120 142 60 120 142 60 120 142 60 120 142 60 120 142 60 120 142 60 120 142 60 120 142 60 120 142 60 120 142 60 120 142 60 120 142 60 120 142 60 120 142 60 120 142 60 120 142 60 120 142 60 120 142 60 120 142 60 120 142 60 120 142 60 120 142 60 120 142 60 120 142 60 120 142 60 120 142 60 120 142 60 120 142 60 120 142 60 120 142 60 120 142 60 120 142 60 120 142 60 120 142 60 120 142 60 120 142 60 120 142 60 120 142 60 120 142 60 120 142 60 120 142 60 120 142 60 120 142 60 120 142 60 120 142 60 120 142 60 120 142 60 120 142 60 120 142 60 120 142 60 120 142 60 120 142 60 120 142 60 120 142 60 120 142 60 120 142 60 120 142 60 120 142 60 120 142 60 120 142 60 120 142 60 120 142 60 120 142 60 120 142 60 120 142 60 120 142 60 120 142 60 120 142 60 120 142 60 120 142 60 120 142 60 120 142 60 120 142 60 120 142 60 120 142 60 120 142 60 120 142 60 120 142 60 120 142 60 120 142 60 120 142 60 120 142 60 120 142 60 120 142 60 120 142 60 120 142 60 120 142 60 120 142 60 120 142 60 120 142 60 120 142 60 120 142 60 120 142 60 120 142 60 120 142 60 120 142 60 120 142 60 120 142 60 120 142 60 120 142 60 120 142 60 120 142 60 120 142 60 120 142 60 120 142 60 120 142 60 120 142 60 120 142 60 120 142 60 120 142 60 120 142 60 120 142 60 120 142 60 120 142 60 120 142 60 120 142 60 120 142 60 120 142 60 120 142 60 120 142 60 120 142 60 120 142 60 120 142 60 120 142 60 120 142 60 120 142 60 120 142 60 120 142 60 120 142 60 120 142 60 120 142 60 120 142 60 120 142 60 120 142 60 120 142 60 120 142 60 120 142 60 120 142 60 120 142 60 120 142 60 120 142 60 120 142 60 120 142 60 120 142 60 120 142 60 120 142 60 120 142 60 120 142 60 120 142 60 120 142 60 120 142 60 120 142 60 120 142 60 120 142 60 120 142 60 120 142 60 120 142 60 120 142 60 120 142 60 120 142 60 120 142 60 120 142 60 120 142 60 120 142 60 120 142 60 120 142 60 120 142 60 120 142 60 120 142 60 120 142 60 120 142 60 120 142 60 120 142 60 120 142 60 120 142 60 120 142 60 120 142 60 120 142 60 120 142 60 120 142 60 120 142 60 120 142 60 120 142 60 120 142 60 120 142 123 200 40 123 200 40 123 200 40 123 200 40 123 200 40 123 200 40 123 200 40 123 200 40 123 200 40 123 200 40 123 200 40 123 200 40 123 200 40 123 200 40 123 200 40 123 200 40 123 200 40 123 200 40 123 200 40 123 200 40 123 200 40 123 200 40 123 200 40 123 200 40 123 200 40 123 200 40 123 200 40 123 200 40 123 200 40 123 200 40 123 200 40 123 200 40 123 200 40 123 200 40 123 200 40 123 200 40 123 200 40 123 200 40 123 200 40 123 200 40 123 200 40 123 200 40 123 200 40 123 200 40 123 200 40 123 200 40 123 200 40 123 200 40 123 200 40 123 200 40 123 200 40 123 200 40 123 200 40 123 200 40 123 200 40 123 200 40 123 200 40 123 200 40 123 200 40 123 200 40 123 200 40 123 200 40 123 200 40 123 200 40 123 200 40 123 200 40 123 200 40 123 200 40 123 200 40 123 200 40 123 200 40 123 200 40 123 200 40 123 200 40 123 200 40 123 200 40 123 200 40 123 200 40 123 200 40 123 200 40 123 200 40 123 200 40 123 200 40 123 200 40 123 200 40 123 200 40 123 200 40 123 200 40 123 200 40 123 200 40 123 200 40 123 200 40 123 200 40 123 200 40 123 200 40 123 200 40 123 200 40 123 200 40 123 200 40 123 200 40 123 200 40 123 200 40 123 200 40 123 200 40 123 200 40 123 200 40 123 200 40 123 200 40 123 200 40 123 200 40 123 200 40 123 200 40 123 200 40 123 200 40 123 200 40 123 200 40 123 200 40 123 200 40 123 200 40 123 200 40 123 200 40 123 200 40 123 200 40 123 200 40 123 200 40 123 200 40 123 200 40 123 200 40 123 200 40 123 200 40 123 200 40 123 200 40 123 200 40 123 200 40 123 200 40 123 200 40 123 200 40 123 200 40 123 200 40 123 200 40 123 200 40 123 200 40 123 200 40 123 200 40 123 200 40 123 200 40 123 200 40 123 200 40 123 200 40 123 200 40 123 200 40 123 200 40 123 200 40 123 200 40 123 200 40 123 200 40 123 200 40 123 200 40 123 200 40 123 200 40 123 200 40 123 200 40 123 200 40 123 200 40 123 200 40 123 200 40 123 200 40 123 200 40 123 200 40 123 200 40 123 200 40 123 200 40 123 200 40 123 200 40 123 200 40 123 200 40 123 200 40 123 200 40 123 200 40 123 200 40 123 200 40 123 200 40 123 200 40 123 200 40 123 200 40 123 200 40 123 200 40 123 200 40 123 200 40 123 200 40 123 200 40 123 200 40 123 200 40 123 200 40 123 200 40 123 200 40 123 200 40 123 200 40 123 200 40 123 200 40 106 125 76 106 125 76 106 125 76 106 125 76 106 125 76 106 125 76 106 125 76 106 125 76 106 125 76 106 125 76 106 125 76 106 125 76 106 125 76 106 125 76 106 125 76 106 125 76 106 125 76 106 125 76 106 125 76 106 125 76 106 125 76 106 125 76 106 125 76 106 125 76 106 125 76 106 125 76 106 125 76 106 125 76 106 125 76 106 125 76 106 125 76 106 125 76 106 125 76 106 125 76 106 125 76 106 125 76 106 125 76 106 125 76 106 125 76 106 125 76 106 125 76 106 125 76 106 125 76 106 125 76 106 125 76 106 125 76 106 125 76 106 125 76 106 125 76 106 125 76 106 125 76 106 125 76 106 125 76 106 125 76 106 125 76 106 125 76 106 125 76 106 125 76 106 125 76 106 125 76 106 125 76 106 125 76 106 125 76 106 125 76 106 125 76 106 125 76 106 125 76 106 125 76 106 125 76 106 125 76 106 125 76 106 125 76 106 125 76 106 125 76 106 125 76 106 125 76 106 125 76 106 125 76 106 125 76 106 125 76 106 125 76 106 125 76 106 125 76 106 125 76 106 125 76 106 125 76 106 125 76 106 125 76 106 125 76 106 125 76 106 125 76 106 125 76 106 125 76 106 125 76 106 125 76 106 125 76 106 125 76 106 125 76 106 125 76 106 125 76 106 125 76 106 125 76 106 125 76 106 125 76 106 125 76 106 125 76 106 125 76 106 125 76 106 125 76 106 125 76 106 125 76 106 125 76 106 125 76 106 125 76 106 125 76 106 125 76 106 125 76 106 125 76 106 125 76 106 125 76 106 125 76 106 125 76 106 125 76 106 125 76 106 125 76 106 125 76 106 125 76 106 125 76 106 125 76 106 125 76 106 125 76 106 125 76 106 125 76 106 125 76 106 125 76 106 125 76 106 125 76 106 125 76 106 125 76 106 125 76 106 125 76 106 125 76 106 125 76 106 125 76 106 125 76 106 125 76 106 125 76 106 125 76 106 125 76 106 125 76 106 125 76 106 125 76 106 125 76 106 125 76 106 125 76 106 125 76 106 125 76 106 125 76 106 125 76 106 125 76 106 125 76 106 125 76 106 125 76 106 125 76 106 125 76 106 125 76 106 125 76 106 125 76 106 125 76 106 125 76 106 125 76 106 125 76 106 125 76 106 125 76 106 125 76 106 125 76 106 125 76 106 125 76 106 125 76 106 125 76 106 125 76 106 125 76 106 125 76 106 125 76 106 125 76 106 125 76 106 125 76 106 125 76 106 125 76 106 125 76 106 125 76 106 125 76 106 125 76 106 125 76 106 125 76 106 125 76 106 125 76 106 125 76 106 125 76 106 125 76 123 200 40 123 200 40 123 200 40 123 200 40 123 200 40 123 200 40 123 200 40 123 200 40 123 200 40 123 200 40 123 200 40 123 200 40 123 200 40 123 200 40 123 200 40 123 200 40 123 200 40 123 200 40 123 200 40 123 200 40 123 200 40 123 200 40 123 200 40 123 200 40 123 200 40 123 200 40 123 200 40 123 200 40 123 200 40 123 200 40 123 200 40 123 200 40 123 200 40 123 200 40 123 200 40 123 200 40 123 200 40 123 200 40 123 200 40 123 200 40 123 200 40 123 200 40 123 200 40 123 200 40 123 200 40 123 200 40 123 200 40 123 200 40 123 200 40 123 200 40 123 200 40 123 200 40 123 200 40 123 200 40 123 200 40 123 200 40 123 200 40 123 200 40 123 200 40 123 200 40 123 200 40 123 200 40 123 200 40 123 200 40 123 200 40 123 200 40 123 200 40 123 200 40 123 200 40 123 200 40 123 200 40 123 200 40 123 200 40 123 200 40 123 200 40 123 200 40 123 200 40 123 200 40 123 200 40 123 200 40 123 200 40 123 200 40 123 200 40 123 200 40 123 200 40 123 200 40 123 200 40 123 200 40 123 200 40 123 200 40 123 200 40 123 200 40 123 200 40 123 200 40 123 200 40 123 200 40 123 200 40 123 200 40 123 200 40 123 200 40 123 200 40 123 200 40 123 200 40 123 200 40 123 200 40 123 200 40 123 200 40 123 200 40 123 200 40 123 200 40 123 200 40 123 200 40 123 200 40 123 200 40 123 200 40 123 200 40 123 200 40 123 200 40 123 200 40 123 200 40 123 200 40 123 200 40 123 200 40 123 200 40 123 200 40 123 200 40 123 200 40 123 200 40 123 200 40 123 200 40 123 200 40 123 200 40 123 200 40 123 200 40 123 200 40 123 200 40 123 200 40 123 200 40 123 200 40 123 200 40 123 200 40 123 200 40 123 200 40 123 200 40 123 200 40 123 200 40 123 200 40 123 200 40 123 200 40 123 200 40 123 200 40 123 200 40 123 200 40 123 200 40 123 200 40 123 200 40 123 200 40 123 200 40 123 200 40 123 200 40 123 200 40 123 200 40 123 200 40 123 200 40 123 200 40 123 200 40 123 200 40 123 200 40 123 200 40 123 200 40 123 200 40 123 200 40 123 200 40 123 200 40 123 200 40 123 200 40 123 200 40 123 200 40 123 200 40 123 200 40 123 200 40 123 200 40 123 200 40 123 200 40 123 200 40 123 200 40 123 200 40 123 200 40 123 200 40 123 200 40 123 200 40 123 200 40 123 200 40 123 200 40 123 200 40 123 200 40 123 200 40 123 200 40 123 200 40 123 200 40 184 142 171 184 142 171 184 142 171 184 142 171 184 142 171 184 142 171 184 142 171 184 142 171 184 142 171 184 142 171 184 142 171 184 142 171 184 142 171 184 142 171 184 142 171 184 142 171 184 142 171 184 142 171 184 142 171 184 142 171 184 142 171 184 142 171 184 142 171 184 142 171 184 142 171 184 142 171 184 142 171 184 142 171 184 142 171 184 142 171 184 142 171 184 142 171 184 142 171 184 142 171 184 142 171 184 142 171 184 142 171 184 142 171 184 142 171 184 142 171 184 142 171 184 142 171 184 142 171 184 142 171 184 142 171 184 142 171 184 142 171 184 142 171 184 142 171 184 142 171 184 142 171 184 142 171 184 142 171 184 142 171 184 142 171 184 142 171 184 142 171 184 142 171 184 142 171 184 142 171 184 142 171 184 142 171 184 142 171 184 142 171 184 142 171 184 142 171 184 142 171 184 142 171 184 142 171 184 142 171 184 142 171 184 142 171 184 142 171 184 142 171 184 142 171 184 142 171 184 142 171 184 142 171 184 142 171 184 142 171 184 142 171 184 142 171 184 142 171 184 142 171 184 142 171 184 142 171 184 142 171 184 142 171 184 142 171 184 142 171 184 142 171 184 142 171 184 142 171 184 142 171 184 142 171 184 142 171 184 142 171 184 142 171 184 142 171 184 142 171 184 142 171 184 142 171 184 142 171 184 142 171 184 142 171 184 142 171 184 142 171 184 142 171 184 142 171 184 142 171 184 142 171 184 142 171 184 142 171 184 142 171 184 142 171 184 142 171 184 142 171 184 142 171 184 142 171 184 142 171 184 142 171 184 142 171 184 142 171 184 142 171 184 142 171 184 142 171 184 142 171 184 142 171 184 142 171 184 142 171 184 142 171 184 142 171 184 142 171 184 142 171 184 142 171 184 142 171 184 142 171 184 142 171 184 142 171 184 142 171 184 142 171 184 142 171 184 142 171 184 142 171 184 142 171 184 142 171 184 142 171 184 142 171 184 142 171 184 142 171 184 142 171 184 142 171 184 142 171 184 142 171 184 142 171 184 142 171 184 142 171 184 142 171 184 142 171 184 142 171 184 142 171 184 142 171 184 142 171 184 142 171 184 142 171 184 142 171 184 142 171 184 142 171 184 142 171 184 142 171 184 142 171 184 142 171 184 142 171 184 142 171 184 142 171 184 142 171 184 142 171 184 142 171 184 142 171 184 142 171 184 142 171 184 142 171 184 142 171 184 142 171 184 142 171 184 142 171 184 142 171 184 142 171 184 142 171 184 142 171 184 142 171 184 142 171 184 142 171 184 142 171 184 142 171 184 142 171 184 142 171 184 142 171 184 142 171 184 142 171 123 200 40 123 200 40 123 200 40 123 200 40 123 200 40 123 200 40 123 200 40 123 200 40 123 200 40 123 200 40 123 200 40 123 200 40 123 200 40 123 200 40 123 200 40 123 200 40 123 200 40 123 200 40 123 200 40 123 200 40 123 200 40 123 200 40 123 200 40 123 200 40 123 200 40 123 200 40 123 200 40 123 200 40 123 200 40 123 200 40 123 200 40 123 200 40 123 200 40 123 200 40 123 200 40 123 200 40 123 200 40 123 200 40 123 200 40 123 200 40 123 200 40 123 200 40 123 200 40 123 200 40 123 200 40 123 200 40 123 200 40 123 200 40 123 200 40 123 200 40 123 200 40 123 200 40 123 200 40 123 200 40 123 200 40 123 200 40 123 200 40 123 200 40 123 200 40 123 200 40 123 200 40 123 200 40 123 200 40 123 200 40 123 200 40 123 200 40 123 200 40 123 200 40 123 200 40 123 200 40 123 200 40 123 200 40 123 200 40 123 200 40 123 200 40 123 200 40 123 200 40 123 200 40 123 200 40 123 200 40 123 200 40 123 200 40 123 200 40 123 200 40 123 200 40 123 200 40 123 200 40 123 200 40 123 200 40 123 200 40 123 200 40 123 200 40 123 200 40 123 200 40 123 200 40 123 200 40 123 200 40 123 200 40 123 200 40 123 200 40 123 200 40 123 200 40 123 200 40 123 200 40 123 200 40 123 200 40 123 200 40 123 200 40 123 200 40 123 200 40 123 200 40 123 200 40 123 200 40 123 200 40 123 200 40 123 200 40 123 200 40 123 200 40 123 200 40 123 200 40 123 200 40 123 200 40 123 200 40 123 200 40 123 200 40 123 200 40 123 200 40 123 200 40 123 200 40 123 200 40 123 200 40 123 200 40 123 200 40 123 200 40 123 200 40 123 200 40 123 200 40 123 200 40 123 200 40 123 200 40 123 200 40 123 200 40 123 200 40 123 200 40 123 200 40 123 200 40 123 200 40 123 200 40 123 200 40 123 200 40 123 200 40 123 200 40 123 200 40 123 200 40 123 200 40 123 200 40 123 200 40 123 200 40 123 200 40 123 200 40 123 200 40 123 200 40 123 200 40 123 200 40 123 200 40 123 200 40 123 200 40 123 200 40 123 200 40 123 200 40 123 200 40 123 200 40 123 200 40 123 200 40 123 200 40 123 200 40 123 200 40 123 200 40 123 200 40 123 200 40 123 200 40 123 200 40 123 200 40 123 200 40 123 200 40 123 200 40 123 200 40 123 200 40 123 200 40 123 200 40 123 200 40 123 200 40 123 200 40 123 200 40 123 200 40 123 200 40 123 200 40 123 200 40 123 200 40 123 200 40 9 229 119 9 229 119 9 229 119 9 229 119 9 229 119 9 229 119 9 229 119 9 229 119 9 229 119 9 229 119 9 229 119 9 229 119 9 229 119 9 229 119 9 229 119 9 229 119 9 229 119 9 229 119 9 229 119 9 229 119 9 229 119 9 229 119 9 229 119 9 229 119 9 229 119 9 229 119 9 229 119 9 229 119 9 229 119 9 229 119 9 229 119 9 229 119 9 229 119 9 229 119 9 229 119 9 229 119 9 229 119 9 229 119 9 229 119 9 229 119 9 229 119 9 229 119 9 229 119 9 229 119 9 229 119 9 229 119 9 229 119 9 229 119 9 229 119 9 229 119 9 229 119 9 229 119 9 229 119 9 229 119 9 229 119 9 229 119 9 229 119 9 229 119 9 229 119 9 229 119 9 229 119 9 229 119 9 229 119 9 229 119 9 229 119 9 229 119 9 229 119 9 229 119 9 229 119 9 229 119 9 229 119 9 229 119 9 229 119 9 229 119 9 229 119 9 229 119 9 229 119 9 229 119 9 229 119 9 229 119 9 229 119 9 229 119 9 229 119 9 229 119 9 229 119 9 229 119 9 229 119 9 229 119 9 229 119 9 229 119 9 229 119 9 229 119 9 229 119 9 229 119 9 229 119 9 229 119 9 229 119 9 229 119 9 229 119 9 229 119 9 229 119 9 229 119 9 229 119 9 229 119 9 229 119 9 229 119 9 229 119 9 229 119 9 229 119 9 229 119 9 229 119 9 229 119 9 229 119 9 229 119 9 229 119 9 229 119 9 229 119 9 229 119 9 229 119 9 229 119 9 229 119 9 229 119 9 229 119 9 229 119 9 229 119 9 229 119 9 229 119 9 229 119 9 229 119 9 229 119 9 229 119 9 229 119 9 229 119 9 229 119 9 229 119 9 229 119 9 229 119 9 229 119 9 229 119 9 229 119 9 229 119 9 229 119 9 229 119 9 229 119 9 229 119 9 229 119 9 229 119 9 229 119 9 229 119 9 229 119 9 229 119 9 229 119 9 229 119 9 229 119 9 229 119 9 229 119 9 229 119 9 229 119 9 229 119 9 229 119 9 229 119 9 229 119 9 229 119 9 229 119 9 229 119 9 229 119 9 229 119 9 229 119 9 229 119 9 229 119 9 229 119 9 229 119 9 229 119 9 229 119 9 229 119 9 229 119 9 229 119 9 229 119 9 229 119 9 229 119 9 229 119 9 229 119 9 229 119 9 229 119 9 229 119 9 229 119 9 229 119 9 229 119 9 229 119 9 229 119 9 229 119 9 229 119 9 229 119 9 229 119 9 229 119 9 229 119 9 229 119 9 229 119 9 229 119 9 229 119 123 200 40 123 200 40 123 200 40 123 200 40 123 200 40 123 200 40 123 200 40 123 200 40 123 200 40 123 200 40 123 200 40 123 200 40 123 200 40 123 200 40 123 200 40 123 200 40 123 200 40 123 200 40 123 200 40 123 200 40 123 200 40 123 200 40 123 200 40 123 200 40 123 200 40 123 200 40 123 200 40 123 200 40 123 200 40 123 200 40 123 200 40 123 200 40 123 200 40 123 200 40 123 200 40 123 200 40 123 200 40 123 200 40 123 200 40 123 200 40 123 200 40 123 200 40 123 200 40 123 200 40 123 200 40 123 200 40 123 200 40 123 200 40 123 200 40 123 200 40 123 200 40 123 200 40 123 200 40 123 200 40 123 200 40 123 200 40 123 200 40 123 200 40 123 200 40 123 200 40 123 200 40 123 200 40 123 200 40 123 200 40 123 200 40 123 200 40 123 200 40 123 200 40 123 200 40 123 200 40 123 200 40 123 200 40 123 200 40 123 200 40 123 200 40 123 200 40 123 200 40 123 200 40 123 200 40 123 200 40 123 200 40 123 200 40 123 200 40 123 200 40 123 200 40 123 200 40 123 200 40 123 200 40 123 200 40 123 200 40 123 200 40 123 200 40 123 200 40 123 200 40 123 200 40 123 200 40 123 200 40 123 200 40 123 200 40 123 200 40 123 200 40 123 200 40 123 200 40 123 200 40 123 200 40 123 200 40 123 200 40 123 200 40 123 200 40 123 200 40 123 200 40 123 200 40 123 200 40 123 200 40 123 200 40 123 200 40 123 200 40 123 200 40 123 200 40 123 200 40 123 200 40 123 200 40 123 200 40 123 200 40 123 200 40 123 200 40 123 200 40 123 200 40 123 200 40 123 200 40 123 200 40 123 200 40 123 200 40 123 200 40 123 200 40 123 200 40 123 200 40 123 200 40 123 200 40 123 200 40 123 200 40 123 200 40 123 200 40 123 200 40 123 200 40 123 200 40 123 200 40 123 200 40 123 200 40 123 200 40 123 200 40 123 200 40 123 200 40 123 200 40 123 200 40 123 200 40 123 200 40 123 200 40 123 200 40 123 200 40 123 200 40 123 200 40 123 200 40 123 200 40 123 200 40 123 200 40 123 200 40 123 200 40 123 200 40 123 200 40 123 200 40 123 200 40 123 200 40 123 200 40 123 200 40 123 200 40 123 200 40 123 200 40 123 200 40 123 200 40 123 200 40 123 200 40 123 200 40 123 200 40 123 200 40 123 200 40 123 200 40 123 200 40 123 200 40 123 200 40 123 200 40 123 200 40 123 200 40 123 200 40 123 200 40 123 200 40 123 200 40 123 200 40 123 200 40 123 200 40 161 235 49 161 235 49 161 235 49 161 235 49 161 235 49 161 235 49 161 235 49 161 235 49 161 235 49 161 235 49 161 235 49 161 235 49 161 235 49 161 235 49 161 235 49 161 235 49 161 235 49 161 235 49 161 235 49 161 235 49 161 235 49 161 235 49 161 235 49 161 235 49 161 235 49 161 235 49 161 235 49 161 235 49 161 235 49 161 235 49 161 235 49 161 235 49 161 235 49 161 235 49 161 235 49 161 235 49 161 235 49 161 235 49 161 235 49 161 235 49 161 235 49 161 235 49 161 235 49 161 235 49 161 235 49 161 235 49 161 235 49 161 235 49 161 235 49 161 235 49 161 235 49 161 235 49 161 235 49 161 235 49 161 235 49 161 235 49 161 235 49 161 235 49 161 235 49 161 235 49 161 235 49 161 235 49 161 235 49 161 235 49 161 235 49 161 235 49 161 235 49 161 235 49 161 235 49 161 235 49 161 235 49 161 235 49 161 235 49 161 235 49 161 235 49 161 235 49 161 235 49 161 235 49 161 235 49 161 235 49 161 235 49 161 235 49 161 235 49 161 235 49 161 235 49 161 235 49 161 235 49 161 235 49 161 235 49 161 235 49 161 235 49 161 235 49 161 235 49 161 235 49 161 235 49 161 235 49 161 235 49 161 235 49 161 235 49 161 235 49 161 235 49 161 235 49 161 235 49 161 235 49 161 235 49 161 235 49 161 235 49 161 235 49 161 235 49 161 235 49 161 235 49 161 235 49 161 235 49 161 235 49 161 235 49 161 235 49 161 235 49 161 235 49 161 235 49 161 235 49 161 235 49 161 235 49 161 235 49 161 235 49 161 235 49 161 235 49 161 235 49 161 235 49 161 235 49 161 235 49 161 235 49 161 235 49 161 235 49 161 235 49 161 235 49 161 235 49 161 235 49 161 235 49 161 235 49 161 235 49 161 235 49 161 235 49 161 235 49 161 235 49 161 235 49 161 235 49 161 235 49 161 235 49 161 235 49 161 235 49 161 235 49 161 235 49 161 235 49 161 235 49 161 235 49 161 235 49 161 235 49 161 235 49 161 235 49 161 235 49 161 235 49 161 235 49 161 235 49 161 235 49 161 235 49 161 235 49 161 235 49 161 235 49 161 235 49 161 235 49 161 235 49 161 235 49 161 235 49 161 235 49 161 235 49 161 235 49 161 235 49 161 235 49 161 235 49 161 235 49 161 235 49 161 235 49 161 235 49 161 235 49 161 235 49 161 235 49 161 235 49 161 235 49 161 235 49 161 235 49 161 235 49 161 235 49 161 235 49 161 235 49 161 235 49 161 235 49 161 235 49 161 235 49 161 235 49 161 235 49 123 200 40 123 200 40 123 200 40 123 200 40 123 200 40 123 200 40 123 200 40 123 200 40 123 200 40 123 200 40 123 200 40 123 200 40 123 200 40 123 200 40 123 200 40 123 200 40 123 200 40 123 200 40 123 200 40 123 200 40 123 200 40 123 200 40 123 200 40 123 200 40 123 200 40 123 200 40 123 200 40 123 200 40 123 200 40 123 200 40 123 200 40 123 200 40 123 200 40 123 200 40 123 200 40 123 200 40 123 200 40 123 200 40 123 200 40 123 200 40 123 200 40 123 200 40 123 200 40 123 200 40 123 200 40 123 200 40 123 200 40 123 200 40 123 200 40 123 200 40 123 200 40 123 200 40 123 200 40 123 200 40 123 200 40 123 200 40 123 200 40 123 200 40 123 200 40 123 200 40 123 200 40 123 200 40 123 200 40 123 200 40 123 200 40 123 200 40 123 200 40 123 200 40 123 200 40 123 200 40 123 200 40 123 200 40 123 200 40 123 200 40 123 200 40 123 200 40 123 200 40 123 200 40 123 200 40 123 200 40 123 200 40 123 200 40 123 200 40 123 200 40 123 200 40 123 200 40 123 200 40 123 200 40 123 200 40 123 200 40 123 200 40 123 200 40 123 200 40 123 200 40 123 200 40 123 200 40 123 200 40 123 200 40 123 200 40 123 200 40 123 200 40 123 200 40 123 200 40 123 200 40 123 200 40 123 200 40 123 200 40 123 200 40 123 200 40 123 200 40 123 200 40 123 200 40 123 200 40 123 200 40 123 200 40 123 200 40 123 200 40 123 200 40 123 200 40 123 200 40 123 200 40 123 200 40 123 200 40 123 200 40 123 200 40 123 200 40 123 200 40 123 200 40 123 200 40 123 200 40 123 200 40 123 200 40 123 200 40 123 200 40 123 200 40 123 200 40 123 200 40 123 200 40 123 200 40 123 200 40 123 200 40 123 200 40 123 200 40 123 200 40 123 200 40 123 200 40 123 200 40 123 200 40 123 200 40 123 200 40 123 200 40 123 200 40 123 200 40 123 200 40 123 200 40 123 200 40 123 200 40 123 200 40 123 200 40 123 200 40 123 200 40 123 200 40 123 200 40 123 200 40 123 200 40 123 200 40 123 200 40 123 200 40 123 200 40 123 200 40 123 200 40 123 200 40 123 200 40 123 200 40 123 200 40 123 200 40 123 200 40 123 200 40 123 200 40 123 200 40 123 200 40 123 200 40 123 200 40 123 200 40 123 200 40 123 200 40 123 200 40 123 200 40 123 200 40 123 200 40 123 200 40 123 200 40 123 200 40 123 200 40 123 200 40 123 200 40 123 200 40 123 200 40 123 200 40 123 200 40 35 95 81 35 95 81 35 95 81 35 95 81 35 95 81 35 95 81 35 95 81 35 95 81 35 95 81 35 95 81 35 95 81 35 95 81 35 95 81 35 95 81 35 95 81 35 95 81 35 95 81 35 95 81 35 95 81 35 95 81 35 95 81 35 95 81 35 95 81 35 95 81 35 95 81 35 95 81 35 95 81 35 95 81 35 95 81 35 95 81 35 95 81 35 95 81 35 95 81 35 95 81 35 95 81 35 95 81 35 95 81 35 95 81 35 95 81 35 95 81 35 95 81 35 95 81 35 95 81 35 95 81 35 95 81 35 95 81 35 95 81 35 95 81 35 95 81 35 95 81 35 95 81 35 95 81 35 95 81 35 95 81 35 95 81 35 95 81 35 95 81 35 95 81 35 95 81 35 95 81 35 95 81 35 95 81 35 95 81 35 95 81 35 95 81 35 95 81 35 95 81 35 95 81 35 95 81 35 95 81 35 95 81 35 95 81 35 95 81 35 95 81 35 95 81 35 95 81 35 95 81 35 95 81 35 95 81 35 95 81 35 95 81 35 95 81 35 95 81 35 95 81 35 95 81 35 95 81 35 95 81 35 95 81 35 95 81 35 95 81 35 95 81 35 95 81 35 95 81 35 95 81 35 95 81 35 95 81 35 95 81 35 95 81 35 95 81 35 95 81 35 95 81 35 95 81 35 95 81 35 95 81 35 95 81 35 95 81 35 95 81 35 95 81 35 95 81 35 95 81 35 95 81 35 95 81 35 95 81 35 95 81 35 95 81 35 95 81 35 95 81 35 95 81 35 95 81 35 95 81 35 95 81 35 95 81 35 95 81 35 95 81 35 95 81 35 95 81 35 95 81 35 95 81 35 95 81 35 95 81 35 95 81 35 95 81 35 95 81 35 95 81 35 95 81 35 95 81 35 95 81 35 95 81 35 95 81 35 95 81 35 95 81 35 95 81 35 95 81 35 95 81 35 95 81 35 95 81 35 95 81 35 95 81 35 95 81 35 95 81 35 95 81 35 95 81 35 95 81 35 95 81 35 95 81 35 95 81 35 95 81 35 95 81 35 95 81 35 95 81 35 95 81 35 95 81 35 95 81 35 95 81 35 95 81 35 95 81 35 95 81 35 95 81 35 95 81 35 95 81 35 95 81 35 95 81 35 95 81 35 95 81 35 95 81 35 95 81 35 95 81 35 95 81 35 95 81 35 95 81 35 95 81 35 95 81 35 95 81 35 95 81 35 95 81 35 95 81 35 95 81 35 95 81 35 95 81 35 95 81 35 95 81 35 95 81 35 95 81 35 95 81 35 95 81 35 95 81 35 95 81 35 95 81 35 95 81 35 95 81 123 200 40 123 200 40 123 200 40 123 200 40 123 200 40 123 200 40 123 200 40 123 200 40 123 200 40 123 200 40 123 200 40 123 200 40 123 200 40 123 200 40 123 200 40 123 200 40 123 200 40 123 200 40 123 200 40 123 200 40 123 200 40 123 200 40 123 200 40 123 200 40 123 200 40 123 200 40 123 200 40 123 200 40 123 200 40 123 200 40 123 200 40 123 200 40 123 200 40 123 200 40 123 200 40 123 200 40 123 200 40 123 200 40 123 200 40 123 200 40 123 200 40 123 200 40 123 200 40 123 200 40 123 200 40 123 200 40 123 200 40 123 200 40 123 200 40 123 200 40 123 200 40 123 200 40 123 200 40 123 200 40 123 200 40 123 200 40 123 200 40 123 200 40 123 200 40 123 200 40 123 200 40 123 200 40 123 200 40 123 200 40 123 200 40 123 200 40 123 200 40 123 200 40 123 200 40 123 200 40 123 200 40 123 200 40 123 200 40 123 200 40 123 200 40 123 200 40 123 200 40 123 200 40 123 200 40 123 200 40 123 200 40 123 200 40 123 200 40 123 200 40 123 200 40 123 200 40 123 200 40 123 200 40 123 200 40 123 200 40 123 200 40 123 200 40 123 200 40 123 200 40 123 200 40 123 200 40 123 200 40 123 200 40 123 200 40 123 200 40 123 200 40 123 200 40 123 200 40 123 200 40 123 200 40 123 200 40 123 200 40 123 200 40 123 200 40 123 200 40 123 200 40 123 200 40 123 200 40 123 200 40 123 200 40 123 200 40 123 200 40 123 200 40 123 200 40 123 200 40 123 200 40 123 200 40 123 200 40 123 200 40 123 200 40 123 200 40 123 200 40 123 200 40 123 200 40 123 200 40 123 200 40 123 200 40 123 200 40 123 200 40 123 200 40 123 200 40 123 200 40 123 200 40 123 200 40 123 200 40 123 200 40 123 200 40 123 200 40 123 200 40 123 200 40 123 200 40 123 200 40 123 200 40 123 200 40 123 200 40 123 200 40 123 200 40 123 200 40 123 200 40 123 200 40 123 200 40 123 200 40 123 200 40 123 200 40 123 200 40 123 200 40 123 200 40 123 200 40 123 200 40 123 200 40 123 200 40 123 200 40 123 200 40 123 200 40 123 200 40 123 200 40 123 200 40 123 200 40 123 200 40 123 200 40 123 200 40 123 200 40 123 200 40 123 200 40 123 200 40 123 200 40 123 200 40 123 200 40 123 200 40 123 200 40 123 200 40 123 200 40 123 200 40 123 200 40 123 200 40 123 200 40 123 200 40 123 200 40 123 200 40 123 200 40 123 200 40 123 200 40 123 200 40 123 200 40 123 200 40 54 151 74 54 151 74 54 151 74 54 151 74 54 151 74 54 151 74 54 151 74 54 151 74 54 151 74 54 151 74 54 151 74 54 151 74 54 151 74 54 151 74 54 151 74 54 151 74 54 151 74 54 151 74 54 151 74 54 151 74 54 151 74 54 151 74 54 151 74 54 151 74 54 151 74 54 151 74 54 151 74 54 151 74 54 151 74 54 151 74 54 151 74 54 151 74 54 151 74 54 151 74 54 151 74 54 151 74 54 151 74 54 151 74 54 151 74 54 151 74 54 151 74 54 151 74 54 151 74 54 151 74 54 151 74 54 151 74 54 151 74 54 151 74 54 151 74 54 151 74 54 151 74 54 151 74 54 151 74 54 151 74 54 151 74 54 151 74 54 151 74 54 151 74 54 151 74 54 151 74 54 151 74 54 151 74 54 151 74 54 151 74 54 151 74 54 151 74 54 151 74 54 151 74 54 151 74 54 151 74 54 151 74 54 151 74 54 151 74 54 151 74 54 151 74 54 151 74 54 151 74 54 151 74 54 151 74 54 151 74 54 151 74 54 151 74 54 151 74 54 151 74 54 151 74 54 151 74 54 151 74 54 151 74 54 151 74 54 151 74 54 151 74 54 151 74 54 151 74 54 151 74 54 151 74 54 151 74 54 151 74 54 151 74 54 151 74 54 151 74 54 151 74 54 151 74 54 151 74 54 151 74 54 151 74 54 151 74 54 151 74 54 151 74 54 151 74 54 151 74 54 151 74 54 151 74 54 151 74 54 151 74 54 151 74 54 151 74 54 151 74 54 151 74 54 151 74 54 151 74 54 151 74 54 151 74 54 151 74 54 151 74 54 151 74 54 151 74 54 151 74 54 151 74 54 151 74 54 151 74 54 151 74 54 151 74 54 151 74 54 151 74 54 151 74 54 151 74 54 151 74 54 151 74 54 151 74 54 151 74 54 151 74 54 151 74 54 151 74 54 151 74 54 151 74 54 151 74 54 151 74 54 151 74 54 151 74 54 151 74 54 151 74 54 151 74 54 151 74 54 151 74 54 151 74 54 151 74 54 151 74 54 151 74 54 151 74 54 151 74 54 151 74 54 151 74 54 151 74 54 151 74 54 151 74 54 151 74 54 151 74 54 151 74 54 151 74 54 151 74 54 151 74 54 151 74 54 151 74 54 151 74 54 151 74 54 151 74 54 151 74 54 151 74 54 151 74 54 151 74 54 151 74 54 151 74 54 151 74 54 151 74 54 151 74 54 151 74 54 151 74 54 151 74 54 151 74 54 151 74 54 151 74 54 151 74 54 151 74 54 151 74 54 151 74 54 151 74 54 151 74 54 151 74 54 151 74 54 151 74 123 200 40 123 200 40 123 200 40 123 200 40 123 200 40 123 200 40 123 200 40 123 200 40 123 200 40 123 200 40 123 200 40 123 200 40 123 200 40 123 200 40 123 200 40 123 200 40 123 200 40 123 200 40 123 200 40 123 200 40 123 200 40 123 200 40 123 200 40 123 200 40 123 200 40 123 200 40 123 200 40 123 200 40 123 200 40 123 200 40 123 200 40 123 200 40 123 200 40 123 200 40 123 200 40 123 200 40 123 200 40 123 200 40 123 200 40 123 200 40 123 200 40 123 200 40 123 200 40 123 200 40 123 200 40 123 200 40 123 200 40 123 200 40 123 200 40 123 200 40 123 200 40 123 200 40 123 200 40 123 200 40 123 200 40 123 200 40 123 200 40 123 200 40 123 200 40 123 200 40 123 200 40 123 200 40 123 200 40 123 200 40 123 200 40 123 200 40 123 200 40 123 200 40 123 200 40 123 200 40 123 200 40 123 200 40 123 200 40 123 200 40 123 200 40 123 200 40 123 200 40 123 200 40 123 200 40 123 200 40 123 200 40 123 200 40 123 200 40 123 200 40 123 200 40 123 200 40 123 200 40 123 200 40 123 200 40 123 200 40 123 200 40 123 200 40 123 200 40 123 200 40 123 200 40 123 200 40 123 200 40 123 200 40 123 200 40 123 200 40 123 200 40 123 200 40 123 200 40 123 200 40 123 200 40 123 200 40 123 200 40 123 200 40 123 200 40 123 200 40 123 200 40 123 200 40 123 200 40 123 200 40 123 200 40 123 200 40 123 200 40 123 200 40 123 200 40 123 200 40 123 200 40 123 200 40 123 200 40 123 200 40 123 200 40 123 200 40 123 200 40 123 200 40 123 200 40 123 200 40 123 200 40 123 200 40 123 200 40 123 200 40 123 200 40 123 200 40 123 200 40 123 200 40 123 200 40 123 200 40 123 200 40 123 200 40 123 200 40 123 200 40 123 200 40 123 200 40 123 200 40 123 200 40 123 200 40 123 200 40 123 200 40 123 200 40 123 200 40 123 200 40 123 200 40 123 200 40 123 200 40 123 200 40 123 200 40 123 200 40 123 200 40 123 200 40 123 200 40 123 200 40 123 200 40 123 200 40 123 200 40 123 200 40 123 200 40 123 200 40 123 200 40 123 200 40 123 200 40 123 200 40 123 200 40 123 200 40 123 200 40 123 200 40 123 200 40 123 200 40 123 200 40 123 200 40 123 200 40 123 200 40 123 200 40 123 200 40 123 200 40 123 200 40 123 200 40 123 200 40 123 200 40 123 200 40 123 200 40 123 200 40 123 200 40 123 200 40 123 200 40 123 200 40 123 200 40 123 200 40 54 207 203 54 207 203 54 207 203 54 207 203 54 207 203 54 207 203 54 207 203 54 207 203 54 207 203 54 207 203 54 207 203 54 207 203 54 207 203 54 207 203 54 207 203 54 207 203 54 207 203 54 207 203 54 207 203 54 207 203 54 207 203 54 207 203 54 207 203 54 207 203 54 207 203 54 207 203 54 207 203 54 207 203 54 207 203 54 207 203 54 207 203 54 207 203 54 207 203 54 207 203 54 207 203 54 207 203 54 207 203 54 207 203 54 207 203 54 207 203 54 207 203 54 207 203 54 207 203 54 207 203 54 207 203 54 207 203 54 207 203 54 207 203 54 207 203 54 207 203 54 207 203 54 207 203 54 207 203 54 207 203 54 207 203 54 207 203 54 207 203 54 207 203 54 207 203 54 207 203 54 207 203 54 207 203 54 207 203 54 207 203 54 207 203 54 207 203 54 207 203 54 207 203 54 207 203 54 207 203 54 207 203 54 207 203 54 207 203 54 207 203 54 207 203 54 207 203 54 207 203 54 207 203 54 207 203 54 207 203 54 207 203 54 207 203 54 207 203 54 207 203 54 207 203 54 207 203 54 207 203 54 207 203 54 207 203 54 207 203 54 207 203 54 207 203 54 207 203 54 207 203 54 207 203 54 207 203 54 207 203 54 207 203 54 207 203 54 207 203 54 207 203 54 207 203 54 207 203 54 207 203 54 207 203 54 207 203 54 207 203 54 207 203 54 207 203 54 207 203 54 207 203 54 207 203 54 207 203 54 207 203 54 207 203 54 207 203 54 207 203 54 207 203 54 207 203 54 207 203 54 207 203 54 207 203 54 207 203 54 207 203 54 207 203 54 207 203 54 207 203 54 207 203 54 207 203 54 207 203 54 207 203 54 207 203 54 207 203 54 207 203 54 207 203 54 207 203 54 207 203 54 207 203 54 207 203 54 207 203 54 207 203 54 207 203 54 207 203 54 207 203 54 207 203 54 207 203 54 207 203 54 207 203 54 207 203 54 207 203 54 207 203 54 207 203 54 207 203 54 207 203 54 207 203 54 207 203 54 207 203 54 207 203 54 207 203 54 207 203 54 207 203 54 207 203 54 207 203 54 207 203 54 207 203 54 207 203 54 207 203 54 207 203 54 207 203 54 207 203 54 207 203 54 207 203 54 207 203 54 207 203 54 207 203 54 207 203 54 207 203 54 207 203 54 207 203 54 207 203 54 207 203 54 207 203 54 207 203 54 207 203 54 207 203 54 207 203 54 207 203 54 207 203 54 207 203 54 207 203 54 207 203 54 207 203 54 207 203 54 207 203 54 207 203 54 207 203 54 207 203 54 207 203 54 207 203 54 207 203 