P3
 200 100
255
131 10 165 4 43 90 17 42 224 172 0 50 47 2 237 190 44 47 175 33 196 11 34 95 107 29 46 156 44 227 65 8 213 156 52 40 124 13 27 175 2 93 156 33 78 203 7 128 143 30 245 238 25 254 29 20 224 0 0 14 213 50 210 253 14 26 24 50 103 118 41 196 196 45 206 68 9 7 57 24 254 56 23 164 24 12 85 38 12 114 249 33 42 19 15 36 122 55 186 63 13 205 13 41 142 21 30 236 19 7 21 184 31 205 13 40 116 127 6 56 170 39 252 206 51 150 137 21 45 86 20 220 228 34 2 208 39 235 229 26 25 179 42 129 39 24 32 96 23 216 92 49 183 242 40 142 31 9 121 252 47 223 254 11 131 233 4 53 3 17 252 132 4 215 164 4 105 125 28 9 52 16 41 194 43 242 60 26 138 27 46 171 158 4 34 212 14 126 208 17 170 167 21 187 17 1 128 26 38 108 67 26 184 54 45 96 192 33 251 108 28 182 142 2 108 12 46 33 182 47 191 114 38 96 242 23 133 94 10 78 22 5 149 118 3 15 114 28 76 40 32 197 148 46 89 181 27 140 116 33 146 212 11 105 89 5 232 168 35 119 61 1 33 76 16 15 153 50 50 94 18 22 184 6 102 68 20 69 214 40 48 64 45 209 40 38 229 159 22 234 193 43 78 208 32 199 2 17 183 25 15 25 127 55 163 196 11 194 244 2 150 198 42 222 171 42 251 149 41 114 227 2 144 171 18 236 98 45 148 124 54 213 31 37 116 225 10 204 119 14 103 86 28 217 81 31 139 195 13 101 84 8 223 64 19 25 212 14 36 169 2 49 29 41 87 233 11 252 81 2 102 42 24 197 182 10 233 27 53 185 250 49 30 20 41 102 56 5 90 105 38 176 192 28 130 188 45 115 35 46 70 232 41 145 209 31 49 138 42 35 168 45 217 15 1 226 105 49 44 25 26 73 155 26 16 14 14 244 85 1 193 230 1 224 23 43 41 59 29 40 20 14 66 246 45 87 34 46 128 108 39 225 124 42 171 112 24 53 49 37 124 17 27 229 58 19 55 98 46 90 165 34 7 252 32 93 125 27 194 94 23 144 10 27 119 63 11 249 187 36 138 161 22 111 216 48 59 50 19 30 57 32 60 151 36 110 89 41 150 234 16 225 97 50 152 91 33 203 229 5 110 84 6 67 143 54 41 173 24 73 233 41 204 87 48 244 238 18 25 207 52 186 104 21 186 51 8 196 162 21 14 229 2 19 14 17 185 87 31 55 36 0 231 24 32 208 49 30 81 236 45 43 166 5 239 107 17 20 121 51 149 140 0 250 69 54 180 124 37 254 
99 9 245 51 26 213 132 43 13 175 31 51 158 30 41 179 33 134 72 34 23 66 22 74 247 43 98 245 39 136 234 34 6 191 53 167 205 18 97 0 17 77 41 32 36 176 11 162 199 19 139 18 45 237 116 52 219 253 41 14 3 27 189 170 51 207 12 8 21 89 48 223 125 50 88 32 34 112 171 41 59 153 11 78 116 16 164 131 21 240 64 24 50 16 2 93 37 54 72 4 39 0 92 29 185 205 37 155 8 40 45 87 17 134 251 46 242 235 25 210 29 49 175 123 41 143 195 38 25 196 42 176 125 31 159 24 20 12 69 4 153 203 43 210 189 14 163 143 26 233 62 31 178 205 2 188 231 46 213 151 42 20 54 7 86 67 47 245 220 28 97 174 15 214 82 37 161 59 36 104 238 51 26 170 0 233 127 47 52 147 30 66 234 5 20 223 24 99 65 28 202 23 43 118 184 13 237 32 40 34 58 22 231 36 8 234 88 24 186 154 35 114 174 29 192 17 37 69 219 38 13 81 5 178 62 53 5 97 14 170 72 40 138 50 36 89 236 44 209 94 14 201 31 28 85 100 5 202 114 8 31 36 33 181 41 40 98 211 9 200 93 17 78 182 43 14 136 47 243 81 6 47 166 29 6 113 9 138 144 27 32 70 39 144 168 16 82 112 11 82 190 25 179 205 47 92 192 47 55 239 1 254 245 31 36 128 8 105 160 41 19 48 39 46 130 47 110 212 8 214 135 46 18 227 19 171 26 3 250 25 43 210 61 24 251 167 48 202 186 32 11 232 1 220 86 27 243 45 40 178 63 31 226 234 19 209 228 45 140 182 30 8 177 36 115 124 19 211 135 5 180 99 5 52 86 4 229 8 41 25 235 16 33 188 10 176 72 38 35 80 53 177 195 22 87 151 34 59 75 41 198 127 52 11 101 50 57 126 11 189 159 54 110 79 42 94 115 34 56 36 35 246 123 54 107 183 45 146 125 16 52 137 40 94 194 29 234 127 27 205 237 2 184 75 41 142 131 20 32 121 16 250 229 12 37 119 43 20 171 0 153 9 17 106 244 27 186 193 18 111 121 31 162 7 10 116 39 21 149 33 47 42 71 52 226 91 19 22 244 6 1 94 0 106 24 36 91 135 21 15 41 38 65 157 53 97 51 12 203 93 45 185 63 4 32 86 15 108 87 36 47 193 26 157 29 27 21 44 10 129 109 28 174 206 1 84 154 36 1 83 1 213 115 9 203 223 55 7 14 30 159 171 32 43 193 21 21 66 49 24 241 54 163 69 21 87 71 31 168 28 34 45 231 21 14 239 28 47 142 34 166 185 29 117 206 54 5 231 33 178 
138 42 139 225 47 209 137 6 230 182 51 149 197 18 151 244 25 12 155 55 96 16 32 194 21 7 208 199 22 158 82 32 175 35 17 177 10 10 249 159 17 135 55 22 50 67 34 197 164 37 70 102 5 86 54 42 30 213 9 181 132 43 51 54 55 59 47 25 36 182 8 151 233 39 192 174 43 174 244 15 144 74 45 14 105 52 155 30 17 62 82 29 167 141 19 99 178 50 66 73 25 43 9 10 179 183 8 115 71 44 118 85 47 29 241 32 42 47 46 110 214 32 135 57 30 37 123 0 248 166 9 251 90 18 180 205 33 86 67 0 166 96 30 234 138 55 121 249 30 113 128 20 136 165 14 240 158 49 230 153 0 142 77 50 127 163 47 121 73 2 42 51 26 35 173 52 113 30 45 176 166 22 30 151 51 98 125 41 224 12 26 218 139 15 122 5 18 116 47 43 59 82 31 69 195 4 175 115 18 163 145 49 145 244 32 255 212 21 18 174 17 196 40 13 14 156 10 166 215 1 224 28 28 100 203 7 27 111 35 127 0 52 1 255 40 42 17 37 234 213 51 40 228 12 113 138 8 70 106 48 32 206 28 42 233 32 134 104 55 165 106 55 56 148 14 93 127 7 117 167 21 98 24 41 254 95 11 194 127 45 34 169 36 90 47 53 175 213 14 207 13 24 94 106 28 237 224 19 123 66 2 26 64 51 143 2 34 232 37 33 203 127 35 25 46 10 53 253 39 58 91 53 168 72 39 128 195 47 237 222 18 216 109 2 107 86 21 22 33 18 32 58 33 169 111 16 220 170 5 63 82 33 118 211 49 187 192 29 107 152 19 250 3 24 204 25 14 223 57 16 244 227 2 46 191 10 231 254 20 207 117 30 181 48 49 246 155 9 127 150 26 204 98 13 247 65 55 144 53 0 126 99 35 142 75 43 217 26 1 147 207 6 247 197 55 173 69 18 55 17 24 128 9 35 98 153 12 72 23 42 71 166 5 127 127 32 155 18 51 118 9 26 79 182 48 158 237 5 29 110 14 55 208 7 232 24 8 251 95 32 79 223 22 217 122 37 199 240 47 255 63 40 82 221 30 117 250 28 93 50 10 138 26 18 200 21 51 16 100 50 240 62 41 232 5 35 134 4 43 163 87 51 210 204 24 10 41 3 249 179 45 213 123 23 31 139 36 57 124 16 108 100 30 255 235 27 112 142 24 92 97 15 55 107 27 82 100 20 75 57 15 62 88 10 99 146 14 162 254 18 246 253 54 174 110 17 165 202 40 160 1 1 160 84 52 247 159 9 26 221 26 102 64 43 101 226 37 224 216 11 230 134 49 104 43 47 78 204 1 32 
108 34 128 100 46 65 126 45 109 229 18 254 74 10 201 42 28 236 16 52 161 120 27 84 199 22 5 231 34 36 103 7 13 168 35 248 21 33 54 20 22 20 221 1 206 201 19 201 106 52 165 190 28 90 196 43 149 232 42 251 246 25 46 238 33 205 36 47 208 56 35 81 7 32 184 208 17 105 117 35 68 207 1 48 100 5 149 96 38 192 142 28 211 91 10 76 43 30 110 124 23 165 52 30 240 157 6 24 226 19 9 18 51 100 167 15 125 104 15 91 59 45 33 135 40 221 245 35 135 154 48 85 138 44 92 162 10 106 171 4 72 15 22 156 141 22 191 232 46 70 9 9 46 230 8 163 109 6 116 194 48 111 31 27 231 137 5 148 210 9 222 110 32 10 45 21 72 115 21 46 161 54 124 69 36 5 185 17 22 40 28 28 16 19 188 164 20 231 130 6 181 140 28 46 212 33 182 3 13 204 127 22 201 133 35 208 155 12 188 183 53 22 115 13 50 91 33 109 16 51 49 62 55 200 244 51 204 192 6 254 138 6 163 90 3 233 22 46 117 44 29 185 94 0 38 203 27 163 253 43 196 197 41 103 145 30 150 143 38 154 50 48 160 28 2 38 145 33 49 74 45 215 113 12 52 20 47 5 217 44 48 64 9 108 215 27 229 113 42 83 17 45 130 56 9 58 105 42 77 65 44 118 117 37 203 122 34 127 171 27 255 23 19 123 252 26 189 80 27 144 210 29 242 12 53 135 89 14 56 207 15 122 155 29 7 26 39 4 25 18 22 149 33 1 82 54 45 226 30 47 212 24 163 92 12 40 148 30 229 15 5 11 22 0 115 26 11 80 49 12 167 50 9 170 95 35 195 143 21 217 50 34 63 90 22 119 63 34 188 74 41 90 189 15 199 13 50 208 181 11 243 95 5 47 34 13 1 252 28 36 59 6 42 179 8 4 111 39 58 201 1 4 144 39 222 96 36 205 83 9 215 131 40 18 132 11 128 168 15 77 210 26 169 214 37 55 16 20 31 21 45 70 243 46 183 192 46 230 152 34 35 170 29 20 42 17 101 119 1 216 32 4 71 87 42 241 118 43 79 188 8 27 116 35 177 90 11 215 125 27 93 146 38 55 247 32 148 207 8 117 22 32 255 7 16 91 86 6 141 114 11 208 35 47 40 250 25 115 87 39 127 143 25 34 35 24 112 153 7 233 152 53 217 243 52 233 128 43 81 81 13 48 121 24 203 237 34 218 108 49 67 142 32 42 255 36 163 232 53 19 193 37 82 170 48 167 252 0 4 44 9 183 247 35 220 209 32 36 20 52 102 63 50 255 226 25 40 246 49 116 
72 42 89 240 37 214 244 49 70 171 29 54 135 52 120 171 29 51 17 9 219 16 16 239 56 35 145 172 33 51 5 25 188 219 41 7 33 5 252 88 0 237 208 39 10 3 2 30 222 51 3 205 52 252 94 20 53 145 49 80 78 22 97 85 2 186 81 19 4 62 51 65 72 3 42 102 38 153 105 4 180 101 49 223 154 16 27 234 25 144 75 15 177 6 52 215 10 21 217 75 27 253 117 11 120 15 41 196 195 2 18 162 16 63 190 26 56 78 13 144 255 8 122 214 38 177 176 16 62 173 4 27 37 1 55 233 32 154 252 43 100 59 54 150 115 4 46 4 10 97 126 9 126 47 7 230 109 47 85 137 36 205 192 10 145 90 27 203 190 55 19 85 26 31 131 6 205 228 18 57 98 48 243 73 39 172 158 13 59 107 22 123 253 22 103 200 24 121 219 39 117 250 12 108 199 15 159 0 4 69 243 46 239 159 23 23 219 5 110 86 17 51 189 6 129 55 46 143 172 41 248 24 4 31 183 19 155 252 4 154 235 39 126 2 23 197 113 2 84 164 24 130 38 53 27 181 28 177 173 32 15 204 49 72 103 48 124 2 37 120 128 40 116 69 43 99 154 36 242 28 32 92 55 14 28 232 44 154 247 33 78 63 30 175 188 21 40 52 7 88 168 16 133 11 53 158 254 55 185 90 27 69 119 42 117 17 34 204 95 49 216 14 1 145 54 5 23 143 9 5 20 17 244 178 12 100 107 42 26 176 29 105 38 4 213 242 21 119 202 52 2 91 19 131 115 25 68 120 8 193 108 29 114 209 31 203 235 3 48 84 3 146 41 9 79 161 35 131 163 13 200 38 1 109 107 4 32 44 52 9 159 16 130 106 9 15 154 12 78 45 9 249 124 26 85 0 35 214 200 14 74 53 37 135 85 32 32 95 20 44 225 51 176 240 54 161 62 0 98 56 13 15 141 10 16 99 34 58 173 50 6 53 40 116 85 21 9 130 20 9 50 29 54 211 21 1 54 28 55 69 36 8 85 49 5 143 44 127 149 2 249 10 7 60 19 28 180 29 54 129 83 41 174 84 44 187 140 34 185 148 47 245 153 36 105 25 28 106 18 41 206 78 19 224 2 55 39 132 12 196 50 47 226 237 19 51 166 23 88 155 27 178 4 45 82 110 46 70 61 32 202 29 39 228 69 9 7 9 5 62 235 47 146 31 37 57 119 51 53 41 23 188 123 27 216 194 42 141 140 55 91 112 12 59 120 1 106 182 10 156 73 6 81 130 29 57 183 12 14 116 45 137 76 17 160 217 51 188 52 15 70 111 8 13 218 48 241 118 6 27 
199 47 77 0 10 107 14 9 168 152 53 92 56 41 58 244 18 147 58 46 174 71 54 85 57 24 109 84 38 253 161 29 68 13 30 211 181 20 229 18 36 175 76 29 236 223 1 118 141 20 216 226 43 111 80 12 117 77 24 85 145 34 171 101 47 200 74 20 230 249 6 19 230 50 215 92 1 212 52 46 198 163 33 242 24 25 101 109 54 18 24 16 18 225 53 180 199 7 99 218 1 200 178 15 62 134 35 1 76 7 162 62 19 209 164 11 226 182 9 67 200 17 241 125 42 49 224 26 214 168 44 198 231 22 175 232 13 126 138 33 169 91 16 8 61 36 11 128 2 39 114 50 176 163 47 81 122 40 212 64 48 30 239 7 66 109 23 25 22 26 118 30 5 31 42 35 7 81 27 147 1 21 213 82 33 224 38 43 103 68 43 207 135 50 224 160 7 215 22 45 183 53 3 33 61 13 230 208 14 233 166 55 109 134 26 98 237 24 251 189 21 14 157 28 97 116 12 163 43 26 82 76 47 23 51 4 251 28 5 8 137 35 103 236 17 198 231 54 120 246 3 81 87 40 110 251 29 18 77 8 86 101 13 176 96 24 63 104 4 12 207 6 169 150 42 236 14 41 181 95 7 107 205 7 223 223 34 239 53 23 116 229 4 37 37 36 34 49 21 82 218 28 158 198 42 116 123 17 54 230 32 224 197 54 127 181 21 118 41 43 104 78 48 168 112 53 76 194 22 81 97 0 190 213 22 250 12 49 205 236 8 174 107 53 238 226 18 252 74 28 234 242 34 13 63 35 21 144 13 67 78 38 161 72 36 218 21 32 216 195 52 82 178 31 178 174 33 215 152 36 178 165 30 182 187 21 8 254 29 203 159 35 81 121 52 55 82 9 243 164 21 187 86 23 111 45 21 143 223 14 144 149 51 220 158 30 27 105 44 152 186 44 166 242 29 1 229 7 165 161 11 95 16 33 220 159 15 11 48 14 232 12 4 94 39 2 122 192 43 80 102 14 37 103 8 153 13 5 134 108 22 198 72 39 169 83 30 227 59 14 74 154 11 144 20 50 108 100 26 230 137 24 202 34 24 104 169 5 248 111 49 109 24 33 132 251 36 171 69 39 113 214 9 104 66 13 107 41 26 149 243 3 128 91 6 208 83 31 136 192 46 77 68 14 126 239 26 247 97 39 195 201 37 203 52 40 108 201 17 34 73 28 60 26 15 223 162 2 165 240 18 20 110 31 242 102 22 233 41 47 219 244 48 18 97 52 32 131 22 112 191 15 233 158 9 85 68 4 28 88 28 54 75 18 16 52 32 47 15 26 62 33 22 173 65 39 230 177 10 82 
154 41 136 239 24 8 11 20 161 65 4 221 82 7 9 129 11 164 191 18 164 109 52 206 83 5 237 165 31 108 46 17 111 54 33 48 215 52 144 181 30 52 190 0 49 98 33 120 7 41 244 213 14 126 194 25 42 47 14 24 158 4 183 206 50 240 95 10 25 147 23 78 196 45 196 61 0 140 49 55 213 175 28 222 218 39 84 242 14 29 169 44 140 153 18 40 179 1 251 1 13 165 197 1 4 81 30 33 38 23 161 5 15 40 89 1 133 119 51 164 3 44 242 43 21 222 38 48 152 203 1 178 207 14 95 241 39 208 146 14 127 187 19 94 64 12 237 228 3 86 214 46 177 180 34 181 76 40 83 254 20 163 93 35 245 46 20 11 173 55 115 11 2 1 249 42 148 79 30 128 1 36 228 182 32 74 9 20 220 173 3 149 162 32 25 173 38 108 32 51 177 33 39 136 181 0 26 54 31 236 26 32 162 100 15 46 65 0 110 214 21 250 239 39 133 91 37 110 12 53 132 148 31 72 174 44 23 154 34 223 60 4 246 106 1 15 216 42 222 211 0 182 88 47 60 198 34 99 75 39 56 147 43 46 170 10 69 137 4 17 127 1 20 142 19 48 108 36 177 35 15 115 95 55 11 194 6 146 251 17 117 41 28 100 110 6 231 127 47 25 147 14 230 196 13 239 117 9 98 233 4 174 244 35 205 135 38 69 252 25 131 96 2 12 71 32 40 97 55 238 71 11 61 54 55 11 152 20 104 71 5 50 20 50 30 89 33 106 220 13 120 232 45 129 16 44 179 254 45 83 59 28 114 71 18 37 175 19 156 225 42 137 0 30 94 106 48 40 226 20 121 99 29 198 22 5 115 105 52 104 219 15 189 1 38 90 157 46 44 38 47 151 133 47 73 173 9 16 39 43 48 237 30 44 97 28 17 201 13 7 134 9 251 224 42 42 13 23 161 164 6 199 238 19 206 254 0 214 46 39 71 90 37 155 108 6 81 115 7 30 110 13 83 152 38 100 57 43 118 0 31 38 207 45 252 165 3 87 236 9 95 135 52 143 217 8 172 247 35 42 74 17 113 175 25 62 37 51 236 75 3 167 71 50 7 158 31 84 254 12 160 141 19 25 57 12 237 99 19 45 212 54 224 18 53 1 255 42 187 166 46 174 173 53 161 2 12 100 162 50 203 187 23 31 169 24 251 214 3 175 183 7 91 184 33 81 115 24 246 33 47 192 195 4 214 39 14 52 242 48 48 18 4 42 13 5 177 188 11 113 23 18 148 104 27 139 94 6 148 31 48 157 245 43 76 41 26 168 89 28 7 131 22 7 52 35 195 165 0 40 
57 55 100 196 8 86 89 30 1 246 29 32 66 3 96 234 44 99 241 30 141 249 1 169 188 14 216 229 3 19 73 13 11 159 49 27 161 18 147 193 40 105 33 26 95 132 5 74 17 30 94 186 39 204 146 36 190 166 9 228 177 10 175 204 41 180 95 34 126 201 35 160 40 4 185 114 16 19 208 9 88 157 12 143 91 30 190 63 4 170 238 54 123 163 26 149 33 42 79 193 3 169 122 19 197 142 13 1 230 37 194 117 26 147 52 21 31 222 36 62 90 19 2 239 22 120 62 7 187 232 8 93 173 35 200 174 17 91 112 39 96 4 21 53 35 41 168 97 39 117 100 25 130 220 17 125 151 47 27 244 47 218 188 52 90 23 27 85 119 11 222 173 15 78 85 51 51 202 52 76 76 32 67 201 21 149 228 52 214 190 33 85 25 45 189 110 13 209 77 12 148 155 25 200 206 38 255 26 41 90 93 29 23 242 7 55 200 35 52 30 10 201 219 51 82 172 49 151 65 38 244 9 25 201 8 31 74 99 25 33 122 23 194 177 1 175 230 50 102 175 16 2 1 19 92 152 55 207 141 8 176 86 41 223 160 18 168 193 29 64 131 15 241 51 48 0 153 22 2 155 45 204 247 54 180 198 7 119 119 44 230 86 18 151 254 42 80 62 12 18 48 23 55 48 34 214 50 52 39 254 23 93 178 31 67 41 13 41 16 4 168 167 26 180 247 49 22 10 31 25 65 15 221 24 48 36 63 18 159 156 17 179 223 43 98 9 5 9 177 13 119 102 4 91 124 3 150 149 45 207 114 31 70 151 15 238 54 6 198 233 50 208 75 42 217 85 43 149 204 36 122 39 34 111 189 15 11 140 44 158 211 55 60 193 54 27 135 4 18 87 13 72 49 48 26 198 29 204 64 49 135 175 17 244 186 38 198 88 35 21 148 14 250 175 15 81 193 30 63 9 37 99 36 38 112 240 44 200 120 4 118 108 43 239 50 37 144 72 30 239 66 50 218 147 18 152 210 43 23 53 21 29 165 1 122 109 49 9 227 41 93 211 29 242 99 32 53 82 8 51 44 42 137 196 21 115 219 55 13 248 4 105 115 9 206 124 30 87 217 18 208 203 45 194 1 16 31 52 11 175 189 47 135 48 44 161 62 23 78 167 32 205 117 51 129 204 47 218 156 32 161 94 28 75 126 5 200 45 41 168 181 54 219 86 22 59 165 36 95 114 11 94 244 24 86 206 4 193 111 1 168 186 39 105 130 53 245 43 3 130 6 8 67 65 38 193 160 3 111 255 54 92 85 2 239 23 16 248 191 48 204 40 42 61 29 29 13 159 40 90 
226 54 213 163 24 5 19 32 140 111 31 183 94 21 85 86 28 231 35 11 72 96 4 24 109 33 162 200 33 175 157 43 231 163 47 38 47 50 166 230 33 198 60 31 230 35 30 91 107 1 231 131 41 50 38 55 166 213 23 56 189 44 105 227 15 124 137 54 51 79 13 253 53 25 54 144 36 206 119 8 188 170 11 205 80 49 62 136 23 29 241 28 196 110 7 9 161 40 240 159 31 7 213 13 4 163 45 61 95 45 153 44 7 97 107 47 173 136 16 30 77 41 101 86 15 105 70 25 80 77 32 192 81 45 128 142 9 117 40 8 250 137 13 247 54 24 158 85 40 150 186 53 22 36 11 135 116 10 103 53 47 232 181 9 8 42 15 253 36 47 150 28 1 143 186 23 180 80 36 68 102 39 92 238 11 194 85 31 125 61 52 127 69 49 207 66 19 112 217 8 159 104 12 247 28 14 216 96 31 239 188 5 92 126 51 131 252 40 206 123 29 141 74 2 130 186 37 43 90 38 255 81 46 247 41 26 11 24 34 217 116 38 248 247 21 126 197 33 241 83 44 186 213 31 191 0 25 10 255 43 151 246 20 253 1 13 203 219 54 181 211 42 255 81 42 5 67 7 138 253 50 11 188 15 8 198 32 79 93 47 80 90 30 172 37 31 88 218 10 46 217 38 28 223 31 126 105 2 216 117 31 248 125 20 106 204 26 178 28 32 250 200 42 65 33 48 127 79 18 191 107 28 217 233 19 199 194 20 7 186 25 137 36 22 9 214 26 69 208 47 71 18 31 167 145 24 98 80 39 66 42 18 252 241 44 144 248 6 3 130 32 224 139 20 49 208 43 0 23 43 154 191 29 81 33 55 209 99 55 113 95 41 97 240 19 187 243 35 255 211 5 5 5 32 197 5 24 170 159 32 101 241 47 240 194 40 142 51 43 189 148 2 60 80 2 230 79 46 129 85 1 20 26 30 42 196 19 202 41 3 59 26 4 195 168 22 10 101 9 114 161 22 61 135 46 103 8 29 130 29 2 144 71 53 113 17 33 88 76 43 67 15 13 206 25 13 74 139 26 136 200 11 250 48 51 0 178 51 86 66 32 251 179 55 246 11 25 11 79 5 228 29 45 231 104 46 4 240 10 201 234 18 243 234 42 191 64 44 18 60 14 109 50 34 230 61 21 165 33 12 118 9 50 148 13 10 193 215 10 7 202 37 217 137 23 116 155 16 62 9 44 187 239 22 121 148 19 235 11 52 105 159 53 53 96 51 31 103 10 113 65 44 180 181 22 225 243 9 248 174 2 80 40 1 228 19 38 170 124 33 173 178 24 210 209 24 255 67 23 58 
247 48 76 216 29 41 208 25 143 33 23 144 5 7 155 176 11 148 93 55 34 47 41 187 47 43 243 105 30 139 182 37 139 223 45 203 110 37 193 254 54 170 153 44 65 46 12 1 80 17 212 12 1 35 255 0 37 139 9 248 22 39 14 225 46 27 162 28 0 76 19 181 142 4 140 143 18 104 99 35 244 134 7 221 171 38 246 163 25 62 177 7 240 204 17 87 204 27 158 130 8 82 14 22 5 118 5 82 106 8 204 71 30 151 62 26 110 124 53 69 108 55 166 196 27 30 98 40 119 180 2 114 186 0 186 12 46 144 216 40 245 112 39 189 222 45 12 35 26 6 202 6 163 232 10 242 95 52 14 209 9 246 140 35 96 28 23 216 18 31 198 207 55 30 219 30 189 225 17 155 133 19 245 119 11 187 133 26 70 123 20 50 219 16 211 179 4 46 121 46 149 151 38 213 85 33 132 240 43 18 229 24 196 160 15 63 230 45 163 25 8 101 236 20 249 27 39 25 176 9 86 133 40 164 10 5 194 28 29 188 224 26 151 32 35 247 195 17 206 40 26 43 34 15 4 59 2 184 145 34 31 54 8 0 248 42 121 180 14 70 75 39 4 66 23 166 17 18 233 60 34 19 64 36 85 248 40 132 24 33 206 24 47 201 145 24 73 216 20 211 220 40 121 130 34 0 108 19 167 127 0 17 212 48 164 89 49 88 39 9 72 240 49 202 57 43 129 12 35 49 134 55 150 134 1 70 46 21 56 63 44 60 227 41 124 60 26 252 132 41 117 78 10 6 208 19 176 1 16 235 151 54 254 221 4 237 22 26 94 82 2 60 206 29 152 202 9 201 64 6 83 70 36 5 246 52 167 225 46 130 223 37 106 204 11 216 43 41 205 103 19 239 255 17 81 201 51 151 28 3 24 33 50 30 200 16 115 75 2 151 181 25 189 142 14 123 91 41 22 74 24 199 156 39 202 51 24 155 75 21 54 106 30 18 221 31 52 116 42 76 50 39 70 173 45 32 195 8 198 138 51 151 84 23 207 239 34 6 37 37 7 55 39 36 107 44 98 184 25 105 254 35 187 30 16 195 228 51 88 123 37 73 74 49 132 81 32 91 88 37 101 124 53 186 222 16 122 72 0 22 3 7 39 198 29 106 31 42 90 104 13 13 236 8 74 71 25 219 172 1 91 102 13 1 224 35 222 247 27 38 30 15 39 137 53 38 227 4 67 241 12 69 59 48 195 23 47 139 114 27 164 115 42 21 81 2 2 120 33 205 159 8 225 197 1 248 8 28 213 78 53 210 17 17 54 156 8 135 64 26 30 85 30 98 87 55 12 36 47 150 
5 22 24 253 27 184 211 36 225 165 18 237 219 27 235 98 15 36 129 47 116 227 12 54 239 19 108 133 47 244 157 21 243 85 42 146 54 37 245 36 50 97 15 38 27 51 32 230 167 9 77 221 52 244 74 51 240 62 17 67 49 54 187 195 4 56 185 34 178 26 30 0 54 45 242 28 24 192 106 47 241 94 53 162 79 31 55 146 21 186 77 14 195 133 18 106 56 3 102 56 45 152 42 35 239 235 0 84 220 18 237 126 0 44 181 39 73 112 26 176 51 23 85 157 37 44 3 37 198 156 21 25 139 23 134 223 10 42 204 54 234 249 53 20 66 2 156 243 34 116 72 14 222 116 35 149 58 47 210 83 11 71 218 54 244 4 37 204 238 42 142 2 3 45 158 29 74 18 40 28 240 41 95 134 45 213 88 16 232 160 51 255 148 53 178 96 33 240 239 39 14 28 9 248 102 40 219 130 26 0 225 51 25 182 41 122 159 1 79 158 25 95 81 6 195 65 22 0 79 53 66 71 41 113 34 39 163 35 18 115 60 27 85 182 10 40 5 17 129 101 23 51 40 24 132 40 18 106 106 49 177 220 25 230 127 27 56 242 30 239 71 42 41 112 8 69 241 14 23 36 19 136 169 3 151 19 19 248 196 46 154 171 34 139 227 9 196 210 35 32 252 42 158 65 50 89 88 44 201 224 40 63 119 33 26 111 45 29 9 25 73 149 12 223 89 47 81 121 42 66 24 14 37 113 31 79 58 47 234 122 7 118 148 6 38 178 38 128 251 23 237 218 36 30 43 6 251 109 55 186 146 47 76 225 48 218 203 43 169 65 29 208 104 25 215 232 35 86 213 6 68 243 40 59 238 3 200 169 0 174 245 26 13 208 36 133 121 23 109 74 17 144 33 1 45 119 49 95 187 38 66 247 33 33 191 16 217 109 49 189 122 30 13 255 6 240 109 48 180 253 18 67 43 51 20 138 51 77 204 14 110 237 5 100 199 44 78 132 41 38 145 36 167 129 3 29 53 48 100 121 46 36 141 25 46 219 51 89 73 47 252 174 5 91 252 36 176 34 0 197 201 9 70 230 51 66 74 16 62 110 25 166 156 55 12 246 50 157 242 27 184 77 41 160 254 53 117 195 23 17 9 8 49 76 15 226 138 49 21 48 16 126 61 20 95 218 10 206 147 53 24 51 34 172 168 16 237 185 27 43 234 37 138 204 1 179 226 43 194 96 27 27 191 16 227 142 3 72 166 38 162 82 41 239 64 1 138 107 10 34 245 28 126 168 16 227 106 2 148 134 10 207 105 26 58 177 48 227 84 38 102 67 25 124 205 49 197 240 52 182 
110 25 96 81 50 244 229 12 84 180 2 151 238 52 57 209 21 155 55 49 139 179 21 34 120 50 11 46 42 52 142 8 200 130 41 81 215 14 131 110 26 32 167 33 66 67 34 206 206 10 12 240 21 157 251 54 114 47 20 21 247 3 167 73 13 168 204 52 249 236 50 48 47 34 26 253 13 243 9 3 158 167 44 128 25 47 21 46 47 35 214 54 96 126 47 43 119 52 120 167 8 157 194 31 47 181 45 105 83 14 230 211 29 50 233 15 110 12 45 165 108 51 12 151 41 107 16 41 18 173 8 134 220 26 231 70 24 118 44 11 3 94 39 154 204 40 215 114 28 46 126 9 180 233 40 15 252 32 233 130 13 58 105 42 50 224 16 237 227 28 93 125 11 32 85 23 183 131 25 55 55 40 196 71 33 189 48 53 77 106 40 238 156 41 59 137 49 101 230 21 213 7 26 114 190 39 109 246 43 52 186 26 110 119 25 38 196 9 199 178 3 101 238 32 133 83 33 14 41 32 120 155 39 197 8 21 143 60 35 175 170 21 82 208 20 44 152 41 78 253 3 159 130 17 91 144 13 179 8 6 148 205 9 92 93 17 43 12 37 185 94 0 60 138 24 122 216 32 46 120 37 167 211 47 211 134 48 236 26 0 89 119 54 239 162 11 32 91 31 89 152 21 207 18 31 239 64 48 223 232 48 104 187 51 237 167 41 245 1 11 141 240 18 45 17 5 155 106 16 102 57 48 61 40 10 114 8 3 50 112 27 202 93 54 218 82 5 189 223 30 38 13 39 169 168 24 164 15 2 65 76 52 57 191 4 202 241 20 108 187 36 79 149 2 26 82 36 160 120 4 206 33 41 252 197 9 27 6 0 75 64 45 230 10 52 186 118 21 182 198 32 187 224 5 47 129 15 1 79 7 38 75 16 42 103 22 59 178 36 244 152 52 189 82 46 210 9 13 166 196 27 107 243 43 235 245 4 0 27 27 103 69 55 70 128 14 70 116 40 12 49 49 217 3 35 229 169 44 252 20 24 137 255 12 220 255 49 15 102 4 196 172 33 199 243 25 22 255 53 204 216 23 53 190 34 54 186 52 137 67 40 230 31 48 6 46 31 26 242 22 35 186 10 71 208 29 176 157 53 153 210 37 247 8 43 134 145 37 24 119 40 84 126 39 165 152 6 245 188 0 68 3 18 250 180 19 93 77 0 178 68 42 7 202 10 53 227 35 32 55 11 198 220 41 174 209 9 182 22 21 236 16 49 20 109 29 247 32 10 170 39 7 250 92 9 28 125 36 70 67 4 1 241 16 52 167 26 229 147 48 47 168 48 52 159 22 61 73 54 250 
67 29 5 95 26 84 165 31 109 166 10 106 219 43 158 192 3 174 239 6 144 36 54 136 97 5 145 92 38 7 97 49 157 181 8 90 34 53 116 140 36 11 42 7 229 217 23 177 105 7 36 242 51 42 131 36 217 138 16 38 39 1 189 129 14 150 246 33 207 1 21 172 231 0 48 152 25 143 188 50 175 230 28 190 191 47 241 230 17 133 163 16 118 57 10 199 8 48 206 181 33 247 229 32 172 117 16 140 36 4 69 226 27 104 211 10 124 88 48 20 206 19 53 150 29 126 100 13 72 91 42 8 7 8 201 148 45 114 217 33 178 65 51 175 190 22 146 210 38 52 7 29 189 133 11 232 205 39 77 213 34 187 159 17 221 17 13 229 195 23 98 114 24 3 4 30 134 57 48 220 246 24 139 222 13 8 44 11 27 231 8 146 196 39 100 170 8 61 12 44 171 16 22 242 150 11 122 115 20 193 254 26 217 6 48 249 33 28 159 179 51 18 23 16 90 84 18 66 255 54 58 241 6 246 108 21 37 45 8 88 6 46 196 0 12 38 159 53 102 177 0 211 11 39 38 77 19 62 136 35 0 126 12 207 163 32 173 251 53 34 191 12 10 229 28 240 76 43 220 31 28 233 69 15 169 132 5 128 132 29 172 83 35 215 1 15 243 35 34 124 46 42 49 30 7 237 251 3 169 228 2 4 142 16 16 14 12 40 186 40 141 145 52 122 133 13 229 1 40 244 50 54 255 32 5 201 201 40 120 206 4 116 222 34 142 6 17 238 147 51 210 13 5 59 243 42 247 231 43 180 230 29 148 175 53 163 40 31 208 156 5 248 42 27 4 25 18 159 235 5 72 38 35 171 29 54 160 209 37 26 102 20 149 9 11 67 217 19 16 209 47 167 213 26 12 116 27 80 188 6 154 104 13 119 8 18 98 35 4 64 184 26 6 251 51 178 12 28 13 179 13 145 192 18 176 16 55 250 170 51 93 33 3 172 132 12 33 196 7 179 202 31 23 124 27 225 138 23 180 27 34 96 203 10 221 198 18 48 35 4 247 207 30 122 240 18 102 164 46 90 187 41 113 157 21 64 81 39 11 178 2 226 143 54 109 191 12 183 182 39 18 49 47 22 151 15 60 241 35 230 98 7 85 162 28 142 174 37 67 144 15 131 253 7 221 181 38 3 199 29 239 221 54 255 26 5 222 0 6 173 85 48 33 227 34 80 39 48 28 170 1 57 135 22 9 139 27 104 122 18 134 121 24 91 87 50 97 5 10 254 38 24 140 118 3 124 146 10 15 203 28 79 212 20 32 60 7 239 195 33 114 30 35 189 128 34 229 126 31 39 
11 5 105 135 43 1 150 21 125 230 17 31 6 45 108 245 42 64 104 45 159 37 11 120 10 11 203 49 18 118 154 37 37 156 44 251 25 19 70 56 49 36 164 47 205 228 53 74 131 5 4 252 50 129 199 28 29 61 29 56 99 23 210 94 3 119 164 44 164 200 13 103 149 49 16 224 46 191 228 9 100 102 13 113 131 37 163 187 42 223 142 37 76 5 35 84 169 8 247 16 48 180 32 46 169 224 46 66 68 34 192 182 40 194 89 19 191 57 39 132 133 29 135 217 26 236 209 44 176 133 20 24 46 13 72 112 29 14 49 33 180 243 31 63 178 33 47 55 34 163 190 23 210 170 9 143 90 18 81 114 15 189 187 53 58 201 53 215 126 22 84 189 49 21 236 52 141 143 51 94 97 17 104 240 27 247 66 22 96 255 16 154 57 35 89 16 53 70 100 3 164 122 0 50 7 44 180 101 28 232 205 29 83 196 22 124 37 16 79 191 55 125 25 49 30 95 33 121 3 38 158 54 24 65 234 39 161 210 28 238 37 41 202 161 29 7 240 2 53 110 2 165 140 19 21 5 34 190 164 30 119 229 28 149 135 22 45 117 8 204 63 5 208 70 30 161 124 38 55 33 12 241 54 48 107 244 30 254 108 10 241 1 15 231 47 46 19 251 35 41 204 50 17 109 49 30 164 53 204 150 22 106 1 13 119 0 17 15 241 21 173 216 39 239 235 46 23 20 25 197 37 5 233 67 11 75 15 15 244 121 5 25 240 23 96 0 31 221 173 8 78 157 40 44 180 27 11 121 7 25 98 12 34 174 47 248 162 54 59 188 31 34 28 32 160 249 16 31 71 45 158 115 26 14 126 6 86 151 0 137 186 18 208 178 8 60 237 19 235 15 47 169 175 43 224 206 4 8 108 3 48 122 47 6 208 5 120 89 37 159 41 7 63 101 9 65 80 22 242 249 21 69 218 53 84 226 27 127 19 16 163 25 26 14 145 3 237 48 36 75 111 54 64 177 51 239 163 44 80 232 45 158 60 15 251 187 42 8 94 29 228 108 46 44 90 7 238 165 16 129 229 31 110 212 40 132 36 51 255 194 27 203 189 39 145 198 34 48 170 0 178 214 21 71 196 15 245 70 20 53 180 41 165 56 13 132 55 41 21 3 35 72 148 16 100 196 38 187 119 40 206 190 54 62 180 51 27 233 1 82 142 13 46 18 53 239 39 20 132 112 39 61 212 43 184 143 32 241 93 7 239 156 37 152 183 41 22 10 26 89 56 8 226 40 19 31 172 26 148 234 42 65 162 46 240 147 38 52 131 11 60 27 31 187 49 23 248 139 41 234 
109 49 196 141 1 45 33 38 168 98 40 74 83 2 93 135 54 67 195 9 185 126 28 141 118 29 252 96 32 35 37 6 84 82 51 190 250 4 79 68 15 141 161 50 181 229 1 128 158 20 222 43 34 191 40 48 187 75 9 232 160 38 161 94 16 199 173 34 122 59 6 78 240 0 133 112 21 15 78 19 32 13 7 244 200 15 70 177 34 15 82 26 56 25 8 134 147 38 38 225 41 192 103 41 158 118 26 30 151 8 131 139 22 135 210 38 182 225 31 13 25 33 175 159 18 242 197 37 146 133 39 224 35 22 105 66 36 227 197 27 205 76 55 5 2 41 75 15 18 90 191 51 25 177 10 43 67 47 85 36 28 19 141 55 178 112 17 184 61 31 52 67 3 72 142 38 231 232 37 88 2 36 170 45 13 21 130 49 31 149 13 238 71 26 66 255 51 185 52 24 115 124 11 242 99 34 189 187 2 139 101 4 105 122 17 5 153 28 83 135 17 228 201 49 153 130 32 219 245 4 142 231 48 127 165 51 178 48 22 116 153 11 31 159 53 203 242 30 165 214 29 1 111 22 242 74 49 43 217 38 100 88 38 208 10 19 185 127 19 4 158 5 11 105 28 118 14 14 92 15 12 218 2 19 224 45 21 174 145 38 255 98 38 70 27 49 116 31 0 71 42 22 74 161 7 231 253 14 35 215 13 81 183 7 85 102 45 200 101 46 134 171 16 28 31 43 11 102 11 4 177 37 124 152 38 146 188 19 17 13 27 159 99 18 61 43 16 220 177 38 169 206 25 8 217 17 200 221 55 164 89 48 159 235 41 196 252 5 139 156 50 78 217 5 233 181 1 60 95 42 244 103 40 18 47 33 220 211 14 197 114 23 20 55 26 21 194 55 174 16 11 3 250 4 101 54 25 43 42 8 28 61 39 190 25 7 47 222 10 120 242 45 159 7 36 30 181 46 137 184 54 240 30 32 243 73 38 207 101 49 96 35 54 81 82 55 168 203 53 47 106 15 138 136 7 87 17 36 91 1 53 33 244 19 247 195 28 200 36 33 206 117 36 255 29 31 109 77 26 244 215 20 89 46 36 177 137 46 16 170 31 36 161 4 241 105 23 220 56 43 16 55 32 169 165 54 102 153 3 117 243 2 79 164 24 147 180 33 95 216 19 61 202 20 29 166 14 241 183 38 136 96 53 68 198 34 116 59 44 194 138 39 93 29 35 207 125 23 111 186 23 152 215 33 107 200 16 224 81 39 190 149 23 212 9 46 33 204 9 20 41 12 160 249 1 31 104 14 66 1 25 25 108 24 200 76 1 66 10 34 98 222 55 57 0 8 112 20 4 110 
180 30 168 211 47 108 21 47 77 46 8 172 246 21 197 56 41 181 154 4 110 211 26 120 68 10 23 178 54 192 90 10 52 198 13 210 20 26 105 192 32 105 133 7 105 58 15 214 169 42 144 33 45 84 57 1 246 249 28 153 45 6 79 0 5 186 105 25 247 210 49 74 60 6 202 18 0 65 162 49 241 246 19 59 237 44 88 134 37 186 213 10 206 143 10 60 135 12 113 209 6 186 155 26 195 221 53 81 206 55 26 9 38 139 97 27 30 27 17 234 233 6 175 38 46 162 151 21 148 82 30 240 21 1 31 103 30 137 129 44 6 12 45 38 43 31 60 21 34 63 197 36 200 103 2 38 251 17 20 236 35 137 11 25 207 148 40 177 155 1 111 193 53 252 253 32 145 60 54 136 4 27 155 42 42 151 63 29 185 200 25 114 152 36 126 73 33 159 184 36 39 180 5 48 70 18 69 206 46 134 105 50 220 0 20 247 185 3 121 44 20 246 170 12 96 73 53 212 112 5 221 160 10 129 229 40 230 107 14 72 71 24 230 62 16 136 183 26 85 174 6 96 14 40 52 226 33 160 192 17 85 65 1 195 40 54 229 112 42 77 87 17 131 223 16 35 52 55 196 149 37 30 201 27 164 106 22 212 191 38 77 130 39 54 103 15 191 180 40 45 56 31 7 91 38 41 31 51 137 61 32 160 225 25 102 181 3 57 2 3 239 56 29 101 247 37 29 37 33 252 44 17 76 85 29 243 222 52 122 127 18 53 229 11 133 30 33 158 14 3 34 115 4 101 144 11 42 141 48 87 217 21 57 205 26 82 71 25 199 124 0 92 1 5 46 159 35 225 193 1 74 38 53 182 81 29 90 168 2 245 225 12 182 52 17 163 251 40 229 87 20 6 133 29 166 103 20 43 177 54 207 103 4 128 193 13 165 183 6 91 109 39 157 16 19 185 245 15 162 252 38 210 162 36 126 206 3 43 157 28 120 29 4 134 195 29 186 30 44 64 187 41 110 117 41 125 23 55 193 234 35 0 104 37 150 148 51 178 12 16 53 146 14 106 76 1 6 140 7 99 250 18 120 120 47 249 57 39 139 57 17 18 207 17 149 130 53 186 183 33 174 33 35 62 39 8 236 139 36 93 3 23 236 252 23 55 135 40 246 153 17 205 46 48 142 233 2 184 151 18 117 213 27 63 194 3 154 31 30 66 12 25 119 67 45 166 57 45 77 7 22 45 149 53 70 77 6 46 195 13 153 2 34 187 156 28 254 223 20 105 86 48 95 252 43 88 73 52 78 118 27 203 188 17 225 234 6 38 131 9 84 62 27 25 61 0 180 166 55 16 
6 37 140 94 49 20 172 2 223 119 48 228 89 20 239 127 46 144 212 18 127 237 8 48 161 29 228 178 12 52 62 26 99 83 24 232 50 29 105 22 36 51 6 29 115 150 45 111 21 49 85 70 38 191 42 32 104 94 42 77 193 48 217 169 11 107 18 46 92 69 20 249 184 2 13 39 9 123 124 6 104 60 28 41 164 46 215 241 20 39 203 29 41 54 38 106 146 40 253 139 37 195 153 45 160 20 44 130 124 9 251 165 53 138 124 17 94 164 2 93 205 29 185 55 28 215 53 46 157 248 34 118 152 35 147 27 23 105 22 27 101 160 16 222 255 36 147 92 24 236 21 46 55 236 53 76 138 26 152 0 27 119 147 3 225 252 38 228 98 5 251 64 29 142 212 44 198 192 24 122 247 30 211 68 50 249 220 36 86 83 44 233 52 24 116 24 36 151 19 38 214 161 15 43 103 27 32 226 51 21 181 35 101 174 15 203 4 19 30 237 55 250 97 11 215 249 52 71 207 39 179 250 17 130 26 40 145 47 34 116 149 47 23 96 13 178 126 26 145 121 15 77 80 33 92 151 42 159 74 49 251 204 3 107 93 45 124 209 21 244 233 50 79 155 26 94 45 9 28 122 10 222 214 26 141 117 41 158 113 19 168 220 40 129 88 5 84 76 55 66 155 0 95 250 43 17 22 0 35 244 34 180 129 0 190 32 22 24 200 23 9 74 3 69 158 43 77 224 7 178 63 51 233 80 53 9 116 11 197 40 7 173 231 40 16 255 32 72 9 9 246 78 3 21 155 33 16 77 2 99 55 41 3 64 18 62 5 54 115 179 22 190 195 53 253 11 21 189 2 46 158 23 12 71 40 23 58 139 44 203 142 43 61 204 36 239 63 17 241 253 4 103 250 31 5 184 51 139 86 29 16 157 44 158 215 28 122 162 24 241 224 6 181 207 43 177 192 42 237 39 0 46 44 34 35 183 18 218 199 40 157 101 21 98 223 20 63 208 15 67 134 23 211 55 54 242 36 14 221 82 13 7 117 41 47 80 17 82 237 24 44 80 14 93 143 21 42 210 30 207 166 52 22 152 35 61 117 55 51 124 41 233 172 47 198 254 39 207 42 44 144 135 44 25 178 27 7 129 38 212 151 36 114 212 20 150 7 25 241 240 13 112 182 49 66 133 15 137 22 42 32 47 25 164 54 3 121 10 4 220 125 19 18 19 23 238 5 30 98 117 38 75 183 44 177 64 18 194 96 48 210 5 15 12 126 45 205 90 31 65 109 36 53 91 8 193 190 53 32 9 2 135 186 34 221 125 26 234 79 19 124 91 40 36 40 6 251 105 0 8 
159 45 31 96 9 180 128 7 92 7 24 9 229 43 43 207 16 5 75 39 32 111 18 155 106 42 27 114 36 25 145 43 113 69 51 55 161 43 88 170 35 55 214 8 31 219 47 194 251 2 226 150 33 81 177 11 27 202 37 14 60 46 106 115 12 101 203 45 192 2 40 155 33 14 126 228 25 70 198 45 221 24 35 191 51 37 16 65 23 203 171 35 248 16 22 183 208 17 187 108 27 96 234 37 176 49 41 214 14 15 216 206 39 213 222 43 104 170 44 173 162 8 189 89 0 8 20 33 199 117 37 80 37 55 220 252 0 137 212 15 26 169 45 113 17 35 225 191 13 132 124 16 104 132 1 248 75 54 153 156 19 10 120 8 231 1 20 174 27 48 167 140 25 174 109 3 131 241 2 54 90 30 148 82 10 148 235 6 237 245 34 91 220 50 62 139 35 71 50 14 75 224 42 36 99 48 165 153 41 56 45 43 138 193 14 88 175 25 171 10 39 73 73 35 131 144 38 53 219 24 232 255 48 182 165 43 16 221 13 216 104 2 146 192 52 165 107 35 11 180 5 93 55 38 164 108 30 199 84 26 118 10 17 86 27 30 23 243 52 58 133 4 247 43 36 226 54 24 142 147 52 233 55 4 78 255 8 253 117 5 59 203 15 85 226 26 111 29 30 45 20 11 201 246 38 205 132 45 146 109 24 194 188 16 166 185 55 194 244 36 75 74 55 40 185 50 15 230 47 18 176 3 8 125 18 131 15 14 42 209 44 7 120 40 119 58 41 31 133 5 198 173 31 226 189 48 202 207 15 148 215 15 123 90 20 118 132 52 104 139 21 223 3 37 195 34 32 99 233 29 188 203 3 9 149 24 161 41 7 241 164 38 40 27 0 15 131 29 116 98 16 232 37 11 45 136 14 235 68 23 227 78 18 96 239 0 139 224 41 115 9 38 42 24 33 184 140 28 161 116 23 14 162 20 6 141 29 2 112 17 32 208 47 39 92 22 249 207 15 97 250 16 243 178 24 41 83 29 122 97 41 78 104 11 133 106 0 226 138 0 199 177 9 240 170 45 104 12 4 206 255 6 21 40 17 101 162 20 206 240 30 195 118 22 44 88 16 56 31 26 208 15 51 217 119 5 178 70 17 231 91 40 235 193 0 234 143 42 155 82 27 159 126 17 5 182 17 211 135 16 11 96 39 205 18 23 64 249 45 94 228 32 135 206 17 176 105 8 0 9 34 243 14 25 214 226 31 47 237 38 224 187 30 176 251 0 143 89 9 230 225 46 131 145 44 124 145 38 53 132 15 126 90 21 24 137 47 49 105 53 1 25 8 87 169 3 14 143 29 214 
19 46 152 143 7 62 196 40 178 66 5 144 91 39 119 140 49 109 141 18 68 229 52 9 243 45 137 201 20 5 97 23 218 159 54 144 82 51 215 226 29 175 90 0 12 199 29 196 11 34 5 21 39 175 158 2 115 163 36 224 125 21 221 13 45 236 228 23 139 148 9 238 160 43 147 100 50 148 105 22 33 25 51 59 140 33 59 109 29 45 74 26 233 54 24 7 193 20 196 175 8 211 67 25 196 215 21 16 248 47 34 51 48 64 110 36 115 156 9 69 133 3 186 140 10 172 80 27 172 35 51 145 232 22 9 248 29 34 26 53 160 91 32 135 206 7 135 19 19 19 205 32 13 122 13 80 38 5 202 183 1 6 193 25 241 227 33 31 131 35 36 10 38 33 145 37 81 165 48 240 178 30 43 2 24 236 205 38 57 211 22 214 196 55 151 227 18 64 7 22 225 40 8 157 121 42 179 106 31 152 149 1 145 129 35 87 186 48 151 145 51 253 40 23 27 105 42 250 74 9 189 231 33 3 155 51 83 51 21 53 196 34 188 27 36 245 178 14 49 176 39 57 203 32 21 198 41 180 131 43 55 134 19 192 217 6 114 15 41 157 203 46 50 193 49 92 242 44 8 43 12 111 64 31 102 245 13 134 44 48 15 236 30 227 94 8 158 251 7 244 45 2 125 138 51 203 146 21 53 1 1 81 104 41 29 238 22 180 254 2 18 225 15 242 127 53 89 115 41 153 240 22 232 188 48 2 241 43 222 66 44 171 95 52 164 19 11 222 37 33 12 24 18 103 113 41 174 10 36 83 242 44 244 244 16 195 210 25 27 126 43 6 34 26 243 0 46 71 13 43 138 116 27 203 34 28 237 117 6 142 106 0 162 45 37 167 72 55 103 79 21 25 66 16 12 137 24 95 20 53 197 223 49 80 205 11 244 91 33 8 254 43 39 165 48 55 12 40 60 37 47 20 50 1 105 145 35 225 86 7 90 166 46 223 154 43 217 163 39 244 202 53 133 1 2 128 62 46 168 82 36 25 187 46 216 157 15 218 247 45 101 214 51 4 175 22 130 164 9 206 41 19 117 170 12 26 82 50 100 107 20 186 68 40 54 30 13 228 131 4 35 135 10 184 9 10 244 215 14 202 76 15 67 102 25 134 202 36 202 133 31 77 187 27 33 160 25 177 195 44 222 124 51 2 112 45 253 58 28 167 125 25 245 3 55 108 205 26 142 26 7 2 60 50 225 237 2 5 204 22 70 206 10 11 203 18 86 114 12 171 103 9 216 212 20 81 98 9 48 100 28 218 69 40 9 74 29 244 145 49 126 156 8 204 242 35 150 158 6 208 
118 29 68 199 9 53 247 11 41 210 15 235 219 53 199 207 23 223 78 8 228 26 52 182 177 7 86 129 5 193 198 27 159 251 2 229 37 25 254 16 35 122 215 55 89 182 30 126 154 52 238 80 15 238 166 8 139 104 41 26 7 7 71 236 43 234 235 0 84 101 24 181 190 31 233 61 45 248 43 55 214 25 0 3 164 6 74 190 14 66 5 46 187 239 42 251 67 13 54 249 26 150 226 41 6 218 54 77 176 1 74 179 34 225 253 7 201 63 37 88 251 19 78 246 2 76 44 6 55 194 7 12 200 17 71 21 3 64 95 11 118 64 47 215 10 44 81 98 52 112 176 23 78 253 37 49 52 9 3 64 35 25 135 27 40 199 40 25 61 7 228 20 39 96 102 25 143 214 51 187 36 20 39 85 33 142 89 5 235 114 5 116 155 29 191 180 4 210 153 42 250 249 14 129 136 12 73 67 43 26 107 15 78 249 5 50 229 54 19 89 0 40 25 3 125 235 40 90 230 41 255 103 2 225 176 42 215 203 21 52 25 16 103 75 26 190 94 15 107 134 48 113 3 33 234 94 53 253 93 19 197 62 50 38 21 19 128 73 6 98 176 15 136 111 42 24 218 48 162 76 6 17 54 9 218 51 39 187 249 44 136 31 10 59 160 48 86 2 1 33 138 26 183 163 9 102 69 35 96 87 7 184 49 21 150 236 9 119 117 10 183 176 49 83 6 33 46 39 12 30 222 22 87 68 25 65 164 15 154 92 54 206 242 15 77 106 19 3 33 32 236 116 1 206 162 31 207 192 15 113 24 13 21 89 26 67 244 54 21 194 43 44 15 13 154 18 15 57 254 32 196 204 5 197 156 15 118 13 40 45 34 8 12 101 41 202 122 53 204 166 7 114 64 23 117 121 49 107 62 24 202 3 28 75 121 24 64 166 5 215 179 7 47 125 13 159 73 15 105 187 46 38 49 14 166 156 8 53 102 30 214 177 41 118 241 42 227 201 32 235 248 3 1 152 8 56 1 1 213 39 21 237 205 54 171 2 2 169 217 32 33 79 50 215 50 19 144 30 36 194 31 45 155 87 37 38 45 22 47 26 45 128 197 11 141 110 29 203 144 46 165 103 6 230 248 16 216 186 46 187 85 29 104 124 45 13 171 2 74 43 44 136 185 33 237 132 23 32 42 23 86 16 47 100 232 7 194 163 1 83 11 7 1 24 51 207 98 6 244 234 33 70 216 18 178 248 55 227 78 17 130 179 33 178 117 41 73 200 4 216 202 0 33 153 16 192 141 19 219 211 45 161 133 53 147 104 54 61 234 4 108 156 23 197 229 29 46 189 37 127 
223 39 116 159 8 116 123 13 140 28 16 7 175 45 109 237 37 170 89 0 224 31 36 101 77 2 156 205 39 73 65 54 191 181 22 254 65 49 215 73 29 60 182 37 117 96 50 50 65 35 88 166 26 104 66 24 20 140 13 166 75 38 246 73 43 36 32 12 242 93 21 59 210 3 161 4 36 182 92 5 184 196 27 19 217 37 142 127 25 86 117 52 235 154 22 193 140 46 76 200 3 24 105 45 46 31 34 249 215 38 37 234 51 146 120 28 165 206 11 251 185 41 220 122 43 9 198 7 127 223 15 21 13 24 9 6 55 206 44 14 152 190 25 191 100 25 170 95 24 110 59 33 177 68 52 106 195 34 189 217 49 157 226 22 68 176 21 85 73 25 132 8 23 139 178 27 124 32 34 229 209 22 29 60 34 15 249 30 123 150 31 173 219 9 191 48 9 221 180 50 2 63 2 83 187 28 99 161 28 214 190 30 169 205 42 183 72 51 9 246 10 31 181 29 14 146 37 223 149 1 97 232 49 43 75 36 254 34 13 130 203 4 39 130 41 157 139 34 79 171 32 250 185 13 60 153 39 89 250 4 166 37 29 168 35 24 233 166 42 229 205 37 131 106 39 223 185 43 8 179 6 122 240 55 226 73 48 255 240 34 175 152 32 243 129 3 32 102 33 153 233 46 51 200 48 153 209 33 128 75 13 243 46 37 17 45 6 233 220 46 89 208 54 196 240 55 84 137 54 7 189 7 97 86 16 135 214 9 24 202 20 97 219 10 94 196 8 75 30 20 130 226 52 168 54 21 103 61 46 166 158 43 76 38 9 220 62 48 52 159 50 93 254 45 209 73 34 116 203 8 68 116 26 240 219 24 109 129 5 218 206 28 208 170 42 132 222 24 141 59 47 109 12 53 23 128 23 157 196 2 231 181 22 79 34 25 153 252 11 25 204 17 214 80 19 50 222 49 180 75 44 116 99 8 212 0 9 49 231 13 216 54 10 75 207 12 49 232 8 243 190 21 54 241 5 71 165 11 2 26 47 155 238 34 111 31 34 79 248 33 176 67 55 214 116 54 176 103 38 173 157 12 165 228 29 106 230 51 128 129 13 115 240 3 178 64 2 84 240 50 246 198 45 127 119 10 62 36 25 204 201 7 66 52 35 119 180 34 156 39 51 103 218 44 76 46 20 31 37 44 18 164 3 252 227 18 42 175 14 204 242 15 213 105 27 124 5 55 8 109 23 122 185 33 109 217 7 81 235 36 117 231 25 138 17 12 101 221 51 183 179 13 45 47 46 108 55 28 224 177 33 7 31 34 86 112 43 127 230 22 215 112 6 83 213 23 116 140 13 120 
185 0 44 37 47 209 5 7 224 13 8 244 99 7 117 227 32 175 186 46 195 13 6 193 130 43 167 250 47 159 38 16 116 248 53 252 216 43 179 204 24 162 65 35 67 240 22 2 179 8 50 117 54 72 28 16 206 187 2 41 47 9 16 43 49 176 223 41 118 129 53 65 196 6 25 199 6 84 249 10 115 66 39 75 16 3 49 58 47 153 74 30 252 251 50 133 113 9 6 178 42 95 203 31 132 31 38 234 146 39 64 222 25 74 15 10 201 169 52 101 165 14 188 42 9 66 48 18 244 143 12 133 19 31 152 253 39 111 61 41 13 136 31 164 81 23 126 182 40 104 114 29 140 181 55 250 169 55 100 47 38 62 199 1 203 54 6 34 67 43 153 231 51 163 101 53 138 205 51 129 89 38 33 84 11 102 184 20 213 246 19 116 193 34 162 228 24 227 125 27 33 32 43 157 171 8 160 44 30 245 78 47 1 180 19 127 138 35 178 254 2 142 161 27 154 132 31 108 166 37 117 67 13 192 227 48 243 217 53 140 218 51 242 89 55 177 11 41 197 153 16 144 51 49 82 160 37 214 21 19 61 213 6 34 201 34 40 85 43 216 71 29 181 248 14 224 189 49 192 78 26 41 160 54 145 118 46 154 180 43 40 214 32 91 254 9 210 215 54 44 140 53 95 109 30 108 45 27 210 86 25 67 232 26 77 130 0 139 170 20 105 6 51 92 216 49 37 4 8 182 99 37 157 207 2 202 161 15 240 228 45 212 49 53 5 189 32 215 38 42 32 131 24 28 168 48 239 94 12 193 251 55 105 198 22 158 182 39 64 138 27 15 144 29 53 103 50 66 135 24 210 164 11 13 147 11 77 84 34 102 190 5 130 92 35 2 157 26 80 172 4 64 225 36 19 36 20 24 246 27 218 3 31 195 81 43 46 183 55 66 57 45 180 59 10 33 140 7 85 204 51 63 223 45 179 248 17 184 210 23 36 149 51 23 196 52 175 6 35 218 186 52 89 219 32 151 48 52 49 111 24 104 35 47 75 219 7 16 255 50 249 22 31 217 197 19 188 159 49 240 249 3 219 144 23 255 193 31 95 41 55 75 116 26 3 133 37 155 126 36 42 87 50 140 19 40 132 3 47 63 222 16 1 222 16 124 61 17 211 137 10 91 140 47 82 39 28 108 82 26 97 222 10 85 98 53 95 162 41 47 163 23 159 31 37 7 243 3 0 78 44 185 160 40 156 12 40 243 109 50 207 194 8 41 33 43 219 81 5 161 240 0 106 247 55 17 247 10 151 177 24 90 77 8 166 64 44 126 15 1 126 56 51 208 20 5 1 181 30 148 
31 46 201 48 53 161 199 53 152 33 22 131 199 11 187 70 51 148 196 2 120 149 42 202 150 54 221 42 19 18 243 10 152 148 3 14 44 50 124 175 44 225 107 11 247 255 17 90 119 46 253 65 51 175 31 25 153 49 35 152 202 6 75 216 2 30 84 38 33 53 38 235 44 41 215 134 40 139 131 39 132 50 25 66 204 16 149 100 33 126 175 35 145 205 12 151 238 0 49 218 54 248 177 50 110 60 1 79 193 52 47 3 55 134 153 19 31 23 39 215 169 22 193 64 20 116 114 50 0 106 36 225 216 22 247 39 2 57 86 35 2 220 55 79 252 0 206 211 7 25 148 24 200 9 17 38 9 27 82 234 21 109 225 37 97 27 44 7 29 10 234 108 46 141 58 34 52 83 6 116 27 18 204 66 11 204 148 37 13 1 55 192 99 33 221 106 20 210 84 1 238 226 14 96 22 16 175 139 36 249 87 31 23 35 17 202 49 6 133 241 55 74 207 10 250 161 45 139 144 49 55 240 27 0 159 50 54 153 45 167 176 20 107 122 39 74 0 48 108 74 18 34 68 9 217 207 42 244 6 34 121 7 11 82 61 42 14 228 51 224 79 28 61 154 46 241 6 46 200 40 49 209 1 53 203 245 37 148 110 43 254 193 18 249 207 32 228 175 12 110 236 28 146 221 6 102 165 20 180 118 36 3 65 21 156 213 43 121 212 49 38 205 2 218 177 1 148 31 8 140 177 12 105 23 33 149 204 39 91 207 5 39 107 23 27 228 28 16 11 8 251 229 37 85 121 30 111 6 54 89 111 47 241 4 39 118 95 19 215 134 18 222 161 45 92 177 25 27 173 36 175 2 9 24 113 19 77 202 25 52 188 24 58 50 44 241 9 19 192 232 25 91 68 26 197 95 27 154 14 32 84 38 2 24 116 52 194 168 54 229 226 2 14 211 20 166 148 30 66 239 54 61 181 42 190 79 1 224 163 15 179 188 38 52 126 34 182 99 18 170 113 44 105 23 47 227 89 11 144 150 11 70 84 48 228 52 55 198 231 43 7 27 31 86 210 13 204 124 8 182 229 25 72 201 48 188 89 17 4 159 23 223 131 19 170 73 31 42 80 54 250 166 42 109 115 20 156 41 0 73 114 38 89 46 7 218 50 0 114 18 15 99 188 10 234 231 51 197 225 43 212 78 25 202 234 52 220 51 14 192 140 40 33 102 30 103 216 9 118 59 51 222 37 31 229 234 54 111 190 31 66 136 37 101 101 55 46 37 42 107 70 6 209 173 12 169 35 52 175 1 15 232 230 52 51 85 38 59 151 20 41 252 37 249 43 2 22 150 47 30 
103 6 88 16 11 31 191 55 75 168 40 80 219 23 143 22 12 244 64 44 66 57 48 79 79 51 228 109 33 222 198 40 253 229 8 99 48 0 119 128 48 174 16 19 230 4 34 5 70 18 122 149 27 134 121 18 142 87 0 194 85 14 139 184 11 188 47 3 252 221 12 252 196 52 164 201 24 40 67 30 194 201 12 156 88 13 175 26 53 17 165 34 225 97 2 119 94 26 242 90 47 158 255 19 202 39 37 6 233 0 70 133 34 204 52 2 232 69 12 126 39 25 107 158 27 173 145 9 167 47 27 209 249 2 217 255 9 164 69 10 57 17 39 18 250 35 180 120 17 174 227 40 194 144 46 123 55 47 150 9 30 15 226 7 227 134 30 181 192 35 175 210 53 145 134 39 249 52 47 148 246 34 117 113 18 125 8 41 36 23 34 91 250 12 194 176 11 33 95 51 128 240 21 35 233 51 216 126 55 135 243 21 174 113 22 184 149 6 82 240 22 36 178 40 254 212 32 187 84 39 254 119 0 1 80 33 214 215 23 49 134 11 192 62 52 69 145 33 59 181 17 58 179 4 80 110 0 96 108 36 33 109 3 64 67 27 80 116 27 74 52 41 193 121 15 44 181 24 8 239 37 121 63 33 219 159 7 239 192 28 215 1 17 19 81 13 198 155 49 202 93 38 165 137 15 6 146 4 165 11 35 214 230 50 187 213 42 84 172 18 92 191 27 208 134 45 177 80 32 214 245 13 112 251 55 62 160 25 133 118 52 130 50 43 109 134 40 152 226 29 98 178 44 236 100 50 120 58 42 85 170 31 205 232 18 163 110 3 2 240 9 243 93 43 239 245 26 210 87 20 139 68 7 240 188 35 20 17 29 191 222 0 185 129 48 169 131 54 147 118 46 30 102 4 32 56 33 83 195 9 13 179 29 170 200 25 249 135 26 172 64 24 153 233 2 49 125 29 178 155 4 160 187 18 127 15 2 187 28 22 236 198 9 117 191 49 66 107 8 203 5 1 101 54 10 222 232 31 216 137 51 85 8 46 73 195 21 163 175 2 54 37 32 140 103 40 149 51 27 103 152 24 191 118 31 88 78 23 219 164 0 218 237 32 117 145 43 204 199 19 49 83 0 179 232 55 252 79 42 4 15 27 119 103 33 240 66 8 159 29 20 54 146 1 87 94 2 127 144 33 107 67 20 6 63 13 198 67 44 237 187 11 72 171 27 59 74 45 164 128 26 92 215 5 184 87 27 2 194 43 220 200 55 126 142 38 114 123 18 79 195 5 124 254 24 183 163 50 90 255 50 64 184 50 66 186 41 215 150 11 203 20 3 78 135 33 21 214 28 28 
82 48 102 10 46 107 100 41 27 164 17 21 231 41 143 190 35 225 137 41 138 216 6 245 237 5 40 9 35 233 111 14 38 218 8 38 245 4 36 10 17 198 154 16 103 123 6 192 6 0 211 251 24 124 36 37 58 13 47 127 51 30 155 89 1 9 126 14 129 68 33 93 171 51 222 107 46 70 62 44 109 186 16 29 245 4 165 116 25 26 15 37 153 24 30 136 153 52 81 247 0 15 213 19 216 28 22 59 137 28 26 166 39 254 75 28 222 101 40 226 255 0 244 135 0 57 216 26 215 231 33 244 192 54 84 251 34 96 21 35 214 20 1 139 242 36 250 213 10 94 201 41 54 2 0 30 217 32 31 205 23 185 34 47 74 130 3 176 88 0 51 227 44 62 221 39 240 59 12 236 114 5 78 144 23 175 175 40 151 104 38 87 178 32 255 99 26 102 150 26 201 212 30 66 196 51 206 177 31 77 255 49 161 175 33 190 70 1 221 158 17 214 157 44 156 3 55 132 205 53 238 15 33 176 221 22 86 43 55 218 204 14 153 139 53 202 104 44 139 62 18 252 218 39 214 94 2 98 76 47 81 253 6 214 83 52 47 45 23 77 198 43 28 144 46 235 28 55 104 24 37 44 238 16 142 80 38 141 161 43 144 119 16 95 167 11 62 244 25 250 17 47 225 252 40 148 100 20 211 145 4 122 31 19 95 173 27 31 61 13 62 156 52 169 218 27 17 212 24 204 181 17 181 74 29 101 29 17 165 151 10 1 246 10 117 22 15 216 84 52 140 253 40 225 14 19 173 218 31 33 144 21 137 245 55 2 154 12 119 155 43 80 16 33 187 233 23 69 117 27 124 86 40 240 3 22 0 36 25 235 173 33 171 175 6 32 38 0 223 119 19 187 50 35 46 119 44 151 243 41 23 227 39 234 227 3 187 207 47 153 122 37 82 154 4 155 121 3 217 52 10 177 98 20 36 249 27 168 16 46 20 251 1 246 182 44 45 79 51 104 162 29 200 61 7 213 23 16 145 200 20 116 237 38 206 149 0 90 169 16 93 159 11 83 205 41 44 53 41 233 253 19 116 210 24 122 100 31 25 216 40 50 167 37 126 1 34 45 95 27 213 178 19 141 223 16 65 200 53 170 60 3 99 182 45 190 208 1 87 2 50 6 128 25 126 173 50 227 130 1 221 16 36 129 81 11 196 251 27 212 95 23 25 29 14 92 116 46 114 123 40 235 249 0 61 221 6 54 186 16 49 59 16 138 255 17 150 211 5 129 237 4 52 73 33 36 187 46 202 167 1 64 228 50 184 27 7 176 76 2 86 214 5 127 109 21 183 238 24 65 
35 21 198 71 47 170 17 2 171 81 17 33 9 54 18 185 41 253 16 37 196 143 19 70 70 8 4 135 23 193 77 50 81 247 25 207 163 18 150 196 19 24 215 36 66 212 13 80 152 29 121 223 52 238 227 3 57 164 10 242 245 48 153 196 7 99 90 50 116 115 23 150 181 22 9 5 2 133 126 50 186 108 33 0 165 52 212 151 40 239 48 54 146 147 10 130 7 45 105 157 0 244 166 21 67 43 50 105 230 40 99 230 44 245 186 49 103 170 25 187 60 33 180 190 53 162 39 52 84 27 50 97 94 32 225 199 52 22 42 50 80 32 24 8 135 42 44 66 36 246 246 0 87 152 54 232 237 6 13 78 17 58 48 0 4 70 55 116 151 2 16 159 18 146 204 9 250 194 27 29 25 26 233 1 18 242 15 55 184 73 14 166 77 30 176 193 44 24 210 19 71 100 11 161 95 31 27 124 33 28 101 42 96 87 19 154 16 2 108 182 19 44 102 16 58 126 26 120 198 4 252 103 40 24 131 15 211 159 27 90 255 41 163 153 0 5 6 0 104 50 47 219 108 29 150 228 20 159 224 42 105 248 41 5 203 36 5 37 36 101 200 51 64 205 37 129 54 27 26 17 5 194 167 9 33 70 29 231 175 21 43 180 22 53 186 9 166 31 31 155 95 31 47 225 13 194 251 35 239 189 44 34 223 27 135 198 18 88 241 9 13 38 6 163 204 8 49 103 15 138 150 54 9 89 55 81 72 2 102 107 48 177 242 15 13 75 45 16 88 14 90 251 36 84 44 8 2 183 24 106 192 46 241 17 15 215 119 48 159 40 35 97 53 21 225 70 40 64 160 25 101 244 36 123 246 25 183 96 0 192 81 32 48 41 42 54 200 25 150 41 18 62 11 23 81 75 21 86 177 6 167 44 50 80 228 9 244 164 41 197 212 11 77 10 12 150 160 44 240 222 37 193 47 0 187 134 44 235 45 29 96 125 9 118 113 37 129 55 33 130 132 5 227 26 16 150 10 48 114 204 55 22 135 54 228 114 52 188 211 33 224 73 6 181 202 8 183 76 31 156 48 19 38 198 22 131 57 32 235 79 36 244 51 20 219 240 38 241 208 25 142 134 27 87 61 53 158 217 26 86 255 42 69 131 0 184 110 9 70 98 1 223 61 12 67 47 28 47 189 21 142 20 19 191 178 16 58 8 33 128 77 49 18 6 12 212 76 34 92 43 53 30 111 10 47 158 1 115 44 6 168 236 3 173 38 37 56 166 22 0 184 51 161 140 9 66 233 14 102 7 25 249 54 8 238 169 23 32 81 27 130 254 39 160 54 6 211 54 4 185 
216 45 167 26 41 226 129 10 36 122 41 178 104 39 107 136 1 148 10 26 91 171 9 78 126 7 46 55 38 52 222 6 224 193 16 69 229 49 55 151 27 17 2 3 243 150 44 10 241 22 203 64 41 222 110 32 239 162 47 54 130 22 180 200 23 10 255 44 123 16 43 108 3 29 216 14 52 171 217 37 7 183 53 110 166 51 127 221 53 15 145 48 215 156 48 125 23 15 228 131 7 48 91 3 19 7 33 248 14 18 116 124 42 226 252 24 143 11 29 171 226 39 104 95 43 168 67 42 176 115 29 183 134 33 207 127 40 234 243 22 19 213 19 21 101 39 207 16 42 48 120 37 109 33 12 60 209 48 167 137 19 41 88 50 47 66 1 144 85 20 248 106 50 110 58 55 97 106 31 80 215 47 75 20 48 40 187 2 100 229 3 228 20 19 216 164 5 82 156 26 75 10 12 55 108 22 249 188 48 32 7 8 87 47 36 7 148 47 215 120 28 121 80 8 164 162 20 39 237 32 236 37 51 6 30 55 139 63 51 73 150 27 114 157 2 114 117 46 134 238 23 85 147 47 10 186 42 210 167 23 63 173 52 71 56 51 90 130 2 217 244 8 21 102 30 88 236 19 202 65 1 209 75 52 80 30 7 31 93 38 145 164 27 241 255 4 117 216 14 24 237 50 250 69 48 115 16 28 137 225 37 20 49 17 141 80 47 154 226 4 97 211 48 207 72 7 234 97 0 62 91 37 20 206 19 222 87 3 14 107 20 42 249 37 136 147 13 49 244 47 248 195 50 28 173 3 228 236 52 172 0 47 76 223 38 217 237 37 172 24 9 143 160 26 83 209 13 72 201 17 142 229 36 181 201 9 176 117 53 243 193 54 151 155 45 150 71 34 100 215 18 138 42 34 27 115 27 165 1 28 194 182 41 211 102 19 167 89 48 40 240 2 150 135 5 4 235 28 81 117 51 139 144 22 222 53 17 208 247 50 148 202 24 32 113 7 146 154 24 205 48 17 125 52 32 239 133 51 252 16 25 81 238 17 124 191 15 210 83 54 155 115 25 101 5 18 230 210 28 205 80 36 13 63 40 62 60 29 246 141 38 154 9 36 179 220 19 92 119 54 59 221 26 18 195 7 179 144 26 197 157 50 114 220 33 78 210 53 95 108 10 244 31 28 154 124 24 47 183 47 130 201 20 41 124 7 67 66 55 98 180 5 84 2 17 150 97 19 24 86 40 213 240 15 32 31 19 116 162 51 164 203 12 75 14 9 208 112 43 23 197 47 239 91 25 100 115 19 181 73 41 216 105 33 104 221 1 24 129 19 67 204 30 38 156 44 211 180 52 252 
163 1 103 7 5 134 188 40 167 148 49 42 253 42 3 21 15 205 88 24 182 127 29 65 82 9 151 78 53 251 181 32 207 59 23 105 226 51 94 13 0 198 16 45 120 221 50 146 147 2 138 212 9 2 107 27 71 102 49 41 54 6 190 159 1 247 253 12 54 195 33 50 59 33 194 206 31 79 88 26 241 90 23 235 162 18 101 203 17 48 137 55 74 128 22 24 183 3 34 233 22 14 171 50 7 250 8 16 235 0 247 214 18 114 59 12 193 108 55 123 182 33 156 206 49 243 240 40 233 254 1 220 5 28 147 22 54 133 13 1 69 127 0 93 64 43 207 188 47 228 88 5 195 76 20 44 53 36 22 18 51 182 165 0 64 42 14 116 111 12 163 204 3 188 155 28 172 127 16 216 67 40 111 111 4 189 133 50 217 60 12 229 124 41 240 240 27 1 147 50 39 80 38 91 252 49 15 212 1 3 68 12 179 1 19 187 218 17 16 191 45 154 176 1 54 177 25 119 216 5 226 52 37 188 67 9 98 70 6 163 249 18 100 180 35 104 196 5 220 94 4 213 148 28 10 11 5 187 237 6 92 169 10 145 11 21 22 175 11 152 19 36 238 124 8 136 88 29 35 45 35 152 55 24 204 242 35 177 78 25 70 224 26 180 246 6 86 142 13 59 124 32 102 4 44 138 39 44 99 191 49 0 140 0 251 61 26 139 131 25 39 56 17 176 142 23 226 202 38 32 48 26 13 187 47 14 30 6 138 30 6 95 25 50 96 165 39 153 204 18 195 124 50 60 94 33 149 127 43 229 140 19 195 154 38 29 37 52 124 132 2 3 228 52 73 125 25 27 65 29 42 125 17 188 19 39 135 248 22 224 187 43 3 216 37 86 85 34 101 88 38 145 161 51 220 188 16 64 230 33 73 162 55 30 41 26 111 9 26 30 12 21 77 99 53 8 200 2 93 89 50 216 53 11 214 117 31 185 190 5 26 220 24 187 75 9 218 106 51 12 183 23 54 191 42 27 28 18 217 244 28 235 203 49 86 132 47 97 158 45 41 90 18 214 52 21 38 65 23 160 119 6 35 147 21 178 108 42 165 87 30 95 173 49 115 15 38 189 56 12 124 14 6 249 53 43 83 213 36 249 248 11 8 170 30 207 79 50 84 175 26 246 34 39 141 223 30 238 91 54 212 85 21 89 168 50 55 161 39 74 170 23 158 121 25 106 205 33 200 196 32 147 81 10 181 63 18 132 20 29 99 109 34 121 164 11 158 239 4 248 141 54 39 247 23 78 192 5 32 83 25 65 8 2 17 140 25 3 239 21 213 105 2 3 7 55 133 0 14 176 
39 27 125 118 19 243 150 51 227 215 54 160 232 30 33 235 18 243 193 2 4 196 11 42 73 50 188 250 2 243 119 18 25 106 32 205 77 30 120 237 29 227 14 5 161 1 48 103 6 41 185 48 37 251 236 15 166 224 25 89 249 32 11 198 42 229 62 24 53 33 37 27 194 52 216 41 13 125 227 43 14 222 51 95 133 40 117 222 32 212 233 17 45 207 8 253 4 6 55 32 48 191 248 50 53 118 52 185 132 31 62 227 45 202 88 34 133 44 32 45 89 2 181 86 1 55 142 45 127 77 53 5 130 54 173 59 36 24 122 48 172 68 19 35 201 52 120 247 24 83 172 26 11 227 48 173 98 6 30 104 4 148 21 54 41 45 10 183 217 12 187 252 16 67 117 17 175 200 0 115 211 37 99 129 32 173 159 35 78 51 51 124 93 0 248 20 46 247 208 39 49 19 28 229 194 41 221 53 25 158 153 44 87 70 13 188 148 29 4 17 0 175 9 45 194 0 50 235 49 50 65 22 37 112 243 16 156 146 37 61 233 54 166 165 21 227 169 41 160 89 50 253 27 12 142 6 44 123 71 22 125 184 36 79 84 48 53 146 42 221 56 51 186 27 24 49 188 9 238 185 26 63 71 14 162 195 12 14 64 12 122 144 36 24 197 40 205 162 26 117 92 43 175 141 22 210 123 18 154 187 4 11 93 35 214 107 14 188 229 7 168 254 31 220 203 44 200 64 6 9 239 18 219 193 0 230 91 11 13 102 6 239 60 51 139 248 30 111 161 4 21 125 18 252 70 53 115 79 5 175 42 36 141 17 29 200 30 8 144 13 22 211 153 11 210 8 3 45 29 20 244 26 50 160 141 40 74 61 15 191 202 33 116 146 18 24 34 8 125 246 22 61 200 31 99 245 31 198 233 4 34 137 14 30 211 20 152 146 25 88 6 19 103 30 22 161 155 16 235 216 14 84 60 6 202 2 44 217 36 5 240 67 31 36 219 10 115 52 29 79 155 43 104 60 18 75 40 13 193 124 6 90 70 18 232 31 44 63 15 49 139 51 36 192 166 39 127 245 27 18 93 31 55 169 51 98 106 51 172 196 39 146 173 21 80 236 12 74 119 43 70 55 47 103 183 21 203 201 27 11 0 48 126 98 17 141 15 12 217 161 16 76 241 5 60 59 9 113 129 32 198 233 48 41 180 7 192 191 0 254 62 40 49 203 18 193 164 33 251 241 42 159 45 35 7 158 14 29 100 8 30 142 25 151 78 29 71 76 29 174 125 51 222 63 54 14 58 35 160 217 12 66 224 25 132 253 7 184 28 44 38 179 50 22 250 16 239 168 45 125 
134 10 202 148 17 85 52 51 171 118 12 166 251 29 146 179 34 171 217 6 99 240 49 127 223 27 41 92 3 33 38 1 102 123 21 41 39 50 42 205 24 102 96 11 122 11 30 111 110 40 98 237 16 112 22 55 50 56 20 237 158 18 81 199 46 58 242 5 184 88 50 106 210 26 146 66 54 182 164 28 140 20 50 60 70 0 220 52 32 92 133 23 56 191 38 58 119 24 184 225 16 93 116 27 208 42 13 162 182 9 128 243 5 205 207 36 7 43 48 87 99 53 224 158 52 7 86 12 245 180 21 214 132 9 14 38 11 25 167 18 102 116 53 87 123 44 93 210 24 169 178 35 41 185 41 46 175 16 242 133 20 46 147 48 76 173 38 221 19 45 153 107 1 11 200 36 112 113 39 164 154 41 4 200 51 200 186 50 41 233 23 225 53 50 77 18 23 61 171 35 84 182 38 17 38 22 67 203 7 239 207 1 110 151 25 160 193 19 139 162 36 37 240 41 68 45 28 246 129 23 86 147 30 201 214 44 167 197 39 77 52 39 100 212 22 21 95 15 142 132 2 193 200 34 222 190 15 47 20 41 147 221 28 163 132 50 105 209 39 85 53 11 13 74 15 148 216 46 178 154 42 146 120 26 20 167 17 134 59 53 37 222 43 70 71 23 250 156 1 132 169 38 212 61 25 87 240 25 175 130 43 101 150 19 160 28 19 162 65 54 99 136 36 57 130 35 236 7 23 35 219 41 44 50 54 107 225 46 244 71 16 85 231 22 81 137 10 196 237 28 223 38 12 53 18 46 105 53 13 228 98 48 252 205 51 189 193 36 187 22 19 170 103 2 26 44 52 33 11 1 67 65 15 167 170 49 147 143 46 2 139 16 119 72 53 200 3 14 75 173 45 175 200 52 91 233 40 237 44 52 9 212 45 18 103 23 65 105 38 130 225 9 249 169 49 209 244 45 119 163 26 221 254 50 90 236 43 63 245 40 79 8 52 107 73 35 200 204 21 208 197 6 102 150 39 136 13 19 241 235 46 94 69 45 121 132 1 91 212 6 39 63 6 31 8 40 235 216 4 30 62 41 187 198 23 57 184 37 96 22 48 123 143 5 58 235 2 247 18 22 160 49 29 62 28 29 229 58 45 213 246 12 145 47 26 18 144 26 41 11 25 78 69 48 94 60 35 180 220 29 142 27 38 60 0 18 41 213 45 31 102 11 236 120 10 248 161 34 203 240 22 85 78 43 246 2 16 39 144 12 66 204 23 112 246 55 206 21 36 73 1 26 254 250 50 169 197 4 131 26 36 238 17 26 100 56 5 31 122 29 23 234 10 236 185 16 219 2 21 203 
0 54 143 169 0 186 44 29 92 26 8 160 126 17 212 158 33 87 181 19 220 161 22 241 125 31 211 72 9 171 215 41 152 145 26 135 238 14 111 142 25 29 99 23 229 186 37 190 150 11 207 135 28 90 91 9 208 6 41 255 159 17 48 38 34 97 149 40 59 178 15 66 151 18 99 85 36 2 36 42 64 127 25 51 79 52 199 79 35 217 127 26 50 225 48 99 28 45 38 94 32 214 193 55 21 196 5 183 4 25 19 55 48 5 254 0 127 215 7 83 10 6 46 109 39 168 147 20 72 106 42 126 127 36 102 55 8 229 74 20 186 80 3 180 207 9 44 34 9 244 81 11 11 249 32 162 66 52 25 192 38 173 38 5 160 11 28 84 198 15 204 122 23 72 166 46 251 155 40 172 166 25 53 72 27 200 98 37 201 15 29 93 175 51 91 3 46 216 207 44 141 23 46 140 18 13 219 191 0 249 244 30 57 189 39 203 134 9 86 227 16 35 62 32 176 22 19 99 163 3 33 47 26 166 10 37 164 3 4 73 61 32 137 8 45 112 94 19 159 129 6 48 49 28 208 148 35 32 181 54 116 91 30 151 0 40 209 73 4 30 211 33 42 67 9 43 226 31 232 18 32 44 226 41 82 3 13 183 119 2 50 14 30 80 223 38 158 254 39 247 40 34 83 83 37 236 60 31 141 104 25 140 186 20 12 113 47 189 163 54 2 244 12 252 146 19 82 137 41 168 220 26 72 200 45 186 85 17 112 225 1 7 237 4 177 170 37 61 172 25 204 169 5 210 251 47 230 164 41 217 236 13 203 166 14 229 22 35 82 30 53 252 207 10 13 12 5 217 216 49 23 170 18 248 144 54 205 105 26 52 52 14 37 25 52 243 108 51 137 104 25 116 117 0 65 79 36 252 102 52 97 94 46 114 43 30 45 95 23 227 133 36 61 120 29 131 1 1 111 117 41 114 183 23 147 179 22 131 20 44 127 134 2 83 179 53 209 150 20 223 211 41 87 86 17 3 198 34 200 56 0 250 204 7 147 79 26 162 207 30 0 34 12 196 244 48 230 211 6 51 42 42 224 45 40 17 246 38 187 240 47 101 131 19 133 38 50 92 38 49 230 235 28 132 209 16 169 5 43 129 229 46 239 246 35 49 177 9 202 23 25 40 156 37 191 249 27 34 223 1 213 100 44 86 13 46 250 142 43 146 125 40 254 175 6 148 121 16 87 161 31 17 97 35 186 131 36 231 88 28 58 175 40 180 169 29 24 60 11 78 58 8 137 206 31 169 37 8 192 54 18 136 241 51 103 216 54 226 19 47 87 199 22 171 223 23 99 46 35 40 
183 45 123 97 27 75 33 17 203 169 39 195 16 16 93 242 1 88 73 4 215 244 27 174 87 26 52 127 8 99 250 40 207 70 33 116 17 10 232 212 27 129 50 43 80 138 21 17 97 15 170 15 35 86 67 51 201 167 34 27 118 53 156 234 43 212 210 20 109 83 48 39 164 34 138 181 13 253 95 54 98 181 6 17 126 17 181 153 24 176 53 22 42 9 1 159 118 11 90 157 7 38 39 19 199 36 24 153 135 7 246 152 28 181 77 2 131 253 51 148 40 17 77 199 34 123 34 9 148 72 6 128 15 54 191 169 50 162 159 17 58 84 26 49 215 55 221 108 29 7 185 53 202 52 52 195 201 54 198 73 23 63 8 30 85 170 55 147 228 39 246 21 35 223 242 35 97 249 55 49 195 48 254 135 20 243 77 29 175 140 30 142 225 54 181 117 8 235 107 12 203 74 17 74 172 51 29 221 4 200 219 24 223 206 55 175 125 20 180 11 24 129 192 17 152 172 38 182 119 49 127 193 28 43 222 24 237 167 21 160 134 8 77 54 6 189 234 11 180 107 7 248 3 31 200 186 43 121 57 26 160 100 3 49 81 26 13 242 41 149 63 31 250 252 5 58 176 39 72 168 19 212 112 46 107 233 48 194 137 1 198 187 14 64 200 23 124 94 33 150 88 8 87 147 52 158 219 12 28 175 44 131 26 20 86 221 54 45 163 15 189 227 50 135 95 35 181 245 1 52 76 17 166 235 44 86 7 48 3 138 7 95 225 2 100 14 47 216 203 18 54 82 21 30 7 21 192 60 26 43 226 7 244 56 50 22 59 9 202 155 43 90 255 36 154 215 2 244 14 6 43 44 32 5 236 8 194 24 44 223 12 14 242 34 38 81 237 42 155 71 37 236 225 52 199 213 51 132 0 1 78 5 45 228 200 50 205 167 18 189 153 38 233 234 41 247 133 30 61 113 5 191 57 7 220 189 20 248 11 37 236 240 2 237 189 50 27 122 18 53 99 43 103 90 6 165 151 11 6 87 13 84 51 22 234 44 35 97 24 22 173 5 22 250 32 19 77 85 37 103 188 8 41 98 10 133 104 42 203 189 17 150 167 12 211 8 40 73 181 24 124 176 46 187 253 14 233 100 44 213 142 40 58 19 2 3 222 11 37 116 40 223 72 7 240 145 7 53 14 44 165 201 44 46 178 9 188 135 30 106 194 52 110 197 23 47 234 45 81 202 1 220 186 1 36 239 27 19 149 25 10 195 18 183 127 28 19 233 20 109 88 54 43 135 27 119 216 5 214 181 15 19 217 18 196 237 9 190 247 30 73 174 17 226 194 48 68 47 34 88 
90 18 244 209 25 82 167 1 117 186 30 131 126 48 90 60 21 236 133 12 110 103 51 132 171 13 94 4 4 182 248 54 248 75 47 146 192 30 179 67 24 173 158 38 91 138 35 227 248 24 88 125 16 197 219 11 224 145 55 189 138 40 201 28 3 47 208 11 102 125 31 68 216 21 220 188 39 242 20 8 69 217 29 30 185 48 94 118 41 73 63 43 57 110 40 33 212 16 84 24 53 71 244 29 126 231 17 83 44 54 179 74 23 11 168 17 224 242 31 144 43 47 209 76 29 157 160 26 133 231 10 61 102 47 114 185 46 127 108 42 73 119 5 39 87 29 222 231 31 79 185 50 55 86 14 94 219 6 243 24 38 93 138 44 224 9 13 87 82 42 181 121 25 63 88 1 20 167 48 146 222 9 1 60 23 156 48 18 130 141 50 9 109 4 119 196 6 75 121 16 216 185 34 210 205 50 68 95 41 13 97 48 189 253 36 39 127 4 230 136 50 129 255 39 51 74 36 112 35 29 182 245 46 78 57 20 96 70 11 202 4 20 220 43 25 204 17 1 248 146 49 85 198 9 63 54 11 150 236 54 178 58 52 72 155 29 150 101 44 178 65 32 46 13 27 10 6 28 228 91 23 61 154 21 30 48 11 255 227 55 43 43 1 121 193 20 189 116 50 59 162 19 255 172 33 199 144 39 186 205 2 190 236 12 85 235 36 178 22 31 69 144 34 196 77 36 126 136 0 210 135 18 140 78 14 136 8 39 145 199 52 160 28 32 10 207 44 14 20 10 66 217 2 90 87 0 156 41 16 160 182 0 24 62 22 50 207 55 249 111 54 80 121 42 116 135 41 133 201 46 129 35 39 147 192 38 54 96 15 38 121 53 158 171 27 158 164 10 237 244 1 68 105 26 98 238 25 156 111 51 166 2 6 196 56 6 187 94 7 9 253 16 128 155 11 174 136 32 25 204 4 84 46 21 253 203 3 32 113 18 201 53 53 60 240 21 211 249 20 41 121 41 224 39 12 16 65 37 236 149 17 108 146 8 224 178 3 190 124 20 137 184 1 196 139 1 1 181 42 118 149 51 74 166 3 27 146 44 136 254 33 125 222 51 62 156 14 46 38 2 233 234 18 21 235 30 118 97 43 199 172 32 17 199 30 213 79 32 192 204 38 236 11 53 173 57 25 0 35 55 6 56 49 136 175 44 195 118 6 137 136 50 4 93 49 20 29 1 203 9 13 19 182 16 90 182 18 127 189 37 64 69 5 40 8 36 249 145 35 182 149 27 212 170 32 158 117 29 47 136 14 16 226 52 190 97 50 118 162 23 104 202 45 125 195 29 203 121 39 199 
77 28 58 235 46 53 27 11 141 43 36 2 233 46 128 96 8 180 200 34 159 70 20 70 17 15 51 216 9 41 19 46 176 72 50 204 214 13 147 216 48 206 89 26 146 13 18 57 172 26 65 243 32 235 38 25 95 79 42 150 255 5 71 204 21 70 95 27 48 45 36 53 192 45 101 249 34 127 58 15 249 37 50 60 132 40 196 26 48 94 98 23 208 168 35 85 216 34 34 13 32 198 114 48 66 242 41 23 235 19 249 39 16 136 236 52 10 74 38 179 26 16 171 111 16 162 145 16 102 87 29 136 153 32 216 176 50 232 170 13 241 50 21 52 61 17 156 240 3 136 155 29 143 61 20 247 163 21 8 44 45 240 4 46 230 237 7 78 222 9 168 19 19 237 175 48 90 56 8 179 199 19 86 190 1 19 198 44 63 183 32 253 157 37 18 235 34 192 147 48 31 128 3 40 219 51 100 142 35 220 229 18 69 248 32 72 56 7 137 53 30 110 71 27 126 7 6 147 39 41 149 79 49 118 179 20 105 144 43 12 213 48 231 29 48 137 167 8 234 21 5 17 147 52 239 39 28 106 188 51 208 50 2 201 156 30 66 168 38 151 144 35 122 25 0 66 3 55 2 20 20 251 3 24 40 109 7 157 61 11 25 6 6 188 73 2 174 224 42 84 90 42 138 156 52 149 158 15 190 153 36 141 194 15 114 95 53 234 120 26 137 52 33 228 226 10 114 55 18 156 193 28 111 87 16 209 21 30 77 162 8 205 20 26 97 254 33 248 135 33 253 108 45 64 222 15 137 123 30 27 234 0 141 187 55 89 9 44 193 214 30 199 55 51 103 47 41 201 45 25 138 109 37 195 246 27 48 17 54 128 158 32 6 247 4 78 184 5 237 127 51 161 231 50 248 176 1 99 59 14 204 254 19 189 47 33 26 175 50 86 181 48 12 4 7 173 241 15 9 147 31 110 139 46 169 238 30 27 186 17 188 120 8 139 146 7 198 232 54 248 245 51 58 162 55 27 171 9 242 25 36 130 194 31 145 221 13 135 153 23 45 36 31 15 235 2 239 227 18 254 29 39 188 56 25 47 43 36 167 173 5 16 62 55 12 197 20 147 242 30 8 1 42 55 240 45 223 238 32 25 170 38 59 218 38 83 129 17 12 145 54 113 157 28 238 48 41 46 56 36 74 111 29 0 78 30 219 103 44 160 163 39 73 246 25 15 2 2 13 115 3 55 98 24 13 144 8 34 218 0 251 219 31 199 182 38 149 86 5 83 159 24 255 174 46 86 188 41 135 243 4 57 0 6 124 34 22 92 30 41 108 229 20 180 122 18 108 205 32 114 
205 0 223 35 54 240 171 50 246 228 45 255 97 54 124 189 16 90 42 30 201 222 20 18 74 14 54 188 28 16 156 49 64 140 4 16 130 15 143 130 44 201 254 5 247 88 34 37 33 28 117 51 11 228 105 13 56 121 18 6 186 14 162 202 42 11 89 4 152 35 14 207 26 44 235 63 45 104 180 54 163 152 26 7 208 19 74 215 53 216 121 31 34 133 9 8 29 27 122 236 22 110 216 24 229 64 15 89 227 27 38 235 4 21 53 36 55 13 11 194 47 13 199 55 18 134 177 31 16 32 11 243 5 27 249 94 4 25 133 39 120 154 26 139 209 40 55 147 53 180 91 13 7 225 12 212 241 54 38 228 14 149 221 19 241 246 25 36 110 38 152 250 24 240 49 25 50 229 29 170 237 32 48 193 49 229 232 35 209 125 55 111 110 21 45 147 11 240 43 26 18 27 20 184 78 53 249 248 19 10 40 0 175 13 49 175 223 1 145 78 31 100 124 45 27 108 32 176 126 52 60 55 15 54 48 45 42 58 14 79 234 30 90 153 52 82 42 19 12 142 41 173 170 5 204 90 42 90 150 8 122 204 39 198 246 47 46 70 42 227 160 36 145 243 37 104 255 48 76 172 46 15 121 32 32 211 27 174 77 9 168 20 22 32 66 52 208 37 2 175 183 11 201 31 54 205 107 53 107 122 9 51 154 50 137 72 21 138 240 3 229 17 39 214 225 9 148 144 38 73 90 53 67 39 4 222 146 39 108 197 49 249 79 20 51 217 36 229 190 5 107 148 14 62 41 47 37 114 39 78 181 1 156 148 41 162 0 51 198 250 25 86 45 48 95 18 41 3 125 15 240 187 51 205 224 44 187 46 46 138 203 44 233 109 32 163 51 24 132 137 2 247 233 31 48 236 34 184 220 47 25 169 27 56 100 43 236 238 34 200 216 5 23 123 26 27 255 29 179 246 39 75 39 48 222 223 44 157 249 9 111 49 2 191 29 39 202 230 37 181 253 37 207 24 24 180 203 55 6 22 22 140 244 21 155 146 12 147 1 21 119 192 39 56 138 12 163 64 18 114 15 31 47 196 7 197 202 50 213 86 25 229 241 21 235 132 39 24 252 1 36 52 9 42 215 36 97 73 52 181 121 19 240 62 55 39 19 2 119 248 40 145 227 42 194 251 38 232 32 2 159 74 55 88 171 30 210 96 24 214 80 41 26 120 39 109 239 10 133 128 27 103 67 38 159 43 34 201 202 26 120 35 36 34 245 31 1 203 7 184 229 16 184 82 0 49 215 23 232 62 7 178 222 34 117 167 13 28 31 24 190 66 51 128 67 8 140 251 11 67 
179 0 90 228 34 194 204 42 162 127 24 113 244 46 193 16 54 83 206 13 17 78 55 153 218 35 68 29 54 228 120 50 79 58 38 159 221 11 65 78 10 187 15 30 116 99 55 10 116 45 72 13 12 166 81 46 69 53 36 40 132 44 7 35 30 153 100 19 15 32 10 82 148 1 20 158 20 203 231 48 146 141 37 39 210 22 11 251 27 202 2 47 166 155 34 250 170 39 136 253 31 244 17 19 174 220 49 119 110 8 164 150 21 68 161 0 242 107 35 240 17 13 36 11 8 219 148 2 182 136 7 245 54 1 84 173 29 71 81 36 216 150 34 81 136 51 86 120 23 46 156 8 1 120 52 214 46 16 70 35 16 97 119 30 120 190 35 161 150 37 167 231 35 27 62 43 37 108 35 208 110 32 231 68 16 16 139 38 68 236 25 12 100 32 92 6 38 226 173 20 21 200 44 154 237 18 181 189 22 88 165 52 116 181 33 44 249 44 92 5 40 186 97 44 59 67 42 51 88 7 233 243 55 53 168 12 105 1 42 219 117 23 186 161 20 6 253 29 151 183 50 179 242 27 187 37 46 40 14 30 154 67 1 186 173 50 161 136 35 118 66 48 8 73 33 63 224 38 43 148 13 16 79 23 250 119 4 69 18 34 211 204 5 185 109 34 147 227 11 21 235 53 152 42 46 144 85 23 41 101 11 191 95 34 12 164 26 75 119 44 175 49 48 33 196 53 214 217 1 57 113 28 36 1 7 81 42 36 200 233 50 31 245 9 10 64 38 68 239 45 246 16 46 186 230 26 74 31 51 72 67 28 41 149 45 245 93 23 236 124 0 57 134 13 235 202 45 252 193 12 178 123 4 224 198 51 62 14 34 97 55 22 92 44 19 201 25 8 54 82 20 206 61 26 78 57 44 196 236 29 121 204 25 30 10 47 210 107 53 109 200 12 40 145 8 38 199 33 185 149 11 169 228 8 21 168 42 7 33 54 195 63 34 65 18 52 58 127 40 249 167 32 198 205 41 202 134 32 250 47 38 68 68 34 223 75 2 184 15 43 202 80 43 200 138 5 146 131 20 102 73 12 166 19 41 174 13 16 71 81 55 168 49 36 158 233 15 120 179 6 250 123 38 157 13 8 128 115 35 117 26 28 234 200 55 6 16 13 239 184 30 95 86 7 255 206 32 227 200 51 18 101 46 81 230 51 223 91 47 248 69 17 147 75 33 120 59 9 111 154 17 116 153 55 203 124 29 82 143 21 195 224 35 230 191 41 133 183 28 48 75 18 79 195 29 136 50 24 138 167 27 155 114 52 101 196 9 132 135 8 114 110 0 39 243 47 66 35 7 67 
115 50 160 251 21 66 133 47 47 33 14 88 134 24 27 10 53 119 124 4 80 164 42 184 230 29 0 42 17 8 202 12 199 12 55 209 59 53 158 147 14 157 174 12 68 38 14 92 118 51 57 47 15 158 47 13 112 55 55 54 254 17 31 207 29 123 109 33 210 11 52 175 79 19 173 171 9 49 229 31 192 131 54 203 243 46 122 41 53 15 72 12 207 195 11 88 150 33 238 69 20 191 243 19 35 36 22 54 228 27 111 175 22 31 41 34 253 57 51 11 8 20 81 96 47 149 78 5 168 13 3 41 49 54 181 103 42 144 215 23 23 246 46 130 243 16 113 255 41 83 80 49 94 229 17 178 141 0 202 183 29 119 108 46 106 253 38 80 20 13 91 150 3 74 7 46 232 90 21 176 185 5 177 107 26 186 53 24 36 173 31 220 23 51 161 104 48 152 195 12 246 13 11 43 245 26 86 166 5 116 87 14 146 18 1 255 54 39 82 18 36 50 179 3 201 75 27 204 65 46 205 108 43 225 194 49 140 55 7 63 201 54 76 200 16 18 26 6 67 76 24 170 21 12 190 226 31 234 175 9 125 144 53 212 29 0 55 92 7 144 168 24 143 186 24 230 253 11 78 168 31 237 102 21 157 80 55 1 206 30 177 162 38 162 217 19 255 106 15 31 249 55 118 223 1 150 46 7 127 27 55 130 184 53 209 186 46 54 107 20 125 13 46 115 12 15 250 44 1 157 162 51 157 57 10 68 184 32 166 58 43 5 11 36 12 66 6 121 191 17 55 51 46 195 45 50 241 202 54 249 103 25 106 172 10 213 82 50 32 87 28 152 99 31 44 220 25 120 20 49 126 215 20 239 201 33 109 194 35 247 44 27 174 2 7 7 34 17 153 186 24 227 230 51 103 94 39 246 220 51 200 203 19 89 56 44 29 48 30 14 222 2 201 229 28 236 126 30 187 97 25 220 200 15 84 190 6 47 134 42 231 223 6 178 252 22 85 10 14 193 212 52 239 192 33 74 124 7 166 88 0 37 173 8 94 220 23 125 195 37 251 118 45 86 203 25 124 141 20 218 124 8 105 198 16 213 109 36 39 146 13 246 240 26 39 109 54 31 105 26 214 191 16 20 59 43 49 21 24 74 126 45 110 84 35 102 123 8 31 113 50 83 152 18 224 184 24 26 142 1 49 162 48 11 211 3 91 30 24 118 140 15 31 243 11 68 18 46 47 101 15 136 70 0 114 96 40 77 145 14 149 156 1 70 247 20 182 110 10 97 141 31 33 209 34 96 0 36 243 136 17 1 251 15 129 72 16 153 221 1 105 35 38 199 217 29 200 58 43 157 
91 8 143 188 9 14 175 26 128 177 10 4 50 53 238 203 45 29 52 26 173 251 21 207 196 38 141 97 48 66 240 4 102 255 48 22 127 7 152 132 0 26 114 50 36 143 5 42 61 17 119 12 13 162 153 49 239 219 18 22 65 42 118 88 41 50 240 1 170 10 29 210 46 55 170 88 14 181 208 43 138 114 7 148 97 40 153 119 28 98 238 45 140 32 37 166 203 5 192 157 39 89 71 14 118 252 6 5 135 46 35 27 32 127 180 2 230 22 17 231 162 15 195 72 24 224 8 11 86 97 40 187 215 7 43 220 36 201 0 19 191 127 54 134 101 2 190 76 48 88 15 42 106 240 26 105 70 27 137 1 44 116 44 20 252 245 24 204 181 40 152 59 15 235 249 53 89 82 9 123 188 25 179 37 33 141 175 55 175 35 8 218 32 21 103 236 34 203 132 23 11 111 50 76 200 4 11 67 14 48 246 10 162 131 23 35 50 6 148 13 26 75 116 10 3 63 46 232 74 2 195 150 9 82 162 49 29 210 52 225 116 10 247 151 45 201 43 15 192 118 4 103 122 24 49 98 55 27 37 34 241 120 16 75 149 26 20 118 21 165 109 49 121 54 25 67 246 4 144 93 3 15 142 53 156 169 23 156 154 5 220 229 21 102 249 34 134 158 48 73 23 21 222 90 3 231 234 17 136 250 15 85 150 21 152 50 31 85 14 17 116 116 39 185 251 16 118 68 15 200 34 54 144 9 17 197 146 19 48 231 5 146 127 3 81 212 38 158 72 12 149 2 1 39 120 4 158 65 8 14 209 2 29 151 35 68 199 21 197 89 4 48 170 27 150 73 31 145 222 40 191 5 42 252 163 18 173 178 27 89 207 5 73 19 44 91 216 19 118 9 45 36 159 23 184 48 48 204 240 7 179 236 28 227 153 24 21 242 10 192 59 25 171 150 53 104 12 29 188 48 54 216 233 5 77 181 54 108 104 54 213 76 2 28 97 51 104 33 53 88 205 40 250 53 14 108 242 34 241 202 11 78 23 4 181 131 25 186 88 49 240 116 29 22 221 7 40 53 0 211 48 21 112 156 19 72 141 21 182 219 47 49 144 14 220 75 1 112 59 2 185 82 6 106 122 43 104 78 25 199 190 1 71 7 37 149 189 18 24 238 29 141 202 38 204 58 49 34 243 4 251 94 38 45 198 1 212 141 23 87 212 45 16 105 28 249 129 34 126 14 16 144 218 27 126 252 13 252 248 1 197 37 39 201 249 13 32 81 2 241 97 46 16 91 16 237 217 9 210 106 8 116 232 2 4 228 47 95 169 31 245 114 28 126 146 14 101 131 47 18 
147 24 76 129 3 90 83 5 210 199 31 204 203 55 212 43 3 182 32 4 149 158 6 108 3 9 105 21 52 95 97 16 166 187 33 78 142 44 82 90 11 47 46 38 118 228 9 165 122 9 184 230 39 116 79 10 162 174 15 99 84 32 168 163 4 128 245 2 217 36 36 133 154 2 248 63 38 54 247 40 160 107 23 41 13 54 81 113 37 123 25 1 187 153 12 91 114 1 183 247 45 161 239 31 229 37 46 87 197 45 174 239 32 126 64 54 53 187 7 60 118 0 241 210 17 250 137 11 167 43 18 72 16 41 14 104 14 109 22 4 12 148 35 161 202 43 162 6 54 176 247 29 47 241 23 199 152 40 248 225 11 155 239 44 53 92 52 190 104 34 108 10 54 224 172 24 67 92 14 230 139 29 69 82 31 26 74 55 193 229 48 241 26 55 77 216 36 185 68 36 141 37 14 119 104 18 245 79 14 62 148 41 140 174 51 210 111 37 9 96 34 216 173 4 137 102 28 40 243 9 36 106 6 137 96 22 247 158 5 18 42 9 136 252 15 138 5 22 221 222 23 123 103 44 253 143 3 154 180 6 14 61 17 199 52 33 165 70 7 236 207 9 129 89 54 171 54 43 130 177 33 201 175 40 112 73 24 196 87 44 127 31 41 46 196 13 71 176 20 192 50 35 215 221 28 24 95 34 86 40 52 154 152 11 187 93 44 68 220 35 92 10 50 40 81 39 49 17 7 110 232 17 242 1 22 69 87 22 241 241 22 212 173 7 104 241 4 171 77 40 55 117 11 26 166 44 29 20 30 228 7 6 91 76 7 5 62 47 139 18 0 113 122 21 128 37 14 39 92 11 43 118 16 11 147 54 246 119 43 51 211 26 129 216 54 183 99 28 239 213 38 126 85 24 254 124 37 44 167 49 74 178 24 182 169 43 150 220 43 29 93 30 184 20 38 90 3 17 72 129 30 117 128 43 179 172 47 108 246 6 73 172 25 131 67 18 51 96 14 118 24 27 49 114 7 191 186 3 37 47 20 239 227 44 141 79 24 129 152 15 240 27 27 7 78 6 208 197 6 66 246 14 144 182 40 59 219 11 250 202 50 189 88 29 2 217 12 198 201 21 55 208 48 158 160 7 177 226 36 8 114 34 190 173 48 141 168 28 205 101 22 200 103 14 243 46 47 0 101 1 93 3 17 82 180 42 98 188 44 193 123 15 229 8 44 0 213 4 208 158 34 124 145 41 243 145 15 193 238 4 105 64 23 218 163 12 27 100 48 253 74 11 194 74 27 249 26 9 221 151 7 106 138 16 92 75 33 181 180 32 61 142 0 41 170 3 25 167 48 189 
105 42 29 98 44 249 64 46 220 170 21 149 6 47 236 187 51 212 248 23 78 34 38 182 59 24 94 248 23 170 21 49 90 14 35 84 235 35 152 128 29 246 109 19 236 65 47 107 143 15 54 69 25 182 164 28 196 78 52 124 168 2 219 252 16 164 148 51 208 138 28 59 118 9 81 226 50 108 24 18 67 206 39 19 146 19 4 14 41 49 234 17 85 142 53 143 94 25 216 154 36 11 235 50 191 87 28 224 155 21 67 174 35 53 178 14 108 227 4 72 57 30 113 200 29 67 160 19 16 172 37 114 107 40 94 76 32 192 143 3 5 196 49 98 48 43 141 120 55 75 234 8 24 45 16 206 61 41 19 175 5 183 13 48 244 206 36 29 211 35 157 53 15 184 194 8 129 14 24 252 38 42 91 244 15 243 8 29 84 191 20 85 179 26 2 208 40 26 109 3 127 37 48 114 166 26 42 163 48 18 254 22 114 242 3 189 70 51 52 155 26 233 157 37 78 183 54 192 54 51 0 169 41 19 211 47 91 229 42 101 87 9 126 20 51 188 73 1 239 50 28 42 128 49 36 64 16 210 64 47 80 83 24 59 174 3 76 20 16 4 146 7 94 78 44 183 62 13 2 104 15 147 141 0 191 95 48 136 175 17 9 234 20 192 55 51 32 59 7 83 153 33 107 81 55 218 83 45 94 231 38 43 166 19 43 47 26 171 56 25 107 248 27 108 24 42 193 107 21 196 214 47 219 176 0 132 15 27 123 58 18 177 101 41 79 16 32 122 124 48 4 232 24 61 169 40 96 109 27 187 72 41 80 204 33 127 72 8 255 249 3 211 72 48 141 194 17 238 198 53 126 3 5 70 99 7 6 30 52 222 111 45 33 238 49 58 238 33 4 193 26 220 78 26 239 61 36 104 187 10 241 2 29 246 8 9 227 231 15 122 8 46 127 67 21 204 71 35 229 35 20 71 19 34 161 123 47 68 108 19 168 98 53 211 69 45 0 192 20 145 63 21 65 11 16 95 240 23 108 55 34 103 217 13 35 29 32 46 197 36 117 152 22 120 153 52 125 42 4 139 107 3 127 203 46 124 55 46 188 159 46 67 194 31 238 240 12 171 102 9 228 222 18 136 92 11 143 231 53 219 102 17 231 227 4 50 159 51 136 227 50 206 209 5 76 124 37 163 96 51 23 233 50 81 120 46 35 83 53 142 58 35 35 108 14 36 244 46 240 194 25 244 15 2 150 178 14 251 202 55 81 27 32 12 62 48 166 204 3 156 239 13 121 20 33 189 4 29 227 248 31 169 143 54 82 138 49 204 219 51 195 232 30 26 142 44 90 43 48 18 
164 23 29 97 27 98 69 8 19 238 16 184 65 31 31 13 2 150 208 45 191 234 45 178 68 36 192 86 23 12 115 27 36 213 29 43 232 42 71 160 40 103 192 17 127 86 47 39 21 31 89 199 34 102 135 6 92 147 37 224 183 40 143 226 46 226 41 14 151 144 31 145 16 39 122 55 53 163 144 10 218 246 1 226 82 40 212 50 3 10 193 50 151 164 20 152 59 22 110 205 6 44 71 6 139 234 21 170 197 13 31 167 12 169 123 30 250 133 49 210 29 34 61 181 54 95 35 42 100 79 7 146 219 46 80 133 8 31 165 13 36 78 44 186 73 39 70 27 45 36 89 42 53 184 15 8 28 34 126 174 17 48 255 36 175 30 2 117 66 7 38 252 37 155 66 30 184 103 42 79 156 19 108 164 11 166 35 8 149 83 14 167 3 37 9 120 27 69 158 30 7 58 18 110 242 5 36 65 44 34 174 16 60 84 13 175 234 16 219 145 27 35 154 22 25 224 31 15 231 37 34 86 23 120 122 17 203 156 3 96 217 9 92 136 37 244 99 15 49 134 33 145 160 51 69 175 11 251 209 35 42 74 17 248 21 11 255 117 15 249 209 16 52 197 33 29 247 4 90 136 35 130 205 11 59 201 26 142 243 35 194 235 53 221 235 2 78 228 39 57 24 24 192 53 30 33 143 53 10 17 13 86 76 19 41 219 36 156 157 23 190 122 19 178 200 30 239 1 18 66 193 26 9 226 23 162 236 14 0 67 32 85 108 36 50 9 23 221 199 28 81 121 30 185 105 6 12 171 31 74 180 41 108 86 51 166 86 8 21 171 43 19 222 47 35 187 48 128 13 40 183 198 25 140 210 34 218 28 21 241 136 42 8 46 32 225 67 23 157 86 26 69 122 24 48 250 36 135 177 25 232 61 15 16 24 9 177 9 5 188 17 21 113 243 27 219 144 30 156 213 12 179 5 38 117 140 0 22 116 34 114 132 39 219 54 47 10 242 48 11 99 18 40 63 37 205 219 45 160 142 34 182 3 31 34 25 43 9 139 16 233 102 20 123 112 10 75 123 44 50 163 32 35 112 55 37 16 34 26 198 48 159 233 11 249 242 29 88 219 40 67 87 55 163 162 31 136 212 19 162 247 38 175 28 7 31 54 55 206 213 38 88 206 55 112 38 17 139 106 44 192 13 35 129 149 53 168 56 2 63 231 1 82 6 38 9 212 20 48 44 10 103 156 8 101 39 7 76 232 17 37 105 54 218 17 28 229 80 44 147 163 19 21 172 41 142 220 21 36 67 9 241 169 13 147 245 52 3 27 4 154 245 5 155 218 54 170 109 55 78 
130 26 42 17 46 237 53 26 182 38 29 83 185 14 28 189 20 129 87 47 13 243 28 130 157 54 95 235 36 78 21 6 141 2 15 111 184 21 253 11 27 103 39 45 20 168 10 107 181 25 183 55 12 30 151 49 122 229 52 176 114 49 84 225 19 123 222 27 178 69 54 31 89 21 179 196 13 0 123 11 10 153 2 107 19 49 192 196 54 177 24 24 142 147 17 127 70 47 115 101 44 30 24 6 213 24 42 178 34 22 56 142 31 115 78 11 229 255 55 239 141 7 221 13 51 62 128 49 127 158 22 159 115 39 3 38 15 193 94 34 68 209 48 66 182 38 217 165 29 132 131 43 243 193 16 123 64 24 150 223 22 247 227 50 189 164 16 156 232 6 148 42 39 174 4 37 86 136 19 76 124 38 65 247 7 196 141 23 84 132 39 100 65 26 19 222 14 53 114 47 125 32 49 35 118 21 154 194 30 199 3 18 154 200 17 240 28 54 7 129 18 95 148 43 150 201 1 176 70 3 110 105 27 21 3 49 231 202 51 188 101 47 26 85 39 244 93 27 197 188 36 35 82 0 5 2 41 41 112 47 42 134 24 158 109 35 49 41 22 59 68 27 6 56 48 213 254 5 108 33 49 32 39 35 84 80 45 29 122 6 174 24 36 134 74 41 198 133 42 10 139 14 24 97 15 139 205 5 83 237 22 121 66 29 90 95 53 142 13 40 195 147 48 105 90 50 149 100 23 46 124 19 241 7 28 247 90 1 54 211 55 115 46 9 210 188 48 87 127 29 45 233 17 125 126 43 229 173 23 152 158 43 207 149 34 146 204 12 182 63 0 168 17 14 135 105 50 168 150 9 40 19 10 181 248 17 214 144 30 81 96 20 48 242 1 139 169 13 237 81 37 170 216 46 58 128 31 248 168 13 114 93 16 107 52 9 78 133 33 175 182 33 189 65 52 105 47 5 170 217 46 184 19 46 5 11 30 99 125 14 43 232 3 136 54 7 249 229 5 98 162 27 91 11 20 181 182 3 1 110 44 246 115 15 60 214 26 90 1 31 248 138 8 62 131 6 225 229 4 185 64 54 22 245 10 41 246 24 125 236 38 1 40 49 93 130 15 205 122 9 71 184 43 63 154 6 31 83 19 53 105 43 49 146 1 208 15 55 122 16 12 218 110 28 168 59 39 233 130 1 0 193 42 25 224 20 188 22 31 226 71 48 237 23 42 57 145 49 122 107 42 177 19 24 213 252 51 34 253 5 241 22 47 58 211 15 60 181 13 216 163 29 199 220 4 31 86 46 9 7 9 3 221 13 13 255 49 133 240 22 56 42 53 109 103 24 100 63 29 60 
7 16 41 38 52 94 48 2 171 51 2 137 64 7 210 197 14 47 253 54 137 106 24 223 207 39 76 11 47 140 52 22 130 147 52 26 62 28 143 199 7 89 153 7 43 201 20 218 82 41 136 49 20 38 126 27 239 10 38 30 140 50 141 167 5 3 54 35 160 143 2 108 187 12 108 149 21 171 30 7 176 68 48 177 51 30 29 82 17 88 223 37 158 227 20 25 131 34 38 239 26 114 91 37 132 7 2 48 183 48 165 104 5 108 134 48 101 222 34 219 125 50 92 150 21 106 188 40 30 46 23 9 179 19 131 227 34 184 137 33 130 245 1 107 90 23 152 54 46 248 146 19 171 252 49 61 27 29 178 36 52 170 167 47 145 95 26 212 225 35 30 76 25 31 228 43 137 221 49 120 136 44 70 197 24 145 119 19 114 33 55 16 178 54 220 135 13 91 165 47 189 197 3 169 78 16 138 198 21 197 13 5 55 158 34 59 17 1 59 33 2 87 253 4 150 88 27 125 21 49 194 190 30 233 72 28 93 14 10 181 69 31 234 128 30 167 187 55 41 18 48 34 169 5 60 38 45 8 232 50 92 210 41 85 47 17 19 228 31 31 206 52 241 117 52 209 158 40 79 192 50 222 252 35 142 4 9 59 96 26 64 181 4 90 200 3 51 231 39 85 217 5 132 170 18 249 249 8 237 215 48 157 101 28 96 160 32 203 224 49 93 58 54 215 110 39 35 195 14 158 71 15 253 64 49 42 46 18 204 203 1 12 43 6 12 247 6 8 84 6 8 43 41 105 78 23 128 236 10 95 233 49 37 19 26 197 223 32 14 235 35 81 247 31 106 255 54 233 7 42 7 113 5 6 241 3 63 80 23 230 117 8 80 58 19 1 73 26 243 154 13 19 4 52 255 237 3 22 245 50 36 251 19 134 58 4 19 32 4 238 112 42 181 113 36 101 101 37 40 120 31 202 119 20 87 141 9 219 177 46 94 55 25 232 74 11 228 56 43 208 237 43 13 82 21 191 122 42 171 68 26 225 155 50 176 118 15 132 212 9 70 189 24 252 161 43 174 113 19 153 126 49 165 61 27 32 233 14 13 202 18 95 122 54 42 255 44 108 69 17 59 65 38 188 239 15 117 137 48 120 46 15 179 78 28 220 92 37 88 187 39 78 229 50 136 81 17 94 141 38 171 73 55 204 190 55 170 54 32 41 234 14 25 198 44 136 30 32 53 108 20 202 245 33 42 83 35 4 254 40 221 202 1 251 116 0 90 157 46 169 183 48 129 63 39 135 116 21 220 63 18 140 105 7 248 109 2 74 74 1 237 69 51 29 159 32 150 73 45 206 
202 36 61 82 36 149 46 40 180 186 47 242 179 48 156 253 53 59 234 7 45 7 4 30 157 12 218 108 29 10 169 31 215 62 1 92 243 15 32 229 18 88 129 45 208 188 2 176 233 4 254 8 51 149 226 32 114 236 44 238 195 5 179 31 36 66 63 47 36 152 28 51 104 13 253 24 9 122 22 42 244 172 18 88 30 12 195 12 0 204 191 28 64 1 43 94 37 43 186 89 51 9 86 43 61 209 11 242 197 26 99 30 6 189 225 12 32 173 40 100 238 7 149 76 40 137 6 30 156 15 15 239 76 13 218 62 30 45 161 20 153 94 2 27 126 51 73 227 49 149 120 23 237 1 19 4 157 1 28 141 32 90 103 52 241 149 34 223 46 27 157 73 1 33 146 32 195 39 3 71 20 11 120 24 12 151 52 25 2 143 22 115 128 22 243 95 43 191 253 9 201 30 42 116 226 52 125 41 19 5 161 23 112 56 47 83 58 3 55 173 2 185 160 19 199 95 50 61 40 39 72 156 38 129 25 0 3 31 33 23 143 34 82 227 10 161 26 20 8 211 49 164 155 17 206 216 16 121 33 24 132 162 52 139 166 45 177 189 36 185 16 52 234 177 31 188 186 17 198 94 45 10 44 40 251 166 8 140 42 33 124 181 12 148 103 42 72 32 31 22 11 55 2 199 41 126 142 3 221 152 17 87 148 53 164 32 51 140 157 13 76 49 51 46 122 18 178 144 50 220 146 29 195 17 13 187 238 43 100 69 35 199 233 39 136 117 0 117 194 29 9 240 22 198 162 32 57 126 48 19 65 51 14 252 44 19 96 34 224 39 24 59 175 41 47 37 55 182 46 1 94 244 41 163 46 27 26 65 17 10 79 10 139 99 23 158 67 23 194 127 55 212 174 22 44 100 3 110 195 9 37 102 54 158 128 44 7 139 13 18 22 53 155 180 8 101 118 3 44 74 10 84 119 24 163 229 53 161 10 40 197 168 14 22 175 55 92 193 50 208 92 8 134 193 36 139 238 34 243 66 52 158 229 43 201 134 48 161 75 10 222 98 42 222 190 41 69 143 34 44 21 22 158 160 16 38 147 38 98 49 0 20 250 53 16 156 51 132 122 55 220 89 41 63 158 39 73 202 6 3 104 11 125 142 35 84 240 46 236 4 16 114 20 10 58 152 54 231 117 17 26 180 34 153 253 8 122 0 50 26 126 42 72 210 16 140 190 24 111 48 12 230 106 48 142 81 33 48 107 30 111 5 34 40 127 15 58 153 0 234 226 22 100 110 16 70 221 54 182 195 6 22 81 40 122 130 9 242 241 20 3 25 17 137 83 25 195 61 26 251 
161 12 51 231 50 233 157 32 113 179 19 183 45 53 45 31 47 13 35 0 62 172 9 218 112 12 124 107 1 157 158 26 87 135 41 244 248 22 254 175 33 230 220 54 146 233 37 143 39 16 14 1 29 126 125 13 7 26 24 227 114 46 252 102 45 182 100 21 87 75 28 149 221 32 134 108 25 164 122 32 225 248 1 66 255 47 79 226 9 204 222 27 180 148 41 58 235 6 71 128 17 76 6 54 0 170 42 144 139 12 9 205 4 169 28 27 74 232 53 105 156 51 163 214 31 78 29 34 96 105 26 214 105 24 151 249 10 53 2 21 63 171 35 195 246 31 63 95 0 186 2 4 23 81 35 82 177 48 33 135 26 219 30 35 21 83 37 85 146 15 63 85 3 180 148 25 247 78 16 87 101 43 159 183 44 131 216 37 62 179 36 23 200 18 89 29 37 4 92 23 169 16 52 81 8 16 164 95 14 237 254 11 149 129 2 64 192 2 60 215 5 233 48 45 29 52 50 111 222 14 20 47 14 75 211 38 215 192 37 247 85 11 101 150 5 56 210 37 194 188 28 36 217 20 57 73 16 22 93 38 16 169 21 102 128 48 205 120 16 59 221 14 9 22 12 212 216 54 33 253 50 46 54 20 18 77 13 38 93 18 111 196 35 149 145 28 235 204 52 19 213 41 252 170 31 58 203 40 14 250 53 180 12 19 23 51 24 83 162 6 216 55 50 186 34 27 70 54 31 82 50 29 214 108 7 55 122 34 175 46 36 255 69 1 76 152 12 207 112 6 160 43 45 206 113 40 192 195 22 67 153 8 146 208 12 183 127 30 134 126 4 33 202 10 181 154 10 86 58 35 42 8 54 160 200 23 78 11 50 30 157 3 36 85 35 92 219 27 0 252 41 30 178 20 106 8 22 252 51 16 39 211 8 194 33 32 136 63 43 191 99 0 185 191 5 76 191 33 175 221 21 146 72 31 244 68 40 32 107 27 230 45 38 230 181 24 238 116 47 190 45 19 153 121 2 17 41 50 223 187 23 136 175 23 45 207 28 133 181 23 229 155 53 120 137 34 222 71 31 102 224 4 46 242 30 89 209 55 67 89 26 237 134 50 117 11 33 68 240 15 88 104 34 216 71 4 133 173 11 231 219 12 190 52 38 195 120 47 65 101 48 232 218 30 74 31 26 92 119 2 62 79 43 213 212 2 7 188 55 195 122 27 199 61 47 171 126 47 129 102 37 40 177 7 40 13 22 174 75 14 64 32 29 195 40 10 174 235 46 224 178 40 191 93 54 122 222 44 106 6 11 209 46 4 158 221 33 70 29 5 12 224 45 74 142 45 216 110 41 58 
46 11 88 168 41 240 18 23 198 228 6 27 130 52 214 200 33 66 213 7 187 31 55 128 247 54 102 49 4 115 137 2 108 122 19 24 64 29 33 91 25 8 49 28 246 115 44 19 47 9 12 175 9 35 21 40 27 137 42 161 245 3 149 13 21 184 46 22 131 55 49 96 45 27 34 64 30 102 77 5 114 112 45 84 139 34 85 44 19 77 194 41 119 122 54 43 253 13 88 93 52 198 127 9 144 229 34 139 88 47 249 172 39 151 1 51 228 78 23 70 198 41 50 241 27 19 73 24 1 16 46 30 160 21 114 43 19 244 36 11 182 187 7 197 159 40 68 230 54 79 24 20 135 43 53 128 44 47 244 75 39 100 189 31 50 177 26 128 103 6 179 44 50 62 113 17 117 192 39 173 71 39 51 200 26 128 188 15 189 32 2 68 83 23 219 211 33 18 134 48 116 196 21 251 57 14 61 230 38 30 25 46 230 153 6 197 87 2 208 155 42 7 119 5 137 137 24 200 254 46 185 249 10 18 54 19 151 84 17 141 58 43 67 0 4 65 208 11 7 215 39 137 96 54 44 40 47 33 226 13 234 244 30 56 139 4 75 24 25 150 91 3 200 157 35 19 164 3 247 46 10 51 90 10 10 123 27 88 101 37 47 158 17 5 233 44 211 127 4 216 71 47 49 90 36 196 82 33 88 133 23 187 143 33 246 231 12 144 22 26 83 27 48 248 239 33 145 199 40 181 248 32 241 188 10 137 20 44 189 208 49 150 198 32 157 86 47 254 170 30 219 162 49 29 52 8 253 233 23 198 219 47 14 100 4 158 33 48 137 184 32 197 85 6 135 84 21 215 47 47 15 76 25 93 73 53 198 15 23 31 29 34 62 188 6 86 69 31 42 10 31 18 145 29 203 105 41 73 120 40 30 213 36 157 155 21 191 186 52 20 249 17 83 79 45 109 121 34 235 139 53 139 86 54 226 160 39 143 190 15 144 92 36 192 27 40 60 47 18 1 131 35 213 240 26 199 220 35 116 103 55 103 73 29 100 217 21 242 105 36 234 42 8 89 102 3 158 104 18 126 61 37 24 4 6 172 121 42 142 224 9 234 68 34 209 54 19 14 32 5 236 122 15 136 24 13 128 150 37 147 174 51 213 90 31 155 233 8 81 211 32 227 164 52 220 178 43 30 158 11 58 38 29 191 166 45 110 57 3 131 15 2 1 170 20 188 251 29 123 222 48 180 186 36 204 216 7 41 18 21 188 209 20 111 63 50 157 195 4 226 196 27 190 128 53 72 251 48 44 175 38 250 124 32 154 165 48 223 97 11 214 208 20 107 109 20 39 80 7 138 
14 35 38 86 11 209 130 22 38 124 38 118 23 42 164 246 7 140 204 40 76 55 0 31 95 38 196 233 6 168 15 4 79 224 2 186 6 52 165 124 41 139 32 16 33 172 14 51 248 26 234 24 1 2 220 32 235 132 25 65 211 0 231 141 8 155 50 6 165 189 50 49 223 42 58 18 38 90 253 47 112 255 7 82 234 35 108 43 23 228 18 50 70 173 7 182 82 1 7 132 54 93 190 21 48 25 16 34 137 13 193 220 52 88 72 7 7 44 42 146 114 21 161 41 18 131 48 21 242 141 9 147 189 7 241 224 32 47 161 10 127 249 22 204 0 30 24 146 18 79 51 45 178 182 22 39 168 14 73 59 27 190 44 25 183 91 49 111 218 42 63 166 19 153 191 3 207 14 37 77 192 8 248 231 46 21 49 46 91 239 49 209 167 53 212 22 25 149 85 19 54 239 34 120 190 9 179 12 31 238 4 16 187 25 55 187 116 0 113 69 24 207 25 7 104 175 29 46 229 34 79 94 49 74 17 8 236 0 52 77 187 32 189 119 33 237 232 37 4 184 26 77 32 43 133 78 26 100 157 24 89 232 46 163 212 31 221 34 47 213 223 35 217 204 2 225 208 18 2 29 34 151 162 27 113 6 49 100 95 15 7 3 55 143 224 19 117 181 29 108 142 28 100 111 48 23 113 17 65 8 30 83 121 1 30 221 31 9 228 39 66 115 26 25 232 2 216 85 39 108 185 53 33 208 44 182 17 29 22 100 45 71 130 6 150 139 35 135 206 8 126 231 3 213 192 20 47 44 9 105 77 2 88 3 18 213 26 43 193 97 15 30 247 18 131 126 13 97 253 3 29 210 19 189 2 43 208 107 39 204 196 4 29 153 40 39 91 50 1 121 51 236 253 19 60 94 49 14 123 46 107 56 9 151 9 3 170 213 14 125 243 10 124 26 44 200 28 31 24 8 0 130 68 37 78 82 20 17 190 39 82 85 32 145 255 41 162 124 6 181 248 1 51 192 4 118 217 40 82 91 0 137 169 37 57 186 31 231 13 5 243 158 34 122 64 49 58 245 37 3 40 21 162 158 22 51 240 31 223 121 2 167 179 44 120 154 46 141 141 27 244 7 49 26 66 9 148 69 22 14 231 15 3 27 13 241 250 30 159 162 39 38 26 2 8 167 36 148 155 49 219 181 9 46 74 43 32 88 40 81 91 32 120 76 35 199 235 21 180 17 15 146 26 17 234 174 48 244 137 28 153 184 1 202 216 3 3 41 27 126 161 39 63 104 3 231 29 39 170 175 8 103 153 26 199 142 9 64 39 42 97 241 2 29 245 2 142 115 44 74 
178 45 93 153 38 204 67 19 136 171 34 47 114 20 231 178 50 186 19 33 59 48 42 69 191 47 8 9 43 162 102 29 102 51 39 204 187 34 154 234 5 133 209 39 31 139 10 83 198 37 21 12 6 254 20 13 217 182 22 168 29 44 235 233 31 225 131 2 112 8 4 66 39 6 192 123 1 175 144 0 81 143 12 7 104 16 237 16 22 146 252 35 64 221 12 84 77 7 156 143 23 158 79 23 139 255 26 73 80 42 146 87 17 162 68 49 190 214 34 238 22 22 213 107 19 216 7 48 197 165 15 52 48 39 172 121 30 75 12 54 101 174 38 15 109 10 73 91 17 234 48 47 156 9 34 74 206 49 213 2 39 173 174 47 21 249 9 204 94 37 130 110 43 136 183 0 230 161 20 137 62 12 2 136 37 145 94 11 140 11 38 141 32 44 52 236 6 12 110 36 93 247 50 186 221 33 197 102 19 62 104 17 18 250 1 22 134 23 36 19 43 255 72 35 221 84 8 106 177 6 240 107 13 212 48 11 39 110 33 48 128 2 219 151 4 196 187 2 54 186 45 5 152 5 224 2 41 220 242 18 196 198 29 26 237 22 104 30 20 147 249 29 36 190 36 30 244 15 18 249 49 140 218 9 26 182 35 239 122 45 25 148 52 243 252 17 57 143 15 175 180 9 147 210 15 248 229 35 244 113 44 171 139 46 29 123 4 38 148 22 50 135 51 47 192 47 243 111 47 165 3 3 116 251 37 61 240 42 196 155 4 63 184 23 180 223 50 2 17 14 7 64 14 133 52 54 152 217 54 168 77 33 71 139 20 154 79 36 191 143 40 202 67 24 70 69 39 77 76 48 208 210 41 230 106 13 132 18 6 227 89 19 177 243 6 130 179 54 78 125 53 11 195 8 99 16 45 115 224 2 99 199 52 99 75 22 164 46 25 25 223 26 103 97 54 3 176 33 41 187 46 159 30 25 164 145 33 236 244 42 122 88 33 84 252 36 0 22 35 22 125 50 63 128 20 194 170 4 56 73 23 97 238 37 7 218 22 112 84 35 233 168 51 67 168 39 100 191 29 209 254 11 108 192 11 230 248 13 194 89 39 78 96 45 149 208 7 250 186 44 241 253 12 220 98 21 31 51 20 94 159 50 180 133 11 135 72 51 218 150 37 216 44 13 31 38 30 84 23 24 99 243 21 199 18 55 212 113 34 137 37 9 253 172 55 111 134 7 162 94 37 206 125 41 83 209 0 56 53 47 238 252 19 94 208 37 204 89 30 155 86 11 158 198 47 63 104 6 102 54 44 213 137 18 219 194 11 12 176 48 100 15 29 212 219 5 55 118 15 172 
20 45 147 84 35 158 186 52 86 144 42 148 107 4 48 119 6 74 220 46 54 176 53 86 231 16 115 147 31 97 38 19 168 197 47 69 27 42 169 175 10 117 223 29 119 42 28 3 96 8 81 182 0 80 42 7 93 139 11 70 51 41 165 120 38 24 33 33 224 150 32 98 14 24 116 17 10 241 99 42 229 179 16 182 16 26 54 86 37 158 251 48 153 20 49 186 244 2 161 86 17 162 202 7 83 187 48 227 160 43 157 86 30 183 141 15 135 43 53 130 196 25 7 126 29 192 31 1 241 194 23 67 21 9 44 248 12 35 149 4 44 76 51 151 211 40 182 85 19 229 93 55 106 29 21 235 14 13 128 81 47 9 126 28 232 161 52 145 205 1 245 101 53 250 27 16 85 0 14 61 106 51 80 86 24 39 214 46 124 224 23 241 200 13 40 90 23 116 79 44 184 73 33 145 158 36 182 219 36 175 43 47 253 82 5 168 207 11 112 192 35 70 233 4 109 93 22 19 22 45 90 167 31 110 94 5 232 13 33 124 10 4 17 178 15 16 34 14 101 104 14 144 213 31 156 232 53 112 66 3 158 177 50 27 153 48 226 21 45 72 38 7 137 54 1 245 155 35 180 44 27 66 200 33 145 56 17 200 214 36 93 241 45 8 212 22 91 28 3 11 165 10 201 154 32 144 79 44 10 145 0 165 34 48 169 235 48 130 72 22 67 81 15 71 172 3 252 183 31 74 128 20 174 17 55 56 27 54 248 192 15 84 105 34 220 235 29 44 47 53 180 118 22 18 115 2 98 189 26 133 107 10 197 163 3 169 156 6 40 240 23 246 205 40 86 249 20 216 174 19 69 192 1 250 34 12 1 168 2 179 109 29 29 22 9 8 63 53 3 53 53 26 139 34 241 99 4 49 168 50 93 163 10 184 164 29 138 87 37 206 117 10 208 125 48 62 128 39 79 154 53 252 139 32 153 189 36 4 26 52 104 211 47 122 93 3 76 43 3 65 252 32 222 58 13 232 137 21 9 133 48 104 30 43 253 34 48 30 138 27 162 4 38 206 81 51 158 146 38 17 113 26 220 89 4 28 98 21 217 203 18 23 200 33 239 230 27 82 136 6 115 87 2 174 245 27 188 6 54 39 227 47 189 255 0 80 217 19 28 240 14 114 223 38 76 49 53 69 164 53 97 82 44 7 14 33 177 53 8 173 243 27 59 67 34 58 95 3 146 209 51 77 30 26 211 99 44 34 196 24 87 203 35 20 125 17 41 42 47 50 101 50 66 159 13 53 49 36 40 127 30 243 82 36 175 116 47 73 203 4 21 224 23 134 9 36 73 59 30 26 
126 27 33 179 18 27 219 4 88 207 43 245 126 21 99 199 34 239 221 45 222 99 13 146 172 6 18 198 2 14 232 48 53 3 3 192 92 55 235 81 38 71 180 44 34 163 27 79 129 48 241 20 3 95 38 23 172 52 14 3 105 6 149 42 33 165 21 29 104 92 38 7 126 34 117 205 53 97 191 15 21 30 51 165 202 1 153 205 13 56 98 7 158 7 33 236 112 14 62 119 50 235 237 16 234 78 5 156 99 20 242 9 10 201 162 29 180 218 10 197 121 29 10 101 44 185 163 36 146 143 28 128 121 17 202 21 15 146 7 27 40 208 52 124 132 14 239 73 32 44 84 33 54 13 55 163 160 26 24 32 49 252 235 34 88 125 40 161 165 23 57 34 0 52 17 4 56 61 38 222 115 18 94 23 15 88 47 39 183 43 16 185 132 51 75 37 16 85 94 46 117 146 16 157 202 9 149 168 22 17 7 25 215 95 0 241 22 23 25 207 27 224 26 55 200 112 52 155 229 19 236 130 37 226 23 48 250 41 32 35 0 55 137 242 46 98 11 20 83 235 28 114 180 22 189 79 22 140 59 52 129 29 6 212 23 14 185 58 7 105 195 23 194 38 9 33 121 20 224 235 0 180 169 4 88 53 43 23 182 31 69 138 28 89 68 20 240 173 30 158 111 50 117 145 32 76 113 49 22 37 52 234 126 13 170 149 27 30 218 49 226 52 28 225 36 0 253 194 53 49 55 29 160 131 30 210 153 23 42 132 52 251 46 50 183 77 7 29 47 34 184 16 38 9 13 10 229 63 36 5 223 51 211 177 38 16 219 32 222 214 12 29 141 2 129 170 39 100 98 22 219 108 38 45 81 28 179 87 27 93 42 10 201 58 35 108 24 38 147 53 12 83 182 49 151 26 36 9 246 54 201 35 26 183 215 20 182 52 19 194 254 37 13 106 31 55 253 15 18 80 52 200 231 2 84 241 37 109 186 51 49 113 38 88 39 21 234 233 18 206 246 40 9 45 34 110 63 0 13 7 48 196 91 24 176 201 41 83 250 11 16 82 12 195 61 12 153 11 37 71 21 44 41 131 25 9 145 17 83 85 0 155 6 28 52 89 37 180 105 47 37 44 2 80 197 23 236 12 2 176 53 15 94 62 43 2 146 44 211 45 17 228 97 31 253 21 16 113 58 49 174 138 53 229 119 43 111 39 47 54 133 29 9 135 27 240 91 21 91 63 35 87 60 20 169 173 42 0 91 52 177 65 39 202 176 54 16 231 37 27 240 11 50 224 18 127 60 29 11 147 13 40 60 1 115 61 31 32 238 26 226 184 35 222 200 4 101 227 51 99 
22 11 137 149 51 52 160 47 102 201 11 244 60 31 193 92 52 202 62 50 129 29 19 148 130 35 231 230 31 235 111 53 214 163 42 177 9 27 109 253 28 100 190 24 239 137 5 183 10 27 187 158 0 174 134 35 89 113 1 204 72 48 35 249 43 144 102 20 147 203 50 54 186 16 162 113 49 74 45 52 79 219 18 147 52 40 243 0 26 214 36 10 159 180 3 215 71 42 178 125 5 151 31 55 121 106 1 25 185 30 67 76 1 119 64 53 73 22 13 162 182 49 108 141 6 126 64 5 137 215 19 251 80 2 56 105 52 48 172 30 153 35 18 47 109 18 160 15 49 69 123 15 234 249 44 180 130 52 50 126 3 247 182 27 58 230 45 157 127 33 105 174 45 239 78 10 194 147 41 212 126 52 253 50 37 220 100 39 73 91 21 245 150 52 121 51 18 76 156 18 137 140 40 115 78 55 128 34 42 250 32 16 131 252 26 135 69 6 132 59 34 3 180 40 1 0 43 181 138 23 79 253 51 105 125 17 50 119 52 73 250 20 243 129 32 28 5 38 118 8 1 53 9 21 79 190 29 255 14 39 226 119 44 97 169 1 109 242 48 198 230 2 66 2 35 222 120 32 119 173 1 85 252 34 110 251 1 59 221 55 8 63 46 96 172 32 180 114 34 134 181 0 206 147 42 17 10 3 212 95 0 157 205 29 110 8 40 72 17 22 225 113 53 136 37 17 167 171 11 111 122 48 41 139 20 202 95 38 108 252 6 135 106 27 80 179 44 21 148 53 213 29 38 115 196 27 80 51 7 217 92 1 213 38 36 133 147 35 201 26 0 24 106 2 198 127 5 65 85 10 197 200 39 90 25 43 96 242 22 140 199 26 99 77 1 180 22 12 144 46 6 203 244 25 3 54 40 166 251 21 251 86 14 229 182 47 236 66 49 183 165 33 181 89 46 16 233 36 145 181 43 165 184 55 211 94 5 108 90 17 133 63 47 242 44 21 40 227 48 119 153 21 185 169 15 194 58 32 24 223 53 132 178 6 31 31 44 175 164 22 116 150 46 53 191 10 76 54 13 26 239 22 42 177 7 223 201 49 238 78 8 231 109 43 148 28 50 250 145 30 191 198 28 221 19 3 59 45 42 197 87 41 51 54 19 57 37 44 233 12 2 210 160 16 155 155 28 22 90 45 176 55 52 238 115 39 194 56 44 86 107 27 32 165 25 217 142 22 68 96 10 121 251 51 251 17 54 235 193 48 248 175 55 149 114 50 249 200 11 112 232 38 20 193 11 15 6 49 65 127 2 151 122 5 250 102 55 253 94 48 155 243 16 147 237 10 194 93 34 101 
114 18 64 129 43 134 194 1 114 90 8 235 84 35 197 81 41 155 236 55 130 127 34 42 65 7 130 166 21 76 230 7 222 109 48 88 223 43 148 202 53 213 144 33 150 43 18 209 173 22 114 215 21 113 90 14 99 166 53 67 133 19 128 221 24 47 113 31 95 71 50 82 221 10 159 174 29 64 32 18 50 145 41 16 244 3 109 55 50 12 183 47 81 230 12 124 70 30 21 152 45 140 56 50 206 120 24 160 171 8 157 187 9 71 41 53 201 53 29 164 134 28 38 2 3 45 23 41 18 164 1 104 114 49 5 19 34 127 176 29 167 248 40 239 193 17 200 101 46 149 140 12 154 185 15 87 203 38 250 51 26 227 56 29 100 183 16 30 94 24 80 77 32 45 21 25 197 171 47 135 69 19 125 156 44 250 150 40 121 121 3 15 222 36 74 252 19 247 76 18 183 121 39 39 62 21 144 197 16 185 67 37 72 61 18 99 182 0 56 197 50 216 15 16 171 6 44 183 189 40 123 229 33 157 117 31 12 46 13 145 119 8 193 218 29 55 18 19 73 234 32 241 150 48 19 77 54 19 200 12 15 101 25 87 114 30 24 3 36 24 197 19 221 252 38 229 69 24 42 54 3 37 74 17 229 93 6 181 109 15 140 196 4 32 221 14 153 245 50 135 210 31 163 183 35 55 225 40 165 6 54 37 235 32 144 161 6 145 45 27 224 77 15 247 230 12 115 109 49 98 16 27 84 71 34 11 236 3 190 18 49 182 162 37 228 52 38 93 20 51 51 11 32 118 126 46 125 224 11 98 52 3 59 63 27 231 253 23 73 179 1 141 152 4 214 245 8 11 40 44 225 158 15 228 27 21 52 125 6 106 185 18 13 160 2 193 233 7 188 118 19 163 77 3 157 88 8 57 58 8 9 30 46 237 83 49 220 189 31 73 203 0 151 140 8 26 72 33 220 235 8 155 136 53 14 193 21 25 202 31 25 183 38 65 147 17 7 221 38 233 116 1 72 142 5 96 106 37 24 6 49 185 20 41 209 46 19 54 71 29 244 137 21 235 144 32 1 121 5 106 193 42 145 33 16 130 57 19 0 243 25 197 196 13 118 251 11 176 239 27 171 218 28 112 220 12 237 70 30 254 215 15 235 90 49 77 90 42 62 31 37 153 150 18 250 70 5 111 241 36 19 97 54 254 79 18 114 77 9 118 56 24 244 134 34 52 196 44 149 93 52 47 87 2 189 198 24 15 217 49 92 215 50 152 73 49 174 192 46 161 180 7 218 232 53 234 125 33 85 173 22 25 106 45 253 121 27 119 213 37 55 109 28 232 27 46 251 188 30 92 
150 50 11 129 51 242 214 40 95 239 29 144 237 15 30 100 40 3 156 53 174 132 50 51 127 54 144 220 26 54 231 33 156 217 26 182 56 24 185 200 31 58 230 52 103 233 9 255 151 5 15 203 17 245 91 17 71 145 5 181 45 4 224 227 45 161 157 13 227 215 53 251 62 19 2 61 36 247 77 35 80 66 22 69 137 25 190 63 34 183 31 23 140 192 27 72 163 40 221 158 15 170 160 13 63 151 3 186 231 40 30 44 10 26 235 43 224 162 26 2 47 41 180 119 9 148 85 36 87 255 50 183 63 51 238 249 34 99 24 50 22 50 46 22 18 25 88 20 4 36 201 43 46 93 2 88 180 15 65 107 47 206 89 30 248 188 31 195 211 23 38 233 49 112 66 52 230 102 8 72 148 41 76 236 46 127 46 34 41 252 29 41 244 46 40 184 3 102 222 22 157 78 7 237 52 49 110 124 7 2 200 20 171 71 0 28 113 30 235 154 18 109 194 55 91 40 23 161 197 53 164 178 27 122 33 31 58 35 20 59 206 52 163 235 28 159 214 21 135 67 15 158 158 17 176 64 25 183 228 30 118 95 25 19 153 18 254 212 29 30 119 28 186 22 23 30 158 21 202 60 40 231 236 7 158 164 15 23 26 3 184 46 42 31 44 19 56 74 16 114 4 7 207 35 14 251 237 36 18 213 32 255 115 20 48 139 40 255 67 3 14 98 1 1 154 21 84 12 40 63 220 4 255 215 7 55 234 37 133 233 10 113 25 29 153 24 24 173 38 20 102 40 6 57 124 33 58 187 45 103 187 33 223 242 9 92 119 35 251 232 36 136 129 22 234 46 14 192 148 53 32 205 13 196 7 9 203 111 44 108 78 23 25 170 9 163 166 0 4 46 32 79 25 25 131 217 40 209 249 4 56 190 42 197 137 17 122 245 32 171 14 47 151 177 17 63 181 23 216 4 46 233 136 7 225 89 48 91 145 25 3 86 55 63 208 16 73 123 37 91 19 12 219 82 53 170 42 35 36 19 55 67 245 15 145 80 49 248 83 10 56 146 25 114 220 33 105 55 45 234 18 48 95 189 10 227 225 36 25 36 32 4 182 13 243 174 5 107 231 48 60 89 18 158 194 30 87 172 29 225 12 32 230 239 29 254 8 38 104 12 50 252 0 16 164 107 39 65 167 22 46 69 23 110 157 9 65 126 38 239 100 34 213 98 9 205 202 42 130 198 14 24 107 22 210 172 25 67 219 0 98 73 54 104 138 3 199 122 1 232 79 53 182 28 7 144 158 25 90 182 7 44 136 26 10 203 7 233 45 26 50 149 19 35 92 30 89 69 48 44 
251 15 125 140 35 50 230 33 73 18 23 42 28 39 209 5 43 228 56 40 163 91 54 61 180 10 32 224 55 142 93 19 118 143 15 173 216 13 0 2 39 241 211 19 152 183 33 200 90 33 195 151 4 235 184 16 169 70 24 196 189 21 35 106 52 126 107 28 101 92 14 50 245 17 17 189 49 13 128 19 14 107 35 71 21 3 219 217 25 35 252 6 75 123 33 208 224 12 228 19 16 208 36 13 190 49 42 127 63 18 248 134 6 204 97 35 55 132 52 90 207 32 195 159 19 234 131 12 123 83 39 119 17 11 207 145 29 29 137 52 39 85 19 178 140 28 168 230 9 179 170 0 151 148 8 119 15 11 211 134 23 15 85 16 94 114 17 209 154 35 118 76 32 91 244 53 198 167 19 146 62 21 227 181 41 4 136 24 196 151 38 7 245 12 158 199 30 71 61 48 128 152 12 67 94 0 92 241 31 1 212 13 140 216 11 194 156 27 139 164 3 100 66 32 194 137 55 118 10 29 157 77 21 93 169 36 106 170 45 106 55 41 18 249 26 247 132 6 146 232 34 182 171 21 113 33 22 33 190 40 153 28 14 78 134 55 155 240 50 71 2 17 228 250 2 86 140 6 160 66 23 134 179 34 17 213 51 222 110 18 52 188 54 149 87 4 67 159 20 154 131 7 156 217 33 213 121 53 7 0 40 190 17 19 93 239 24 167 35 38 18 184 18 60 251 2 130 150 9 78 50 12 11 8 54 202 15 47 131 205 55 200 42 24 80 209 31 140 228 43 156 32 11 27 163 39 85 241 21 231 252 23 24 198 7 205 73 31 91 18 28 98 98 7 106 238 16 130 139 36 138 166 13 181 251 0 152 227 25 119 251 54 236 200 36 148 35 30 67 134 32 2 240 26 143 114 33 70 252 4 206 177 34 59 74 13 200 193 40 248 174 52 25 66 4 55 133 48 28 136 22 74 23 22 138 93 40 44 43 29 189 102 38 217 46 40 155 38 42 89 64 24 249 119 50 149 147 15 250 221 7 130 103 22 144 148 27 142 81 23 254 43 45 107 198 36 138 31 34 242 25 10 28 174 18 244 168 5 14 42 19 174 186 2 213 72 22 20 71 16 175 178 11 118 60 1 164 47 25 0 75 10 130 64 48 69 78 49 127 252 11 76 210 46 247 230 46 10 149 21 176 12 16 168 176 52 203 176 43 181 50 47 190 119 39 224 246 29 176 67 34 41 58 44 205 68 10 43 245 31 209 157 19 191 105 3 95 30 19 59 220 30 71 188 45 158 108 12 53 150 7 26 99 1 252 142 14 176 95 51 74 30 0 122 125 1 181 185 39 161 
0 11 60 158 55 10 211 36 80 237 2 140 234 5 11 154 19 196 229 50 194 95 33 181 20 38 70 181 23 63 242 55 87 252 13 74 76 48 250 216 22 22 227 8 200 168 34 221 106 55 128 32 46 130 102 51 163 165 16 66 252 42 153 71 7 241 65 35 230 87 4 175 31 23 101 252 15 5 124 18 63 254 26 95 162 8 221 228 37 112 125 26 185 110 25 243 85 10 42 4 25 174 105 48 10 110 36 73 173 40 49 12 6 131 234 40 245 90 52 205 19 26 74 7 40 196 49 53 133 223 1 135 233 18 224 51 40 88 100 6 204 231 50 188 220 52 171 169 7 59 243 26 176 184 25 162 61 27 2 197 34 184 165 12 113 254 7 148 202 11 36 135 50 98 50 54 173 109 15 225 29 26 112 191 26 19 194 40 188 122 21 151 235 34 82 127 16 246 164 43 205 6 42 8 179 44 42 149 49 40 5 39 207 24 22 105 213 40 188 108 18 76 190 54 161 180 53 155 129 1 148 137 0 87 179 43 161 219 0 29 170 46 6 20 6 13 208 51 212 28 8 92 189 38 95 88 11 77 236 4 186 67 14 204 228 17 228 1 29 175 8 31 16 21 35 118 233 27 244 70 15 72 165 36 8 242 37 134 172 49 185 120 13 110 92 41 172 12 51 157 28 35 106 146 16 226 134 18 109 206 8 201 214 21 64 93 23 117 22 27 2 132 44 123 48 32 56 206 36 218 56 40 125 26 18 40 136 33 232 81 7 146 145 6 130 6 11 23 8 33 158 132 46 210 188 38 126 150 36 134 19 29 155 59 31 203 36 7 142 182 40 215 57 18 238 80 48 220 239 41 39 193 13 137 63 9 111 197 24 133 96 11 106 44 47 135 186 19 190 145 1 126 127 26 142 92 19 48 131 42 217 12 51 138 123 50 191 1 39 176 107 16 56 242 20 212 176 54 171 46 39 166 189 6 87 237 50 66 198 38 125 80 2 167 15 6 146 192 55 188 248 18 171 204 36 251 119 12 119 29 27 173 117 48 116 183 5 187 52 20 93 219 44 131 109 52 182 41 36 100 212 4 19 208 41 45 71 48 57 245 6 245 105 11 224 36 34 136 130 22 30 5 41 122 187 30 38 31 55 226 50 11 94 95 27 211 152 11 20 142 16 204 110 9 162 247 38 237 21 40 239 143 37 37 181 33 54 152 0 180 246 51 91 201 18 215 221 35 34 170 1 181 76 55 61 58 46 47 41 51 69 79 42 221 133 40 122 58 8 211 149 38 76 108 40 247 143 5 1 68 39 164 130 36 213 177 46 117 246 7 11 211 22 183 77 4 241 33 54 225 
109 27 105 100 48 232 101 31 48 10 43 85 223 13 37 84 22 65 96 36 151 23 23 22 8 53 229 234 14 57 83 3 199 59 47 234 107 20 122 193 30 153 230 6 253 39 2 226 190 50 121 212 17 5 185 2 101 242 28 18 185 31 224 164 27 27 30 6 186 184 15 190 181 53 205 151 52 187 16 2 253 22 23 160 123 8 89 141 3 27 109 28 199 136 32 199 66 15 2 0 23 168 205 44 16 136 3 93 134 52 210 38 10 4 127 29 11 155 34 204 98 39 127 41 31 235 43 41 252 212 9 43 228 47 18 65 47 174 19 53 225 24 3 37 35 11 127 239 6 84 110 40 182 90 10 133 86 21 220 129 9 117 147 5 15 65 47 118 34 42 101 72 10 219 199 30 118 28 53 145 210 52 71 88 54 96 52 36 162 170 13 15 185 48 81 47 1 118 148 43 221 111 3 88 230 43 234 119 47 160 191 25 70 31 25 90 193 22 200 208 0 140 33 49 209 152 8 169 117 4 194 205 20 253 184 18 129 88 33 204 158 16 51 248 47 108 192 40 254 76 1 196 29 18 52 198 2 93 136 40 181 134 45 161 7 45 253 211 38 63 6 36 249 114 5 113 112 53 9 52 50 97 104 47 138 197 38 213 122 46 183 28 20 15 25 19 53 89 38 18 82 44 72 195 31 29 204 7 234 46 12 119 184 52 81 141 26 73 69 12 7 84 24 77 137 42 26 156 11 237 228 5 148 1 24 64 235 21 95 99 3 239 180 27 179 253 1 223 4 22 209 82 2 62 108 4 198 89 24 104 237 20 99 46 54 176 141 17 193 124 4 158 47 49 169 15 46 108 224 43 189 30 5 83 229 33 62 77 34 178 177 48 194 97 46 182 34 3 172 192 8 142 105 47 210 214 14 203 147 7 194 231 5 189 37 50 10 215 0 195 153 17 213 79 10 213 252 29 3 138 53 191 92 31 247 40 13 94 234 16 213 167 7 44 177 44 161 116 43 252 73 4 164 31 12 253 34 24 183 225 26 148 216 38 50 55 38 57 12 0 22 56 39 134 217 16 222 213 20 90 121 30 174 118 5 154 46 7 214 194 25 14 244 9 208 45 32 239 67 52 53 202 4 102 168 46 61 2 3 198 176 45 194 75 3 8 33 1 109 48 52 245 0 40 94 239 38 159 37 17 24 139 19 156 200 27 89 142 54 239 81 30 90 89 17 63 199 51 155 188 3 36 26 19 112 185 3 177 209 0 31 110 43 208 199 27 76 182 26 111 16 19 149 80 44 108 235 51 141 15 7 208 128 33 67 49 11 183 80 28 26 32 26 162 108 33 181 220 23 144 
113 32 250 221 16 181 107 35 202 59 34 165 127 50 61 54 51 238 80 19 89 242 12 150 167 32 64 55 12 178 50 14 217 231 43 17 177 30 153 87 26 12 148 33 143 130 39 145 220 23 197 114 49 72 178 48 236 100 31 253 62 41 233 79 9 71 233 34 131 245 25 41 132 21 11 22 8 108 219 28 3 35 22 234 16 16 195 13 29 67 246 27 251 62 26 228 193 27 181 234 9 56 246 29 17 98 43 127 102 30 111 80 10 59 20 2 121 87 31 105 82 5 190 55 11 81 236 36 52 36 23 255 54 37 192 181 15 6 36 21 97 95 38 152 216 26 242 65 33 92 0 20 211 81 43 64 133 39 236 133 12 88 69 18 175 75 31 252 173 19 172 69 34 193 55 42 39 147 3 161 102 27 115 166 45 151 146 10 242 235 47 57 154 37 165 151 24 71 67 21 158 4 34 25 44 41 243 205 28 165 64 42 153 215 33 140 201 35 209 3 46 156 168 1 235 240 48 128 142 35 97 168 39 238 155 11 193 65 49 202 218 1 103 102 17 105 56 10 18 212 5 78 191 14 116 64 38 53 161 12 141 143 36 40 80 16 200 27 9 147 130 27 44 235 17 6 254 33 183 76 5 49 192 29 175 246 5 213 131 38 235 172 53 143 116 54 220 7 41 196 52 27 237 58 54 240 241 28 89 34 24 251 209 33 112 166 55 165 145 10 26 33 46 48 253 18 214 193 50 204 174 6 221 158 0 112 247 49 238 242 35 107 99 45 51 8 51 188 35 21 59 83 46 62 41 51 236 245 36 15 210 10 57 66 0 151 49 47 47 156 50 184 207 5 99 140 45 224 199 16 4 5 44 185 242 53 143 1 27 98 58 5 246 209 16 56 0 1 24 184 13 239 27 20 185 252 0 230 0 8 28 185 53 116 72 23 32 170 8 246 160 42 193 216 3 94 240 19 62 223 11 79 153 55 252 127 11 121 155 19 129 16 52 81 48 4 39 38 6 238 231 22 183 70 38 185 132 6 141 212 5 96 208 38 236 73 30 147 203 49 54 28 17 217 67 18 53 50 32 217 233 16 39 162 46 21 47 10 219 144 6 145 124 31 38 15 32 85 69 27 3 30 8 76 83 11 166 44 5 48 83 38 224 104 9 120 67 48 86 212 8 185 250 52 239 79 51 246 82 16 71 159 22 98 69 9 154 117 5 22 85 16 195 206 8 90 36 43 147 221 31 251 205 42 244 195 33 104 10 44 236 109 3 180 7 32 155 29 53 212 225 26 58 59 24 242 206 5 19 201 10 118 189 55 174 38 3 224 18 53 97 198 50 53 97 2 168 54 31 96 
112 16 141 98 51 16 117 17 96 236 19 213 154 48 40 122 6 71 219 24 42 17 23 24 185 24 114 26 22 212 167 6 84 183 25 180 24 38 80 237 10 185 21 36 236 93 22 221 135 10 243 159 3 28 18 28 11 230 22 91 58 22 226 239 53 216 63 29 49 248 51 0 229 0 186 194 45 15 181 5 221 209 28 135 220 22 66 56 21 183 26 23 69 242 6 123 36 5 105 36 22 110 222 19 97 237 13 106 203 10 207 82 36 188 149 0 73 76 8 231 145 26 108 13 21 44 118 25 218 228 21 200 70 19 174 176 41 121 127 52 6 60 30 72 133 51 92 108 55 77 217 25 117 5 22 184 223 44 237 167 32 70 85 54 195 206 38 30 212 46 103 29 50 123 121 7 226 198 11 221 60 12 37 244 17 254 225 49 228 39 8 64 234 46 128 8 52 7 112 41 61 235 6 243 205 23 229 171 54 92 208 34 64 206 46 252 178 23 190 242 6 95 114 40 167 121 16 69 183 32 178 170 28 243 144 41 81 236 44 40 44 20 198 41 34 160 231 52 110 70 46 29 237 33 243 51 42 179 229 25 124 216 28 180 41 12 216 81 0 202 24 45 102 184 46 211 39 5 13 68 43 250 56 40 216 235 27 41 103 16 244 28 16 117 244 33 161 190 19 93 37 43 6 248 51 219 5 34 217 255 55 190 216 7 233 1 26 1 245 2 77 107 6 125 12 10 134 106 1 183 112 6 58 75 30 213 36 11 41 226 11 163 203 19 98 204 52 89 25 2 60 151 45 134 29 9 236 212 3 70 15 43 95 228 30 157 13 50 211 177 52 15 19 23 74 109 28 93 169 13 113 47 4 123 27 33 240 97 30 114 193 45 93 94 49 185 50 23 95 65 16 42 139 51 214 232 40 78 89 9 146 213 0 239 197 43 228 55 37 245 149 38 219 78 20 208 173 14 170 215 31 145 174 10 41 252 10 212 142 12 237 125 33 174 97 30 159 87 54 170 50 51 23 3 9 69 173 14 210 62 46 144 103 28 144 59 40 26 40 54 141 215 11 89 118 29 250 32 12 96 56 30 254 125 33 49 79 54 178 224 4 225 112 51 231 138 23 155 23 55 75 112 46 137 106 36 68 203 29 97 201 13 213 251 26 124 173 34 37 142 34 124 117 2 16 16 4 12 91 36 67 228 36 162 41 55 217 138 34 133 96 11 82 220 22 87 1 36 218 125 18 172 142 48 94 154 48 128 221 20 44 127 32 240 88 9 37 222 36 196 48 12 46 136 8 97 98 1 144 14 31 108 108 5 214 236 15 182 24 12 167 9 51 243 46 36 35 242 18 125 
32 50 97 129 34 165 17 36 197 125 18 230 84 14 133 10 26 178 177 27 121 164 52 29 200 26 65 69 4 189 166 44 23 75 45 161 16 31 180 246 20 40 124 0 171 46 51 153 168 4 116 197 49 103 6 9 99 195 30 141 218 20 169 124 47 229 48 7 162 88 37 113 3 1 190 157 0 94 17 48 9 120 29 102 219 36 103 104 7 48 17 42 62 246 6 242 152 46 241 10 54 0 200 10 5 38 7 135 48 32 55 150 40 143 253 27 172 45 19 208 107 4 184 93 42 122 78 50 184 78 44 38 83 44 236 218 11 182 17 3 29 160 41 149 77 46 133 29 43 80 213 14 131 79 35 199 7 1 1 45 39 212 26 50 176 208 45 85 238 22 32 131 31 27 9 12 172 89 1 58 221 23 245 164 30 27 166 30 158 122 51 111 42 53 142 127 54 0 159 20 77 186 23 172 102 32 171 160 18 247 149 39 96 176 43 159 78 17 46 189 35 196 75 30 135 76 45 101 153 5 19 69 39 175 240 6 206 231 46 247 72 20 121 231 52 216 21 51 219 217 16 133 97 44 168 198 40 246 217 49 196 136 23 49 86 31 88 77 47 230 198 39 21 158 46 217 122 12 77 255 37 16 167 6 145 158 52 93 98 5 117 147 13 38 235 12 29 210 33 5 231 16 212 192 22 235 13 40 233 30 31 253 175 55 235 12 45 57 129 15 78 167 10 59 197 45 177 202 23 125 158 30 150 137 30 118 114 20 245 112 2 237 91 25 229 148 45 132 226 14 193 30 53 96 207 42 146 76 28 175 226 26 159 89 19 117 78 38 12 59 54 176 32 1 114 164 29 227 101 48 96 197 6 94 87 13 3 7 49 110 166 11 162 27 36 117 39 50 208 215 6 158 73 46 220 44 43 117 140 40 163 234 22 179 238 29 225 92 20 222 254 2 39 115 46 82 68 29 215 226 13 169 191 38 183 52 19 230 215 39 185 138 18 241 107 48 239 73 44 69 112 50 161 195 6 164 154 42 194 67 28 7 251 43 36 225 48 139 154 15 30 139 34 61 123 37 71 192 39 63 97 55 147 5 2 230 199 12 172 207 8 182 243 51 162 126 4 78 156 46 46 218 25 229 33 28 39 97 44 213 244 6 204 218 43 51 134 3 94 60 26 34 223 29 42 45 4 45 91 40 17 64 50 143 104 12 153 61 37 29 9 33 98 60 20 8 154 42 179 189 15 38 231 38 104 21 11 158 38 38 82 182 22 162 79 38 205 108 11 25 206 36 198 214 25 103 138 51 227 176 0 230 25 48 37 183 21 67 9 19 142 171 33 52 120 0 26 145 5 105 
87 19 244 191 50 137 162 12 90 136 4 197 173 53 238 240 4 254 126 13 35 178 25 110 205 1 112 54 51 192 42 2 125 179 25 9 13 28 107 211 52 87 193 26 243 191 42 169 226 1 21 80 19 139 192 24 172 129 6 69 254 49 112 7 20 243 114 42 52 201 37 24 189 30 133 102 29 159 123 39 169 6 39 50 178 32 110 248 33 118 104 55 181 91 39 30 144 17 58 168 27 100 45 16 97 204 38 31 118 49 156 168 24 251 22 26 171 141 42 27 66 11 12 96 30 251 154 54 242 255 15 92 96 4 143 128 17 127 28 55 213 24 7 166 195 30 126 222 51 9 234 45 139 229 21 118 216 55 189 52 6 147 195 7 18 66 31 191 23 19 56 189 27 39 60 22 190 69 36 108 208 30 167 71 44 36 4 36 1 151 16 121 170 43 239 105 5 198 161 36 29 200 1 145 134 53 28 243 34 107 154 27 151 191 2 174 192 30 170 57 21 126 41 7 134 239 32 81 13 41 94 158 49 130 186 16 99 37 43 129 189 53 227 107 36 22 21 53 144 147 6 14 25 39 36 106 7 227 200 20 12 74 2 213 173 20 103 46 2 127 18 7 138 40 26 47 185 31 148 199 2 185 235 51 23 207 53 159 219 37 22 176 55 154 23 20 188 150 3 152 32 45 154 80 37 89 228 22 131 157 30 194 180 9 148 83 24 127 105 11 212 3 52 241 191 27 88 88 34 109 242 18 176 76 2 5 207 38 130 146 35 185 38 16 183 166 3 160 122 45 89 108 8 236 196 32 48 49 24 140 225 26 126 230 30 144 105 22 243 34 0 57 217 22 29 121 28 181 210 55 160 191 11 245 239 7 78 123 9 102 249 2 214 138 17 56 125 34 231 182 4 101 211 29 117 136 14 171 41 1 136 30 0 223 108 47 162 210 43 41 168 36 226 225 46 125 200 43 254 45 42 232 162 29 244 77 54 217 213 31 55 180 21 104 86 18 88 128 36 56 98 13 147 223 46 231 221 38 198 197 51 33 185 13 51 146 42 25 202 32 135 50 44 30 139 11 211 195 51 245 86 29 234 61 5 135 3 34 5 37 24 75 88 49 190 113 52 211 248 46 53 22 32 109 234 27 90 223 30 157 201 28 96 80 18 133 85 13 138 160 18 109 94 3 21 49 52 118 103 37 106 212 43 40 46 53 25 203 37 148 43 46 211 177 23 103 59 12 57 168 53 15 189 27 9 52 5 92 158 52 33 199 32 222 224 7 177 116 10 111 71 38 12 175 7 114 232 2 41 247 19 54 1 8 227 93 4 238 126 3 43 92 34 207 14 2 72 125 46 239 
137 14 97 251 45 255 37 53 78 91 13 217 62 54 12 44 51 252 88 2 33 39 54 228 111 12 110 94 41 216 192 34 182 191 14 220 14 51 177 231 38 111 243 36 36 239 48 218 16 32 237 244 16 127 98 55 110 58 46 106 241 54 228 205 45 230 127 27 228 238 2 7 18 29 133 236 5 65 217 13 42 89 34 106 199 12 210 49 7 170 21 8 224 252 13 214 224 12 139 232 42 79 109 4 249 175 8 151 217 18 36 67 11 193 22 50 83 192 51 72 160 9 119 118 5 151 1 45 132 80 45 241 74 11 75 225 34 184 5 19 16 198 30 66 26 52 205 98 12 31 217 28 163 112 26 60 244 36 209 229 28 70 49 6 164 233 39 111 249 4 233 60 27 60 9 45 210 41 55 127 204 8 235 8 8 248 217 28 122 31 50 254 195 19 211 50 20 241 27 5 241 87 33 245 42 3 192 169 20 165 148 32 236 140 24 12 7 41 156 5 40 33 216 12 139 202 22 38 187 34 170 176 33 39 113 27 225 22 20 164 3 1 144 15 37 72 172 28 8 205 10 161 88 50 89 126 4 213 40 15 132 79 8 78 48 49 111 212 39 187 100 50 175 172 2 56 180 14 78 85 43 106 175 11 140 132 49 135 8 49 75 86 0 203 198 49 251 129 13 156 48 10 83 105 46 14 183 3 216 33 32 78 174 47 145 53 20 44 128 12 69 75 43 134 70 33 22 226 50 215 54 2 109 68 43 103 28 26 13 106 36 104 251 10 25 39 23 120 108 39 92 242 19 73 8 9 140 224 28 149 77 34 31 180 30 217 193 34 253 42 12 215 67 23 211 187 6 125 24 10 92 97 12 188 237 12 103 130 28 88 161 33 44 122 5 54 119 47 132 79 49 238 34 52 194 160 39 145 252 23 135 184 48 233 31 29 61 120 39 154 164 48 214 219 11 96 95 42 157 78 1 156 16 36 197 162 12 49 41 24 89 19 25 152 80 8 57 234 48 198 193 5 214 33 24 134 190 23 177 91 5 84 32 54 69 82 48 89 171 25 13 67 36 190 124 21 39 67 31 175 25 0 176 159 41 85 81 48 213 165 11 180 234 19 226 68 53 32 81 40 0 15 44 9 54 0 38 230 51 147 150 52 234 235 52 3 192 29 60 116 42 52 86 20 135 118 40 251 118 18 192 128 41 49 166 40 229 57 6 21 35 28 137 38 55 21 99 55 65 151 51 190 31 18 224 26 24 237 218 31 61 11 7 223 240 45 145 6 38 121 143 17 71 164 8 171 230 27 250 164 34 9 133 41 140 114 11 102 175 6 183 143 41 126 32 42 197 153 0 178 
224 47 216 139 51 33 133 25 145 142 38 100 26 3 207 129 13 88 56 4 252 182 27 122 123 35 3 45 12 125 5 4 253 38 55 12 184 36 192 28 2 89 235 45 151 68 14 90 64 30 143 186 52 116 189 15 231 59 36 123 56 25 167 69 55 180 5 47 75 94 4 104 246 39 18 80 43 215 224 51 29 84 29 155 59 43 207 182 38 126 94 54 90 18 11 59 93 32 67 197 15 2 216 37 222 175 5 166 205 29 177 104 41 253 56 13 2 182 3 197 17 41 195 76 3 250 143 41 117 146 22 246 112 46 213 22 6 170 200 11 207 197 51 213 199 19 46 141 18 195 80 11 15 74 23 184 192 39 116 182 33 141 139 41 107 53 0 34 4 8 136 217 21 187 8 4 86 203 33 42 218 2 180 147 20 79 7 44 54 148 50 173 255 37 182 33 26 48 169 39 192 100 16 24 187 0 53 229 44 25 153 38 139 232 25 77 30 48 89 204 20 38 130 20 168 178 37 182 114 31 248 138 3 63 191 14 96 217 27 136 100 20 124 177 28 75 10 19 172 48 15 21 217 49 17 143 36 13 135 14 43 199 49 242 39 48 29 175 1 4 44 37 207 119 46 52 35 9 128 56 49 235 74 26 34 87 41 220 130 41 72 116 16 38 146 39 143 150 22 184 101 26 185 153 17 31 26 45 53 5 5 86 40 55 168 4 39 210 76 41 140 114 14 205 2 40 213 186 38 4 115 3 226 146 29 237 200 39 110 30 12 19 198 44 241 153 0 24 37 12 151 242 39 153 199 17 15 203 35 23 173 22 181 154 1 184 9 17 85 28 23 12 13 14 201 38 39 173 189 44 150 86 38 202 101 37 113 124 24 26 49 45 125 234 16 84 63 25 189 76 13 238 21 3 61 194 33 83 88 14 2 35 5 214 148 26 156 175 39 41 44 48 129 128 42 135 61 10 39 43 14 208 105 51 149 188 53 104 191 6 97 149 33 24 50 45 37 91 20 151 221 17 134 100 17 167 139 31 177 91 10 251 240 43 145 89 32 60 186 31 170 210 36 112 247 6 89 143 42 214 21 31 3 188 27 92 110 46 53 105 1 76 251 17 143 55 26 58 225 45 162 81 7 201 170 39 134 129 14 116 132 11 190 224 24 229 21 38 112 98 31 134 241 34 247 43 42 89 206 19 19 151 29 136 29 7 208 146 40 15 80 20 221 54 36 192 166 2 96 45 20 110 36 29 230 125 16 88 145 38 2 25 46 142 233 27 107 248 5 242 213 22 251 150 20 135 246 10 244 101 39 118 75 52 90 163 49 47 166 18 47 52 28 254 159 45 100 145 22 231 
140 11 253 20 9 99 8 0 255 126 45 65 216 8 177 7 35 69 54 25 86 52 53 249 152 52 181 128 54 90 125 2 248 224 14 108 223 14 117 32 44 117 209 36 218 22 35 138 109 2 222 102 38 215 27 55 5 117 47 209 110 20 47 218 36 26 79 3 24 197 11 31 159 5 163 42 3 0 8 16 99 223 30 253 228 33 204 182 55 51 229 29 26 255 39 126 24 22 194 55 35 229 218 11 40 218 37 61 62 13 105 59 28 1 7 41 0 58 31 25 84 52 168 210 36 165 148 36 124 121 27 163 162 5 142 223 24 25 72 6 206 74 33 139 74 49 40 99 35 169 12 24 224 177 34 252 46 15 24 209 24 76 95 18 183 121 2 253 71 2 29 211 36 123 251 22 20 164 34 181 132 38 145 128 39 193 153 45 195 229 38 90 157 22 107 154 7 29 183 46 175 50 49 138 70 44 174 252 32 29 141 12 239 78 53 205 17 46 92 108 3 26 215 32 168 244 10 150 164 1 253 46 27 172 220 34 45 249 14 170 232 43 202 181 33 111 18 18 148 44 38 82 212 37 245 107 2 54 104 6 16 20 20 162 66 40 101 236 18 111 182 26 117 37 48 8 185 50 233 11 38 220 1 18 58 55 13 112 71 30 154 233 42 104 79 28 100 190 48 60 52 31 14 60 4 201 38 46 57 2 49 187 60 2 105 172 49 235 70 41 217 174 10 47 18 9 153 79 32 70 93 20 222 38 0 45 95 22 162 26 32 208 131 37 9 111 49 68 72 24 181 119 38 110 16 1 17 86 32 2 53 53 178 98 4 150 4 27 183 212 6 253 222 17 70 34 24 203 215 48 252 70 23 116 87 16 155 89 14 212 12 35 92 162 54 65 89 42 77 87 7 185 157 37 63 104 23 72 100 54 193 217 44 129 116 19 185 72 53 1 164 41 159 229 11 115 51 37 169 236 12 227 43 25 242 115 41 223 52 37 238 182 38 213 111 42 1 112 2 133 15 54 98 130 36 75 43 7 214 15 51 187 1 46 247 225 49 208 207 30 17 164 36 183 166 3 53 43 19 40 141 42 98 216 5 65 174 48 5 106 15 252 97 41 223 50 18 237 67 25 110 250 6 36 48 4 144 88 7 107 186 12 182 251 44 17 0 2 238 252 20 246 219 14 14 200 16 39 55 27 33 91 30 234 236 30 88 87 30 108 14 0 171 31 36 119 13 20 27 3 1 110 17 12 42 56 29 72 89 4 152 68 7 44 156 19 186 9 27 120 180 9 142 44 48 94 71 21 42 181 32 247 224 42 192 40 18 100 193 36 209 237 8 117 167 52 117 31 45 96 
173 34 163 11 14 244 54 45 100 45 27 225 237 51 98 81 3 244 35 12 190 152 33 226 13 40 74 110 7 79 17 4 92 6 0 30 106 46 12 76 51 66 174 0 45 162 41 248 96 52 235 67 21 160 141 50 65 220 32 138 57 34 241 87 40 6 100 10 38 166 22 124 211 20 255 203 6 111 182 23 48 86 50 21 152 39 146 34 4 28 19 53 21 25 28 31 63 24 47 187 30 169 186 17 112 41 4 228 90 51 251 111 1 114 1 41 44 29 43 115 50 15 151 81 40 244 128 24 169 42 11 193 154 6 128 126 39 17 121 9 110 235 24 129 23 9 234 139 23 236 34 1 15 23 19 70 192 3 151 129 21 39 1 23 114 19 30 120 129 47 168 2 11 49 236 10 42 216 45 35 232 48 58 46 39 132 197 7 31 236 16 58 95 26 128 215 37 95 127 54 189 177 0 149 219 28 88 254 53 50 57 45 152 189 3 32 220 41 191 22 53 30 150 36 254 246 12 224 179 43 213 72 44 75 160 7 195 211 14 40 107 55 101 139 36 138 74 16 221 104 54 246 102 45 252 71 11 96 28 38 156 104 47 88 43 15 196 83 26 12 184 13 82 66 32 209 32 26 13 22 2 37 18 1 83 115 48 24 15 52 211 103 28 66 44 0 249 56 11 80 138 28 123 91 38 16 104 30 49 141 29 155 224 47 110 249 50 167 204 34 39 14 41 195 7 5 200 88 13 248 211 23 123 227 18 183 20 18 54 176 55 212 30 0 137 197 9 81 236 5 139 175 4 213 119 19 135 111 27 100 235 22 122 162 18 25 216 46 20 173 6 118 54 52 102 135 33 54 19 5 255 232 53 148 111 20 56 212 44 228 78 23 231 103 1 190 123 26 120 242 15 70 88 53 197 142 5 97 141 32 195 33 24 16 90 0 13 62 28 130 37 42 102 227 33 53 91 5 166 162 47 240 103 31 231 200 13 21 139 2 202 156 3 146 169 45 66 43 51 98 145 49 86 198 44 152 109 24 66 93 10 103 69 17 126 90 17 237 36 13 234 182 9 116 248 18 31 91 30 37 177 15 104 74 54 209 140 35 30 243 40 198 113 53 16 94 47 193 72 11 58 188 17 63 219 50 224 0 37 43 105 46 161 58 40 168 88 44 118 30 23 177 46 24 74 239 30 39 42 30 95 105 26 186 74 30 204 117 46 214 22 15 59 190 26 81 53 10 178 230 17 158 48 31 126 88 23 206 183 41 125 113 50 115 61 20 38 19 25 180 78 7 66 160 22 58 82 11 108 240 9 246 110 42 159 61 18 119 186 17 62 45 2 47 83 8 137 7 11 46 
74 34 71 132 10 119 240 20 101 230 12 136 134 19 145 253 40 203 59 18 93 106 39 166 243 19 97 33 26 89 105 52 100 224 40 190 69 16 184 205 15 4 94 13 65 42 10 236 135 5 212 46 47 118 143 18 69 232 12 104 76 21 147 11 37 7 195 42 0 200 31 232 9 13 183 245 55 12 201 7 94 63 13 235 132 28 226 237 20 205 128 40 217 135 35 78 135 15 163 112 39 61 39 24 164 52 13 105 146 46 89 126 13 208 96 9 117 45 54 169 6 30 197 84 22 45 247 53 161 52 13 216 216 13 215 66 25 223 155 43 220 107 1 162 224 42 167 137 15 48 78 30 167 123 50 157 28 42 27 244 46 33 203 23 150 170 25 51 134 52 4 40 55 104 207 31 73 0 8 139 167 6 251 68 33 113 96 30 59 129 18 253 23 54 244 75 48 195 79 23 212 183 23 128 1 23 151 140 15 142 135 22 14 248 50 220 52 34 37 49 11 139 37 35 230 232 38 12 188 13 220 60 5 51 211 14 179 97 26 2 111 2 81 75 26 71 113 22 129 252 16 28 226 53 55 238 30 106 203 26 232 254 7 182 177 18 59 179 44 193 4 51 211 75 31 109 205 16 0 233 4 198 32 15 190 139 5 220 115 48 226 41 39 164 100 32 163 37 4 118 249 0 170 102 12 77 102 49 60 45 42 156 235 18 249 199 53 56 169 17 101 78 18 94 241 31 85 103 28 253 17 5 89 95 36 186 155 42 102 56 7 223 49 27 65 105 2 195 206 4 209 44 26 82 129 51 252 127 11 11 216 4 64 146 11 109 248 7 1 215 7 252 24 0 35 220 41 54 173 7 17 255 44 149 251 37 103 7 4 42 71 45 85 180 47 146 182 24 45 178 7 100 213 40 211 12 28 115 29 9 124 178 16 84 25 51 88 67 34 221 153 33 226 43 14 191 88 20 46 189 54 150 144 11 214 4 55 46 128 36 98 212 22 67 44 15 35 10 51 254 236 12 225 171 55 10 217 23 232 112 36 124 70 29 194 116 41 222 214 33 5 25 6 74 60 50 64 58 4 80 27 40 163 38 19 143 14 29 166 139 37 21 77 51 66 43 39 255 49 29 192 123 54 1 187 50 23 11 36 90 174 48 166 61 22 223 227 36 194 249 15 127 59 13 172 58 24 31 250 33 6 251 4 195 19 32 153 109 19 171 19 42 248 242 31 96 181 51 238 52 4 138 225 31 178 0 25 39 7 51 199 202 30 153 100 9 229 15 54 237 7 26 1 103 20 195 85 41 194 224 46 165 146 31 129 185 15 152 128 38 233 25 17 52 255 5 123 236 4 212 
237 28 155 176 35 117 115 9 65 24 25 195 154 27 121 50 44 16 28 28 167 80 54 70 203 53 175 160 17 124 59 7 88 176 7 60 241 34 136 180 27 41 45 29 170 61 15 189 229 11 137 43 52 213 218 23 59 86 7 160 174 26 242 235 50 49 115 44 32 156 32 131 70 22 254 3 11 19 140 32 90 97 35 190 157 53 114 61 19 241 47 34 17 96 29 107 129 24 118 4 12 114 2 2 34 21 21 0 111 41 28 45 10 28 159 47 72 145 13 77 162 4 169 13 13 179 131 6 168 245 42 16 24 4 20 24 49 94 52 8 171 81 6 132 153 21 190 230 22 150 143 0 171 66 38 239 234 41 148 250 15 186 14 47 228 108 15 16 23 4 81 155 29 2 90 14 224 240 36 93 155 20 108 138 22 28 31 33 218 217 3 28 190 42 83 206 38 162 32 38 9 34 41 165 2 27 146 95 43 24 203 46 133 232 25 129 194 32 191 222 33 232 49 39 12 211 54 62 221 54 220 130 48 146 21 10 228 45 1 143 178 45 43 51 13 97 243 39 34 219 54 2 231 15 188 37 11 51 2 24 121 148 34 223 120 39 103 8 37 241 51 39 219 148 19 144 183 54 45 185 9 140 117 25 202 169 30 58 34 32 125 2 29 157 105 45 63 91 21 247 54 16 220 198 5 115 243 28 62 127 29 252 74 3 150 132 44 23 1 6 189 158 32 102 221 42 163 212 29 88 176 51 22 36 25 6 98 36 139 95 11 199 245 45 189 12 41 40 201 10 60 47 16 114 210 22 171 43 10 77 65 3 74 71 39 125 211 9 118 154 24 98 87 37 205 127 1 131 187 43 188 46 42 247 217 53 207 38 24 133 112 1 16 237 40 75 99 51 170 197 46 107 146 37 140 21 29 161 210 48 195 201 46 174 152 55 200 30 45 181 46 45 205 121 34 38 35 37 199 142 18 58 26 5 72 188 50 174 127 44 147 45 37 51 245 14 2 171 12 169 120 10 119 159 27 180 102 30 223 160 28 108 233 31 191 151 19 164 42 50 158 93 23 107 95 20 0 9 55 46 128 8 122 52 31 244 19 29 231 128 5 253 63 38 162 227 37 97 129 15 220 236 37 214 237 20 253 27 21 25 150 53 225 138 34 33 114 13 0 111 37 69 17 44 42 114 7 249 78 33 94 36 37 238 33 42 219 59 6 39 28 36 125 61 14 82 61 24 92 130 8 122 172 9 23 165 28 244 4 42 179 242 31 244 205 0 34 244 27 60 113 39 114 196 28 62 32 9 149 154 27 93 178 0 149 166 21 223 89 33 155 78 3 165 112 0 212 172 13 37 
31 46 176 93 2 88 242 35 60 80 5 94 229 47 1 196 53 81 95 55 71 5 29 64 217 13 44 254 9 228 175 48 145 7 14 176 67 40 146 161 16 149 163 14 51 244 2 130 59 10 120 124 7 199 168 40 100 140 7 113 30 22 42 206 53 3 96 40 57 246 50 97 41 37 218 171 1 56 35 21 90 234 41 220 78 49 99 191 5 196 234 3 35 237 33 49 38 10 70 135 40 158 97 41 152 153 36 53 244 48 199 208 2 148 52 1 221 248 24 206 27 26 75 76 15 231 146 29 80 48 53 26 201 46 218 254 48 195 197 20 88 89 12 16 54 48 178 4 24 163 80 43 84 55 47 238 135 1 118 162 26 35 124 3 88 64 41 239 152 55 31 168 8 67 90 39 55 254 27 96 82 35 128 64 10 188 182 10 67 218 4 93 50 0 167 33 40 186 64 48 203 131 0 162 187 11 211 27 25 58 155 35 165 87 43 97 155 34 83 248 36 205 159 6 233 89 16 130 36 40 90 199 4 203 154 15 227 212 50 86 121 21 199 218 53 138 46 40 142 251 24 72 229 31 220 103 32 162 193 44 138 140 19 179 112 21 95 198 33 198 142 27 72 24 5 101 166 51 218 238 7 234 202 52 242 109 51 153 247 12 153 170 41 190 9 33 169 207 31 47 23 13 136 125 14 91 87 36 9 66 43 228 52 53 187 206 18 119 103 34 154 37 4 127 207 14 240 254 37 209 134 53 120 226 10 174 235 33 252 207 35 240 139 24 211 2 14 129 157 53 155 28 43 173 12 18 106 221 24 48 85 54 197 3 8 114 255 43 156 240 43 30 195 54 225 68 16 217 224 53 159 141 33 205 247 13 32 39 50 66 237 8 98 95 51 8 252 27 145 26 27 4 251 22 71 213 51 21 116 19 230 65 0 83 97 0 221 163 31 114 5 4 229 14 52 173 159 32 120 163 18 67 235 29 254 0 18 125 230 15 64 58 24 227 23 10 19 137 13 59 110 3 139 27 49 199 148 0 99 215 27 251 214 30 173 83 7 91 147 13 221 118 47 212 137 30 13 197 16 167 80 38 228 23 50 39 123 46 120 118 37 104 36 35 252 127 6 122 92 41 249 49 31 95 62 17 254 229 38 181 201 46 245 241 13 163 105 48 109 210 55 203 206 51 1 72 34 12 66 22 107 161 31 92 159 29 196 84 50 181 73 52 107 237 37 113 90 38 142 38 0 39 39 22 54 51 31 105 158 9 27 251 50 41 191 49 105 116 22 230 223 39 73 80 28 117 222 23 146 5 13 24 59 20 113 164 39 151 191 46 6 233 41 183 82 40 9 56 44 251 
129 19 65 246 43 208 136 41 77 161 39 36 18 2 33 169 23 69 176 38 156 103 55 146 113 49 131 108 18 51 173 11 87 125 42 90 202 2 173 238 3 223 15 13 22 84 15 136 241 7 159 131 54 118 7 39 53 58 19 71 146 48 145 236 6 92 154 32 30 121 39 105 143 6 84 23 43 82 183 44 249 45 39 80 98 14 14 169 9 62 58 35 217 151 39 34 181 41 232 30 50 120 115 33 247 197 49 134 190 48 105 14 29 61 28 47 148 90 9 243 52 27 140 86 18 183 62 8 206 182 54 128 174 17 170 52 54 100 157 4 53 218 18 189 110 7 114 97 9 137 237 45 74 164 19 70 115 9 216 243 48 32 157 30 135 1 34 96 54 31 255 243 9 91 101 31 198 239 17 77 57 14 46 127 27 68 88 14 175 120 25 89 255 54 185 96 24 199 95 6 9 186 10 232 128 47 161 205 54 200 252 8 81 64 7 200 239 55 227 72 32 113 1 31 242 200 31 16 209 54 48 185 49 135 90 49 209 35 15 128 116 3 31 60 51 247 31 2 78 144 43 254 130 28 38 147 13 77 195 30 213 74 0 187 27 26 92 156 45 126 187 2 109 178 46 88 0 14 131 254 38 157 36 33 0 114 52 101 71 47 146 2 42 144 95 13 72 221 25 91 74 28 144 162 46 58 37 15 33 194 45 39 195 42 189 40 20 214 186 11 130 74 13 242 147 4 172 238 49 129 126 19 243 185 13 31 218 2 254 1 37 221 190 24 186 149 16 188 23 26 48 9 52 235 181 55 169 55 29 197 42 20 191 73 13 2 71 15 232 36 48 242 223 54 191 155 35 79 204 3 7 183 28 121 96 18 54 38 49 133 229 51 195 231 36 127 207 52 244 194 40 67 129 7 147 209 19 161 216 39 69 82 6 0 136 31 196 13 21 62 208 10 239 79 41 202 67 49 239 134 43 91 25 36 235 187 5 91 0 54 102 0 8 61 196 8 203 3 5 186 242 30 207 189 29 201 172 33 171 7 23 92 242 33 207 77 36 195 179 36 137 240 52 39 188 24 23 118 27 143 70 54 20 15 27 106 186 39 16 22 54 249 229 16 104 169 30 241 50 1 53 89 50 121 112 14 189 255 36 198 19 10 209 126 42 207 142 4 138 135 3 241 239 48 95 225 9 192 22 19 110 144 44 207 77 36 33 19 3 47 229 47 180 180 13 126 63 43 88 48 42 237 144 17 152 80 2 40 190 33 98 141 17 205 175 46 146 222 50 198 146 7 250 17 3 65 105 18 6 86 35 89 238 11 51 23 43 252 121 9 167 70 6 104 216 29 185 159 36 87 
153 6 9 218 47 160 224 49 236 57 55 118 108 14 49 104 53 124 15 30 23 119 44 112 48 29 87 136 20 236 145 21 96 50 7 103 30 7 126 148 32 255 198 28 215 66 52 157 90 36 122 202 51 208 33 20 108 14 12 225 110 21 245 213 55 162 84 45 41 83 50 144 42 32 48 199 18 60 65 36 177 17 23 53 126 24 48 95 14 92 85 29 16 247 42 86 33 30 205 177 2 99 226 12 141 30 28 125 207 5 175 4 15 60 53 45 147 145 52 11 162 17 146 248 1 135 197 50 81 40 43 112 181 29 226 50 20 126 226 51 226 30 48 136 177 5 63 188 38 116 78 48 8 213 40 242 39 30 211 151 30 213 121 52 136 247 38 30 218 24 210 98 46 85 161 55 221 21 4 154 29 50 233 15 24 217 226 7 194 183 30 112 64 39 70 94 30 210 48 16 145 133 42 49 99 27 240 253 40 95 230 22 139 192 45 6 130 40 86 242 55 205 56 23 219 11 13 98 156 29 224 205 27 57 189 54 243 29 27 79 168 42 191 174 34 77 4 28 235 209 38 107 172 54 162 14 41 26 239 37 239 40 11 245 27 32 128 106 45 110 42 54 89 119 36 43 98 33 189 205 18 209 112 23 215 138 45 22 121 12 95 110 52 69 238 0 248 92 18 104 182 20 246 225 28 44 159 14 16 112 4 249 72 36 180 94 22 27 189 15 144 2 46 245 250 12 129 99 25 41 89 39 60 133 0 120 149 23 44 143 24 67 67 40 39 94 54 123 238 51 89 227 14 176 101 32 118 142 27 43 202 4 60 67 41 3 111 39 171 178 38 243 217 17 171 84 55 171 173 13 9 94 1 36 212 54 66 255 20 91 59 55 214 62 10 171 234 25 4 221 44 243 136 37 113 51 18 50 60 15 81 96 5 95 163 2 80 254 33 166 212 37 138 127 51 57 132 5 43 119 34 141 233 50 161 27 21 142 109 1 208 204 26 192 28 13 13 194 3 47 76 39 81 134 55 174 177 19 73 62 10 207 223 27 49 110 55 28 62 52 57 254 32 147 12 36 77 59 46 170 140 2 5 58 24 52 132 42 227 83 8 22 132 8 193 160 22 84 218 52 3 109 3 31 186 15 7 100 50 11 105 55 209 157 9 228 129 5 124 151 32 198 88 13 79 173 53 183 176 31 141 208 20 161 215 54 180 227 10 211 180 11 46 152 1 21 21 18 54 219 25 220 42 18 212 225 7 81 110 7 111 16 39 102 196 23 203 152 34 233 198 22 108 219 15 87 17 52 224 237 31 234 194 34 140 19 35 134 130 2 45 233 42 132 180 46 172 157 54 171 
9 20 141 97 55 35 65 25 82 44 46 150 184 24 182 62 44 0 107 54 43 239 7 197 155 3 111 70 41 222 211 2 228 247 11 177 73 53 88 224 17 17 150 25 184 150 39 32 193 10 156 135 41 155 246 29 130 212 11 30 185 7 87 106 54 153 194 7 61 212 7 34 140 53 51 172 35 252 73 21 3 228 36 117 102 10 214 132 47 211 219 16 23 117 10 46 178 12 60 212 16 147 7 12 203 3 25 152 6 26 252 123 14 33 81 12 205 37 33 111 60 36 230 106 49 22 166 3 176 57 15 13 4 6 61 157 1 250 153 7 99 186 10 21 135 4 171 246 33 167 221 21 40 243 7 133 164 13 86 177 46 218 238 3 49 232 16 144 75 25 241 96 51 89 11 10 59 179 16 111 219 53 200 96 1 93 183 21 92 145 14 1 194 36 224 82 45 195 68 48 67 157 33 92 216 52 47 72 47 137 16 51 217 110 43 7 202 42 40 204 51 237 172 14 99 111 8 199 178 36 20 14 17 173 61 18 166 198 26 170 159 18 98 166 0 245 206 35 232 187 7 147 30 3 206 230 42 204 250 12 29 167 50 177 77 7 227 248 21 237 90 52 63 79 11 161 55 25 114 202 45 13 153 43 116 101 9 135 130 20 9 52 19 61 23 25 127 4 49 254 67 51 67 228 42 39 86 49 178 99 44 12 215 45 33 94 42 84 103 13 110 164 33 130 35 8 61 33 52 70 100 7 71 140 3 162 62 42 76 74 53 46 107 5 218 192 11 31 46 43 201 176 39 246 237 11 87 52 28 207 123 17 75 30 29 10 106 43 174 152 14 168 114 1 5 145 17 58 91 31 206 81 31 201 169 37 104 120 17 43 196 44 16 206 18 89 124 37 46 36 21 65 42 40 159 100 41 105 50 12 242 251 30 170 100 31 17 143 7 102 159 11 239 248 50 244 38 54 22 104 11 163 7 13 201 112 9 97 99 52 138 13 39 15 30 43 229 133 27 100 116 18 91 104 35 23 127 9 161 34 33 167 235 41 210 76 17 39 215 4 225 230 49 205 203 0 180 47 5 0 138 49 219 161 10 85 66 33 200 234 11 98 188 23 99 228 51 108 197 10 230 146 24 194 70 35 172 70 34 180 33 13 65 119 38 66 63 33 172 161 51 149 5 31 161 113 3 152 87 0 219 26 34 246 198 41 246 122 39 194 187 9 188 253 24 65 170 23 104 63 41 209 224 54 36 120 31 51 84 7 39 74 25 223 64 23 42 2 17 187 191 20 146 0 1 139 104 51 251 57 35 171 93 3 252 145 52 82 184 48 25 151 2 56 193 18 113 124 21 112 
15 28 233 154 12 29 150 21 79 65 6 42 61 28 69 143 5 65 168 13 181 225 4 125 82 46 143 195 34 225 172 49 54 202 44 74 25 42 95 67 11 220 137 0 146 202 39 166 127 55 75 252 0 168 139 27 157 108 30 83 163 10 133 237 44 199 76 21 163 40 1 21 187 34 200 97 12 184 173 11 55 85 39 94 242 42 103 69 6 194 203 9 224 146 23 170 53 43 63 74 36 236 18 31 221 202 16 87 1 37 155 95 35 94 198 53 29 136 43 103 104 6 30 19 48 119 82 45 190 62 23 82 28 49 14 115 11 133 15 28 93 109 3 227 139 34 190 242 18 139 16 43 158 136 6 124 70 8 236 152 38 145 166 2 128 43 46 129 137 21 76 108 26 24 42 13 68 181 24 54 84 48 176 208 24 147 189 47 137 78 15 209 207 38 88 80 1 250 157 10 16 181 54 53 249 16 200 47 30 229 224 2 245 115 18 22 253 15 190 206 54 173 38 13 53 33 37 99 49 26 188 103 48 159 47 9 237 20 25 102 10 1 148 32 52 22 222 41 104 140 48 120 193 38 214 36 15 3 224 49 128 127 24 155 109 47 107 211 19 52 103 37 45 125 5 6 229 4 83 93 8 156 51 33 180 54 45 243 183 29 82 82 13 227 189 18 219 241 5 2 31 44 62 37 9 131 120 30 233 21 52 45 201 15 253 188 30 142 15 5 67 242 7 216 206 44 237 208 37 111 14 12 196 146 10 128 123 42 185 168 7 216 165 49 84 51 53 3 118 4 233 78 47 134 60 53 117 171 21 33 112 44 191 240 46 123 170 1 93 130 25 184 214 14 39 217 17 96 195 31 86 73 45 90 191 33 81 224 21 22 159 29 172 27 13 80 120 23 134 48 33 55 88 39 144 184 25 142 14 20 191 105 13 102 186 52 91 209 29 141 125 20 106 205 7 183 83 0 244 138 0 220 26 8 69 168 49 133 103 47 158 205 32 122 40 11 159 181 4 132 31 49 73 214 46 173 203 1 45 167 51 37 236 29 77 113 29 206 15 52 7 137 17 78 41 41 255 173 15 106 246 54 166 163 37 95 208 0 229 245 7 190 67 11 33 17 45 158 24 52 195 102 22 79 101 47 168 207 44 41 117 50 96 212 5 183 185 54 228 119 11 220 152 6 123 54 31 6 249 23 3 72 14 16 240 51 166 26 19 101 122 16 209 49 53 51 21 30 56 241 46 14 108 54 218 115 13 232 118 30 8 134 31 63 44 7 221 145 25 225 98 44 180 149 29 252 206 35 25 220 28 240 182 33 62 159 28 36 167 18 65 230 41 88 196 45 183 165 39 6 
89 33 112 85 23 84 111 29 105 95 1 148 157 40 177 193 47 58 3 30 54 91 36 168 18 40 161 24 5 199 136 6 126 220 4 151 70 51 70 218 18 195 139 55 29 197 16 45 251 11 220 164 30 50 69 16 110 12 33 111 138 49 20 34 38 19 104 28 103 44 38 42 73 42 76 118 15 11 82 11 139 132 7 15 242 12 237 97 17 222 118 3 231 137 29 120 240 22 230 26 10 154 102 19 41 113 33 67 252 3 34 11 39 253 249 25 124 215 27 65 190 25 18 54 50 109 29 10 235 183 52 209 224 26 227 35 27 62 70 55 15 67 27 50 192 52 217 1 51 114 19 9 109 128 31 222 107 28 216 60 44 194 31 44 198 93 16 48 108 54 11 158 33 227 119 25 198 234 18 162 87 37 85 54 6 198 14 33 109 209 46 50 151 21 174 200 51 10 211 7 138 182 38 80 124 37 90 30 15 35 115 55 238 57 13 203 167 51 41 217 36 243 135 52 249 145 20 30 28 55 161 108 54 145 198 42 31 234 33 36 216 4 20 163 46 91 205 21 216 192 14 99 185 13 192 215 30 180 121 42 112 10 47 255 41 5 69 77 39 8 97 15 233 188 51 61 148 0 203 248 8 0 184 17 14 108 24 163 220 9 202 219 3 12 33 20 187 41 10 49 18 27 144 79 32 200 27 20 163 27 12 75 42 20 179 205 48 212 151 36 204 164 8 62 95 41 185 144 42 94 33 28 80 233 43 163 140 22 179 215 42 88 138 4 244 94 17 73 42 25 9 104 5 166 34 12 30 128 53 183 208 14 121 115 47 77 39 51 112 127 26 175 115 4 9 188 2 141 198 44 222 108 29 199 138 55 84 65 15 65 186 15 190 7 26 92 119 9 227 38 24 246 47 44 224 188 40 84 155 22 38 98 26 34 183 44 135 248 45 14 182 15 21 18 38 236 245 46 55 235 44 168 203 20 153 31 48 253 69 43 29 103 6 4 239 21 86 253 45 51 19 43 80 255 5 40 54 2 6 223 45 92 120 32 217 117 47 133 146 52 237 150 19 241 237 34 87 32 24 116 112 3 137 152 50 84 159 1 49 251 0 3 212 32 192 89 13 72 71 7 239 56 14 219 143 27 46 3 35 113 140 27 177 224 4 4 17 27 86 20 6 223 212 51 71 28 28 39 11 27 124 230 35 100 20 2 226 133 45 77 54 41 216 58 17 211 145 50 103 112 30 154 184 26 201 223 54 204 92 9 40 192 55 204 162 52 167 239 25 18 199 24 127 154 34 121 2 51 82 156 20 61 101 52 59 49 51 14 90 15 252 38 23 246 205 17 213 223 48 201 
95 55 67 216 10 243 42 52 221 103 40 89 163 38 69 177 39 233 173 1 108 163 47 76 121 21 235 66 28 45 133 19 93 120 19 85 86 30 231 175 5 123 244 0 171 221 41 65 73 55 9 149 50 42 129 11 114 174 6 135 11 27 123 96 44 207 71 18 250 194 41 80 110 53 14 175 42 110 184 35 128 227 17 63 85 26 161 220 8 125 87 51 155 38 44 62 33 35 90 113 38 204 127 4 237 238 27 2 110 52 244 173 47 48 78 44 1 203 40 83 102 15 83 165 46 94 255 15 202 204 16 126 185 0 244 188 6 216 176 36 107 224 41 183 225 31 230 52 19 106 135 33 202 230 46 130 176 30 96 46 42 95 34 11 207 250 31 191 102 48 157 29 8 233 4 2 226 110 38 42 57 54 61 187 44 182 27 36 213 122 11 243 73 29 221 9 16 128 166 22 224 144 43 240 114 55 224 156 46 178 217 23 185 144 18 71 101 5 187 88 39 223 53 8 50 181 25 168 149 24 24 133 40 238 102 42 225 24 39 217 209 0 63 24 32 222 211 53 56 179 21 173 229 18 156 141 0 212 165 53 22 147 27 254 117 41 118 78 25 96 141 19 231 107 3 72 163 39 56 80 34 142 236 39 59 192 13 30 214 42 182 212 6 227 74 43 150 171 1 175 146 46 225 218 9 228 19 44 255 161 44 238 220 48 144 250 48 24 176 31 45 148 43 231 42 54 53 218 9 248 187 11 9 159 38 167 158 17 176 141 18 92 29 30 88 53 17 64 98 33 233 74 45 104 127 40 187 120 26 89 129 45 162 41 28 126 217 34 52 54 7 253 142 21 103 207 26 173 184 37 238 32 39 224 219 22 101 53 14 21 215 32 159 85 33 228 137 2 200 134 48 75 237 47 90 155 30 135 137 6 234 105 30 175 207 33 190 228 14 76 132 22 83 104 27 219 49 21 140 124 51 22 214 49 215 94 44 38 72 53 68 247 55 26 181 6 16 1 2 225 84 14 232 47 31 198 187 48 249 210 4 182 169 2 250 207 48 43 19 40 247 45 15 76 61 12 11 30 22 153 6 42 12 204 50 2 198 21 97 124 39 241 118 0 253 161 47 224 152 26 32 229 39 169 240 44 40 138 19 93 150 33 147 152 54 29 250 20 215 235 24 77 233 47 148 201 48 133 233 17 68 146 6 23 187 38 22 24 24 83 171 46 174 200 7 15 160 9 61 237 52 49 129 5 162 6 6 137 75 32 17 98 10 50 120 53 56 203 5 47 121 0 175 137 49 198 198 33 117 248 14 30 154 47 178 35 46 48 52 17 118 103 27 166 159 27 105 206 7 230 
126 40 124 68 33 188 185 40 197 215 24 110 137 50 4 185 53 28 48 9 58 214 48 163 63 48 110 38 6 177 162 28 192 94 48 73 36 1 90 146 8 50 151 10 2 179 35 108 237 11 249 144 34 187 254 33 227 175 15 171 112 1 66 185 32 86 19 44 175 70 54 192 72 5 169 181 40 27 174 37 70 105 13 162 77 51 212 248 35 69 58 43 221 145 28 22 64 23 174 0 13 106 169 46 185 196 3 158 11 33 55 173 35 188 129 40 210 198 0 229 163 43 168 186 4 219 104 52 199 211 36 199 140 22 12 42 2 154 97 53 221 30 18 207 240 43 42 213 34 210 126 45 114 89 23 77 33 40 185 232 43 101 244 39 18 143 49 104 108 43 130 59 41 168 101 17 122 55 6 206 170 44 232 247 30 165 177 7 29 22 39 253 40 11 176 144 26 239 19 31 88 187 42 35 53 0 12 3 39 229 235 17 148 145 49 192 174 10 70 171 48 237 91 33 124 74 25 0 162 28 18 198 7 145 210 53 76 184 8 108 76 36 195 12 53 197 83 27 190 64 38 104 189 33 40 189 19 17 207 5 139 97 43 23 173 22 95 25 14 220 220 10 92 161 54 200 95 33 197 199 10 112 240 7 198 1 36 119 140 51 114 164 12 16 3 33 115 223 2 169 59 39 151 4 48 209 201 24 24 58 15 177 0 15 139 120 1 34 234 37 118 250 25 154 110 44 30 23 19 80 175 15 154 128 11 193 152 28 138 74 54 178 213 39 161 248 15 129 110 1 98 8 4 207 39 50 225 119 33 245 17 40 233 211 25 24 93 9 75 15 43 71 176 9 126 49 9 181 147 23 100 99 32 253 68 31 145 57 14 147 34 7 173 58 10 117 133 15 190 205 14 160 75 39 203 0 16 204 100 36 197 97 31 45 243 43 157 134 4 52 51 47 66 169 1 97 103 47 84 7 44 163 211 47 2 159 47 17 101 35 81 146 36 37 47 55 92 99 46 215 165 9 140 6 42 99 90 2 116 254 33 11 0 44 111 17 12 30 98 1 205 136 19 224 228 42 85 188 29 188 72 50 170 171 24 204 31 51 150 43 41 200 154 9 2 185 10 14 134 12 186 103 28 203 188 1 110 120 29 64 35 21 117 239 8 79 133 31 48 78 26 107 80 53 164 94 14 221 25 28 39 228 27 211 83 7 8 147 24 33 9 35 246 88 50 19 136 39 219 243 45 194 151 5 213 116 20 130 155 53 232 111 25 212 119 52 40 152 32 55 142 25 191 161 49 106 124 18 4 62 21 36 19 5 145 149 41 79 125 45 107 82 12 160 122 27 185 177 19 38 
113 17 38 219 2 47 224 46 144 4 28 122 149 0 88 228 29 205 79 43 182 239 13 59 169 23 47 207 40 154 245 41 157 36 21 46 180 13 96 47 41 14 135 22 251 84 35 251 10 26 144 70 50 163 117 19 8 16 10 231 173 15 120 220 3 121 60 31 86 75 22 19 70 53 212 65 41 43 209 44 102 117 18 240 125 47 106 101 15 141 221 13 127 86 25 102 173 13 113 192 24 49 149 54 31 192 7 149 38 49 94 22 14 50 129 51 76 14 16 220 142 45 123 244 28 200 102 9 241 151 1 87 182 30 7 75 22 254 170 36 53 220 43 62 41 36 188 5 2 184 128 24 24 73 5 86 58 11 234 145 10 43 153 32 44 151 36 195 204 6 25 11 10 150 199 11 41 127 0 61 152 33 95 238 50 16 216 20 181 3 54 192 47 7 98 242 30 186 12 2 94 162 29 172 203 13 215 8 28 42 103 36 131 119 10 92 44 50 126 236 21 218 78 21 200 9 23 79 103 51 109 20 53 88 235 32 77 21 48 10 152 48 71 244 55 27 114 20 222 77 32 120 21 7 22 101 16 227 210 23 162 42 35 110 120 46 219 130 28 20 201 36 84 229 1 252 195 43 28 59 0 104 81 22 160 52 43 39 215 37 183 69 24 175 32 16 186 52 10 177 137 36 189 133 17 97 161 44 250 9 15 6 170 9 94 209 13 204 137 12 159 56 1 69 242 18 21 163 38 93 96 39 39 194 37 187 188 6 52 194 32 112 33 50 232 237 35 177 141 20 174 210 52 131 231 39 156 68 26 214 107 43 69 39 13 60 91 17 185 204 4 216 180 29 0 101 10 210 19 23 117 150 17 162 51 16 6 9 36 93 78 32 88 139 23 179 68 26 208 28 30 169 28 34 69 238 31 2 100 35 173 6 1 228 12 28 238 106 22 222 194 4 19 117 55 179 69 28 122 238 16 156 52 5 139 54 43 45 227 15 53 200 21 80 182 18 1 148 12 230 167 14 212 90 27 16 212 48 216 113 6 228 252 50 12 41 9 81 94 4 133 174 44 28 176 34 186 150 31 100 106 54 120 122 41 78 82 37 153 54 54 41 67 42 167 148 28 90 25 2 67 54 25 15 240 1 164 84 55 238 204 41 205 26 43 84 179 6 53 220 52 234 131 31 17 221 44 51 32 21 127 48 19 42 212 3 131 194 31 140 144 43 43 228 13 52 25 8 183 3 4 141 20 8 154 72 13 233 199 14 205 241 54 203 116 50 254 0 20 34 43 36 153 95 0 221 23 49 58 164 21 75 62 41 55 40 9 167 245 9 245 192 26 99 191 47 1 225 55 115 
122 35 167 87 42 108 146 49 20 221 30 214 20 52 155 188 4 116 177 42 150 20 34 127 21 41 89 136 50 168 47 21 248 155 36 115 176 30 77 134 19 63 33 8 213 149 4 169 43 37 166 170 33 152 4 46 74 172 54 188 164 5 14 23 9 219 101 33 0 164 15 182 121 32 74 34 37 242 200 41 86 96 35 107 171 47 148 103 12 210 117 8 152 81 16 141 81 21 30 7 17 95 81 34 38 67 36 14 153 29 140 4 53 53 152 16 136 106 31 224 2 5 228 144 54 140 174 47 76 14 54 113 52 24 58 67 19 124 207 13 225 4 17 14 140 18 155 108 4 212 80 31 115 221 47 136 41 45 238 155 27 165 213 8 100 82 3 116 51 50 199 65 6 180 220 2 166 176 47 48 36 39 36 172 52 27 155 22 162 64 49 216 164 54 27 24 40 147 224 3 78 148 52 216 58 33 102 106 17 129 143 5 8 170 18 223 77 21 148 37 5 114 64 10 235 212 42 57 34 50 218 251 7 173 97 9 194 226 4 179 234 11 84 202 45 26 94 26 140 208 55 153 187 32 230 244 4 216 206 30 227 124 33 205 62 3 76 241 37 6 69 32 42 95 50 221 235 8 58 132 48 229 107 11 180 67 47 196 38 30 168 244 2 175 64 16 176 70 33 19 112 14 89 77 22 137 136 17 131 109 6 219 33 49 3 230 44 230 142 3 189 61 47 99 238 39 133 1 22 229 90 22 54 227 12 205 102 44 195 65 33 164 68 50 10 42 40 219 232 23 240 75 12 43 209 42 90 182 28 201 237 22 127 186 26 166 125 32 26 33 50 22 44 38 127 7 25 9 247 41 122 34 20 121 124 5 181 70 52 224 197 41 12 107 11 146 133 0 252 155 25 205 26 37 223 36 53 53 158 20 182 23 23 31 204 51 212 172 33 89 184 31 149 75 10 190 71 40 161 20 19 1 243 38 131 41 50 48 223 8 229 255 7 146 211 27 97 44 16 172 194 0 62 128 27 149 34 27 87 35 15 159 166 11 131 215 28 129 188 43 163 78 18 99 175 53 58 92 42 221 154 36 45 47 44 54 134 38 137 38 42 36 169 0 212 42 15 119 205 44 67 48 34 238 106 50 153 71 30 22 117 48 192 171 39 44 52 13 25 89 19 39 45 36 89 164 46 50 231 27 225 213 11 77 110 21 8 133 29 114 69 18 56 114 45 152 139 41 39 178 42 60 12 23 120 62 35 92 31 34 107 109 24 70 117 46 82 231 43 199 31 1 132 183 35 182 222 38 147 26 32 165 146 4 15 239 50 167 90 18 226 160 47 5 242 44 253 186 3 99 
62 50 79 245 9 128 136 15 35 45 25 81 61 4 49 228 11 30 198 13 72 203 21 146 200 16 73 44 50 117 123 24 136 251 37 186 30 38 163 111 35 106 160 32 76 190 36 192 7 11 35 153 46 224 227 39 61 88 35 141 225 46 151 155 17 224 63 39 29 169 38 227 245 30 215 181 21 7 216 4 28 184 37 247 246 40 157 131 17 12 27 10 167 251 53 189 24 4 206 252 14 253 211 11 155 218 25 218 246 41 215 237 42 219 139 32 120 151 43 249 63 38 210 252 41 140 203 34 225 200 22 118 100 1 180 62 43 231 21 2 208 240 55 146 104 26 12 97 10 124 51 25 111 191 5 126 161 8 135 23 17 169 203 29 199 178 27 184 131 48 132 21 8 70 33 16 245 157 42 48 12 45 2 138 45 19 18 14 32 187 37 249 131 40 154 59 10 159 191 37 226 5 10 58 251 11 130 43 0 50 45 21 68 64 39 138 96 41 143 89 5 53 243 48 242 146 19 122 116 27 180 174 32 114 48 19 68 99 54 56 167 19 200 49 11 101 192 4 141 245 21 198 231 49 187 97 43 51 22 48 231 136 22 90 204 31 210 4 34 70 205 1 228 50 19 176 191 19 187 134 33 39 65 32 237 117 50 166 92 48 241 182 24 177 136 12 32 206 41 191 179 54 193 99 40 106 30 0 69 70 54 225 51 55 114 217 20 234 202 40 196 124 54 180 156 15 44 91 5 113 28 0 186 134 43 208 204 34 24 173 48 32 31 19 174 9 52 126 206 6 194 130 2 99 175 30 185 32 41 152 218 37 70 170 20 166 194 8 106 227 5 76 145 28 116 15 13 207 210 35 3 53 46 1 238 53 124 135 37 146 205 15 4 115 9 145 221 3 165 41 54 133 157 32 18 108 47 190 111 9 116 113 54 247 237 13 253 127 36 178 131 49 135 21 4 54 186 2 143 64 19 171 82 33 169 17 21 57 133 21 217 124 38 74 122 3 241 44 42 134 180 46 162 234 19 139 122 37 231 37 37 33 206 8 133 8 17 134 225 22 243 43 2 208 28 44 30 162 33 89 68 5 20 207 15 82 183 17 165 216 54 178 93 53 0 227 5 160 215 38 81 167 49 135 198 22 57 31 24 102 51 37 191 133 20 204 42 35 195 221 44 53 221 49 203 125 13 48 206 12 157 85 51 235 142 41 101 244 41 251 179 20 51 127 10 176 67 44 253 120 33 0 67 14 220 116 51 22 17 17 51 253 46 39 98 53 194 93 1 36 144 45 165 65 52 89 62 23 147 62 15 248 27 43 57 49 15 88 100 48 243 139 13 93 77 39 27 113 52 104 
22 5 170 112 46 159 3 52 19 251 18 203 53 13 250 141 46 109 128 42 84 221 53 77 249 19 66 97 20 154 11 3 78 170 51 147 190 38 25 137 18 221 131 39 224 241 4 253 69 44 76 146 26 254 213 3 60 111 44 199 189 24 195 81 42 214 106 8 89 72 1 224 40 21 98 37 14 25 113 3 93 112 14 33 172 27 195 115 26 94 54 31 91 13 8 99 102 27 21 70 27 134 168 11 127 193 48 252 30 42 106 64 50 30 3 54 100 98 17 127 189 39 9 32 44 80 53 35 233 187 25 236 59 42 55 55 27 170 162 42 66 192 2 76 36 29 198 163 15 236 172 20 133 252 36 85 229 10 49 209 45 116 8 16 254 178 40 48 245 18 35 65 10 53 8 54 135 244 25 221 122 45 148 207 33 9 0 39 157 117 32 103 115 1 237 163 51 173 198 32 165 252 2 63 131 10 153 96 22 23 245 16 56 254 15 5 155 8 207 3 29 126 240 16 254 157 27 135 67 1 195 130 13 243 28 17 101 51 1 223 108 22 78 113 44 54 64 32 238 190 51 166 189 35 211 68 40 115 7 35 182 251 38 191 96 2 197 64 37 78 142 25 55 196 11 22 178 27 242 88 42 106 43 15 229 158 19 80 84 35 89 20 38 164 217 30 114 39 6 92 94 44 122 116 17 3 103 27 254 209 12 58 183 55 52 7 30 235 96 34 230 5 14 233 119 7 231 212 46 70 78 5 228 81 17 17 80 16 2 138 34 165 190 17 161 169 32 201 143 33 143 121 38 169 96 29 216 166 25 223 139 15 14 156 41 155 158 41 156 67 43 5 229 17 63 174 18 48 61 9 40 230 26 129 190 35 223 158 9 181 172 12 94 71 16 86 227 38 159 232 34 56 39 15 91 87 21 60 128 26 198 1 24 223 225 55 114 150 13 101 244 41 254 74 32 35 233 3 227 33 12 66 124 35 228 184 19 107 126 51 160 94 52 18 208 45 106 53 43 129 51 32 54 86 10 151 58 20 63 124 29 203 96 26 63 203 42 218 107 49 205 125 15 64 231 7 181 105 28 10 159 47 246 55 22 214 118 48 0 65 12 20 128 28 74 91 55 252 40 2 102 105 47 79 30 30 150 40 23 173 30 23 249 244 54 121 245 36 79 9 30 95 83 30 235 79 33 215 182 26 142 5 19 176 156 33 79 73 25 213 67 32 197 188 36 84 11 9 26 106 11 86 85 14 212 44 30 211 186 44 44 106 33 174 185 13 153 142 15 162 83 42 212 167 54 36 193 17 104 24 35 162 236 8 229 191 44 123 236 46 97 154 0 253 52 49 159 214 39 220 
170 51 99 206 50 45 55 4 179 217 4 68 190 48 63 57 16 143 155 36 11 152 22 65 55 34 225 20 33 58 119 3 34 165 2 93 88 49 63 157 42 227 220 48 159 108 33 72 119 20 176 185 5 4 154 20 242 213 24 21 247 16 14 84 21 177 147 37 35 119 10 204 22 55 78 94 43 142 14 26 8 18 11 28 5 38 201 26 27 174 40 18 166 217 30 22 253 1 43 201 32 153 24 55 163 166 5 138 174 52 221 203 46 168 148 11 43 66 21 73 233 21 60 255 31 38 43 36 100 196 29 54 103 21 126 242 36 221 207 18 155 119 45 103 163 50 69 236 36 41 41 29 38 79 29 76 180 16 75 234 12 71 104 11 12 70 13 234 225 45 110 72 20 160 141 47 158 182 12 48 221 37 4 41 28 194 116 40 127 187 2 103 199 19 19 177 41 38 31 34 44 192 34 1 94 31 77 142 22 61 146 11 25 84 52 30 211 16 114 58 27 123 77 10 109 116 20 200 160 3 105 161 51 235 238 49 181 43 23 13 68 18 27 98 6 6 213 18 26 80 52 162 189 26 229 134 46 239 239 54 171 219 23 135 144 29 34 157 9 28 184 53 163 190 32 189 216 29 44 122 13 110 95 26 234 79 32 180 250 16 242 129 11 208 164 35 79 192 49 189 99 17 86 33 32 51 77 48 115 187 27 136 165 18 237 90 49 16 76 52 184 29 21 80 108 1 195 41 1 199 127 29 104 179 30 193 38 11 217 175 14 202 156 35 53 172 45 255 101 34 25 181 39 45 121 11 194 64 13 252 168 4 245 105 55 82 67 14 208 13 21 155 66 1 33 65 22 77 90 35 210 135 8 164 74 41 147 70 25 239 59 25 116 142 27 120 94 38 48 250 19 14 27 13 155 104 6 196 59 33 154 223 48 213 115 42 198 98 32 47 214 28 217 78 18 42 126 16 229 140 34 227 39 54 238 236 38 59 134 49 202 92 49 179 34 44 35 81 22 222 42 4 222 85 26 26 58 33 228 30 45 13 12 5 47 72 49 109 18 31 20 197 27 245 232 29 182 198 23 234 165 33 128 191 38 236 164 25 167 177 31 224 224 3 165 78 51 146 98 13 107 87 2 203 14 43 134 248 17 100 121 30 147 101 38 236 12 2 155 236 35 132 146 3 139 36 17 158 144 43 250 91 3 103 225 17 154 69 41 181 216 26 150 197 48 29 96 20 99 228 1 77 111 35 232 13 31 99 7 47 45 111 18 88 9 12 219 190 1 108 84 50 246 113 23 248 212 55 96 33 3 213 9 10 54 109 47 41 154 15 64 242 6 232 206 39 234 58 29 206 
48 33 248 41 27 250 137 47 193 94 25 232 148 50 243 189 39 109 254 9 244 230 4 131 208 50 129 159 52 136 151 37 77 145 46 103 82 15 242 58 46 81 45 26 210 154 48 93 142 14 84 18 28 230 147 36 106 28 11 188 105 34 72 208 43 5 194 5 235 20 39 91 230 12 41 67 14 139 152 37 171 126 47 201 232 26 205 164 54 162 236 16 21 242 0 32 221 35 187 56 55 169 97 13 208 237 17 37 152 33 19 98 31 144 47 55 31 209 11 66 231 47 128 7 9 40 194 39 161 107 7 220 60 17 43 97 22 96 116 14 217 5 32 234 36 32 121 102 25 240 231 32 11 15 31 19 176 10 12 140 13 227 183 25 243 24 42 100 241 23 194 220 4 184 85 16 17 70 31 153 81 30 242 100 29 51 113 14 122 84 18 132 71 42 250 171 10 171 109 51 190 38 47 69 55 37 209 208 51 129 194 52 152 245 49 150 112 50 164 244 22 98 238 54 172 154 9 174 88 23 200 157 5 212 110 20 187 239 52 248 136 30 123 30 44 80 194 52 137 36 8 51 209 39 49 127 1 119 72 17 105 28 54 200 215 4 77 208 19 9 75 35 149 155 10 227 36 12 39 87 1 219 137 10 132 0 33 27 105 1 76 49 5 213 126 37 251 135 45 143 28 40 18 0 4 30 39 40 72 3 32 52 135 41 69 162 49 39 238 11 137 195 44 50 190 43 248 77 10 149 95 55 2 125 39 186 197 30 14 250 41 135 63 8 87 103 50 176 240 32 9 34 35 204 26 17 193 175 22 52 177 54 46 108 35 69 122 17 92 1 11 155 88 2 220 8 1 165 18 25 15 222 36 104 159 6 131 211 14 93 2 23 131 71 27 9 164 46 13 63 47 214 27 8 153 192 40 155 208 34 5 56 17 94 187 16 218 24 4 113 156 46 183 165 13 174 178 1 18 136 24 240 33 12 207 189 12 7 194 4 72 32 36 154 251 16 203 108 0 156 35 12 64 209 50 230 227 44 211 211 45 101 163 14 53 170 43 33 242 5 206 141 22 74 88 1 255 244 5 111 52 32 247 26 49 28 238 13 230 83 24 98 136 3 103 170 54 142 120 48 113 194 21 23 193 14 221 48 18 158 40 23 203 68 1 27 42 23 60 140 34 65 244 11 26 130 37 149 243 21 187 10 55 212 231 49 121 133 17 119 80 1 106 107 29 145 168 23 210 233 12 2 3 24 132 153 34 143 84 13 68 40 24 113 162 55 97 25 37 18 131 45 243 20 25 253 231 9 74 233 26 194 109 46 198 253 55 190 65 51 56 179 52 165 20 38 29 38 7 125 
25 35 98 22 55 151 97 14 56 35 47 129 233 5 180 167 50 234 223 51 185 132 46 220 162 2 40 31 24 22 129 18 30 24 40 169 81 33 72 210 36 207 134 13 62 112 20 27 41 3 245 6 8 17 46 10 223 69 25 194 99 18 202 12 18 236 84 51 37 35 14 190 98 12 123 125 13 32 115 38 109 132 28 152 99 19 72 37 8 154 240 43 11 220 47 253 1 3 8 192 23 99 59 25 145 91 14 70 200 9 107 97 37 185 169 17 14 68 14 145 79 30 89 77 51 132 85 4 187 184 20 70 74 23 245 144 51 6 251 43 149 180 28 150 194 54 28 83 34 5 172 17 19 48 22 18 235 51 237 50 4 201 39 46 102 46 6 61 195 49 112 89 45 108 117 8 200 122 51 206 142 16 24 160 0 178 141 36 152 86 54 212 188 37 200 250 35 6 106 46 212 214 24 157 159 21 26 109 24 90 134 46 238 56 46 46 208 19 158 164 49 250 108 6 136 114 8 62 70 18 33 227 1 200 254 48 200 88 45 61 70 11 45 116 35 171 19 12 201 13 32 116 150 45 118 212 23 52 245 30 236 189 25 14 133 15 7 195 32 159 240 30 165 156 27 48 101 22 244 218 3 136 80 1 192 132 53 101 112 19 125 126 32 219 134 46 28 37 25 92 202 17 244 251 45 210 239 11 37 119 45 139 55 13 255 157 49 8 26 17 230 245 47 185 17 29 73 109 51 95 97 29 56 52 16 2 89 7 103 229 38 50 228 30 215 236 11 204 210 45 69 139 10 46 213 27 150 52 41 131 109 10 150 111 22 116 214 48 76 9 53 20 224 9 82 173 45 200 242 32 219 33 43 8 183 40 42 58 13 94 209 42 255 69 17 1 145 39 56 165 32 200 248 17 61 192 14 150 156 16 219 164 25 243 207 48 151 45 11 15 44 36 188 45 9 214 101 18 95 45 40 191 106 16 39 0 40 112 220 28 102 207 9 79 102 48 88 118 5 25 50 1 20 9 30 224 104 20 241 39 1 147 79 12 219 191 4 27 38 8 28 117 16 184 205 22 249 230 28 9 250 31 70 218 40 175 203 48 70 95 48 66 58 31 107 86 38 255 114 44 148 42 17 4 36 55 68 45 21 235 116 40 7 35 18 86 105 22 174 171 13 111 23 31 87 22 5 142 170 47 132 175 42 161 243 30 50 222 27 145 230 23 215 60 35 23 235 20 49 90 0 23 177 15 92 63 21 220 195 24 177 100 15 249 151 10 107 40 17 1 255 47 196 22 35 252 72 46 87 95 16 27 188 49 139 152 48 18 73 12 176 66 8 248 173 15 239 174 0 217 
115 39 162 111 6 81 198 30 61 225 45 19 109 41 68 127 33 37 47 51 70 39 29 42 22 51 114 240 49 82 146 20 90 228 43 97 33 41 127 52 3 229 120 40 171 158 39 44 228 23 70 14 22 169 128 29 78 210 5 161 44 23 163 142 19 23 13 12 251 243 17 164 158 49 47 202 47 39 16 27 159 185 17 70 8 10 20 169 4 249 76 1 206 100 23 54 95 44 129 3 55 238 51 29 143 90 48 168 249 8 96 63 10 251 84 42 165 77 43 207 28 48 203 82 36 244 211 19 171 193 38 112 80 41 39 249 12 125 89 29 157 84 45 205 249 9 183 200 38 169 148 34 69 136 36 45 52 48 121 164 25 36 203 26 210 72 27 180 229 36 240 179 24 37 106 34 154 20 34 99 89 30 122 134 23 172 255 43 49 35 55 137 245 42 162 169 19 12 153 16 111 191 43 43 89 38 60 189 42 70 55 43 24 227 33 127 20 16 110 157 51 145 64 24 88 76 34 234 188 3 197 231 34 134 35 12 249 105 33 215 130 48 201 1 35 20 111 32 229 0 29 181 88 53 168 66 42 145 8 38 35 142 5 78 135 49 57 95 10 125 40 4 126 61 5 182 34 20 209 216 52 1 128 12 207 17 31 220 52 23 54 131 21 76 188 20 74 57 19 107 183 28 245 109 9 2 62 3 15 64 43 140 15 36 8 235 5 221 34 42 244 110 21 19 184 17 192 35 42 244 25 1 136 27 54 68 42 12 61 182 4 88 191 3 76 156 7 192 144 1 69 163 7 255 99 32 60 87 11 53 223 36 103 35 15 80 96 34 166 185 40 59 5 15 15 197 43 243 10 27 194 10 30 179 70 17 18 124 33 42 227 0 102 52 28 186 218 52 42 21 37 196 37 10 20 24 31 36 218 50 207 141 36 11 159 26 233 202 38 43 48 10 196 234 46 60 20 40 216 216 38 213 237 51 138 17 27 69 224 29 196 235 26 78 213 41 226 0 35 189 196 3 19 0 54 77 217 34 187 174 43 4 56 8 98 125 1 229 66 49 128 144 53 245 115 2 247 48 34 152 67 14 4 145 54 159 76 55 37 80 53 192 178 30 51 151 35 147 23 5 4 12 38 85 3 33 146 156 1 164 160 36 182 63 21 140 101 26 99 37 10 18 88 53 112 235 4 6 239 20 25 68 0 111 215 12 85 123 40 174 50 48 55 190 39 3 33 52 97 52 25 11 164 9 5 170 12 178 195 35 247 50 40 83 135 39 187 53 18 39 108 36 47 112 11 215 209 36 191 220 40 11 225 20 125 148 30 70 139 50 251 222 44 158 153 20 134 193 9 69 
240 30 128 200 30 236 135 31 23 146 3 100 15 52 228 86 48 9 81 51 215 239 9 105 118 19 46 187 20 122 59 28 251 40 4 233 63 27 71 163 14 118 136 37 129 145 27 110 104 20 238 210 52 250 0 34 227 122 5 102 117 1 170 95 25 223 166 48 219 29 52 95 158 4 117 12 21 154 251 5 22 245 7 226 216 55 158 63 17 208 233 23 190 200 46 231 164 4 56 3 25 200 120 40 252 18 44 184 40 31 5 11 20 187 169 37 66 122 52 202 56 5 203 31 6 66 87 42 24 31 5 149 28 13 46 212 39 102 218 24 171 149 43 234 215 20 31 161 30 44 109 6 120 175 21 173 200 52 171 93 28 77 139 8 242 242 12 15 157 30 63 135 11 151 166 3 250 210 44 6 74 1 141 248 33 75 163 17 41 241 14 93 227 17 177 243 11 33 50 40 102 201 24 132 195 22 56 201 17 195 86 3 239 162 27 137 203 23 210 40 32 227 218 43 81 251 14 74 97 24 54 230 1 190 30 52 206 225 46 133 208 52 14 89 6 225 43 41 173 14 26 28 95 28 124 170 31 191 224 41 246 158 23 94 109 53 144 242 22 132 0 30 66 225 8 87 142 19 13 170 34 143 38 41 57 230 11 189 220 27 60 58 2 29 202 39 228 79 9 201 145 41 143 232 50 38 246 25 22 133 11 49 190 18 91 123 40 229 183 52 24 213 6 44 185 1 222 131 48 253 18 49 14 56 2 31 78 40 17 128 45 146 219 43 190 192 22 16 217 37 72 5 18 92 227 44 170 224 23 195 238 33 43 13 34 37 30 16 7 177 16 223 111 20 60 127 44 87 199 13 237 35 10 58 205 21 93 145 29 57 188 27 152 225 16 9 232 31 179 199 8 172 3 47 36 90 6 120 71 53 141 130 40 122 223 45 109 24 38 66 176 27 248 185 28 155 109 5 76 25 20 27 61 8 155 182 10 138 67 18 248 189 28 45 42 43 133 109 35 170 101 43 97 0 52 212 76 17 40 103 34 101 2 48 106 140 22 114 132 1 212 177 22 126 54 41 170 225 46 181 66 51 216 22 43 171 62 24 56 164 7 49 14 2 68 128 54 148 84 27 154 211 44 227 125 35 233 51 12 26 11 14 184 183 12 187 239 18 191 32 38 15 100 4 198 248 52 128 146 49 199 117 28 146 95 25 14 121 4 193 50 24 85 237 15 43 172 30 23 187 14 66 130 43 16 2 11 237 201 22 73 91 35 250 106 2 126 43 4 128 129 14 180 172 43 244 196 8 235 6 11 209 22 37 216 3 40 67 77 33 166 71 29 156 198 15 8 70 34 210 
250 19 22 239 8 140 218 52 240 172 34 0 132 0 203 199 28 25 109 41 105 10 48 130 18 30 247 228 44 214 251 7 225 135 14 108 119 8 164 119 20 160 67 32 162 92 47 187 197 5 215 71 39 64 63 17 240 21 21 103 246 0 35 99 40 218 7 39 128 168 7 1 74 10 45 5 54 222 220 27 85 28 18 58 13 41 41 116 55 42 151 21 16 114 16 240 242 32 88 243 48 56 33 2 143 255 16 41 84 20 31 143 41 218 184 14 220 227 10 30 243 1 117 227 51 194 60 22 115 116 1 43 3 10 139 44 9 53 75 46 229 37 53 114 1 13 27 31 40 209 148 43 251 87 7 188 202 11 240 245 55 22 128 34 47 181 22 106 155 49 163 13 14 49 40 15 78 249 15 36 244 3 220 176 50 136 160 52 23 182 17 226 230 17 33 80 39 99 243 2 209 37 7 138 115 39 104 151 0 71 116 52 70 252 52 218 19 29 196 245 11 121 22 1 34 121 25 76 74 5 43 212 2 165 60 53 44 131 5 219 202 49 131 164 5 31 104 16 107 225 53 88 4 43 252 80 20 133 123 30 95 32 42 44 76 22 30 39 17 131 170 11 128 201 7 241 52 24 94 141 33 222 137 5 83 14 13 222 109 40 226 153 0 48 183 28 82 59 51 176 187 37 146 173 14 61 11 3 141 234 16 69 61 9 222 28 23 124 254 29 105 47 30 210 129 14 90 50 49 47 196 52 42 1 17 208 142 45 62 211 39 225 178 36 17 46 24 202 151 23 146 105 30 199 196 47 149 243 9 27 29 5 220 237 47 89 44 37 130 13 17 183 31 19 214 233 33 51 123 0 171 66 18 34 216 30 200 243 49 240 208 14 73 41 20 103 171 8 134 99 37 51 57 36 180 108 54 231 24 17 72 58 36 65 3 28 163 243 23 201 60 39 226 163 16 24 41 28 60 93 47 140 17 24 234 249 13 102 65 37 204 130 31 174 37 26 210 238 13 206 208 2 189 233 37 125 37 55 101 178 20 249 156 5 240 2 46 33 207 16 190 125 26 115 79 0 98 29 14 85 218 39 58 87 16 92 189 21 34 182 47 17 167 19 93 200 54 186 134 53 17 249 18 169 91 25 195 176 46 3 235 32 50 71 24 49 105 21 25 122 11 38 215 50 230 146 10 65 163 0 159 76 17 204 15 45 118 19 13 111 69 32 133 118 16 118 143 17 190 181 4 195 155 51 126 221 37 225 124 48 11 73 44 188 191 36 101 47 23 106 180 4 32 42 34 192 232 41 168 171 22 250 42 50 198 11 31 105 22 3 159 210 20 119 56 44 156 162 27 208 
194 55 23 131 34 163 43 42 165 37 30 54 235 24 124 85 43 94 244 25 29 107 28 89 7 12 221 215 6 33 238 9 148 145 52 188 54 7 14 108 37 72 233 0 46 71 21 62 101 33 89 190 5 139 155 20 143 189 44 203 81 26 169 13 44 74 27 2 110 100 39 190 146 48 51 209 23 147 42 36 73 181 18 242 68 30 7 15 19 36 185 52 24 3 42 250 114 21 110 48 17 25 99 44 48 246 29 48 63 23 119 50 29 36 57 25 142 93 25 148 117 50 87 112 5 108 222 15 142 247 15 203 39 42 109 87 25 161 207 40 166 243 10 213 129 36 186 22 25 228 109 47 29 217 15 15 103 29 4 51 37 108 160 44 3 65 28 254 231 27 239 188 6 31 119 7 130 91 37 30 120 27 23 135 44 134 139 44 101 247 47 35 251 55 216 249 0 180 232 47 232 7 11 235 137 2 225 167 45 89 191 37 230 69 28 225 171 8 182 206 47 242 166 18 97 90 19 112 67 19 192 46 43 247 16 4 234 105 20 85 79 3 26 49 0 88 231 51 28 217 49 108 58 39 180 170 26 246 106 5 50 97 3 85 75 27 128 160 12 53 187 20 145 19 53 172 47 52 12 156 21 24 80 47 241 70 1 113 120 11 75 206 12 104 78 39 179 131 40 15 20 27 211 192 14 231 205 21 44 229 33 88 214 9 93 71 8 156 146 48 133 250 22 216 174 45 140 189 32 140 144 5 44 120 5 135 164 18 245 253 55 146 90 38 204 247 45 85 124 48 37 85 18 110 225 32 132 109 29 233 153 22 210 32 14 207 21 18 140 168 55 23 116 50 134 201 17 204 239 29 90 93 42 122 225 36 148 203 9 93 157 11 226 108 43 248 248 33 134 15 17 185 150 53 232 98 54 114 188 13 243 54 2 241 203 4 67 40 31 119 10 20 25 3 0 84 137 32 175 66 24 32 43 30 57 157 16 198 145 29 29 130 43 98 197 38 5 61 38 137 86 49 216 170 4 196 89 29 28 122 16 108 179 19 204 122 16 194 151 9 27 249 43 48 254 33 123 135 54 146 95 4 208 35 46 25 63 15 101 172 41 59 120 29 83 59 15 150 86 14 118 134 7 232 1 54 219 147 45 148 100 37 138 125 48 214 227 8 204 30 4 28 113 4 229 7 47 98 125 53 89 101 51 231 65 53 111 213 40 245 96 52 2 54 10 111 3 45 0 31 19 208 4 44 76 103 27 64 192 8 112 168 30 245 23 47 1 12 52 14 14 28 174 126 3 179 126 54 53 78 37 154 154 25 29 218 16 17 74 9 12 64 17 132 65 8 98 79 44 129 
253 34 118 176 0 202 229 14 85 127 44 227 156 22 144 173 49 66 185 19 90 62 27 51 160 52 180 34 35 76 152 1 240 98 25 163 184 7 211 155 6 130 44 27 126 110 0 21 200 18 134 252 8 65 176 40 61 253 18 121 237 26 5 144 5 142 100 13 199 230 16 230 100 28 133 121 42 192 255 3 168 65 31 74 126 15 42 247 20 171 252 18 77 138 2 136 82 14 37 56 52 122 189 49 106 125 10 135 38 26 17 112 19 100 155 1 179 70 24 179 147 37 175 27 15 153 64 9 20 186 10 242 37 55 183 172 29 224 189 3 130 34 3 36 213 14 7 136 44 104 56 16 193 209 35 22 229 12 245 216 38 39 143 35 145 111 55 184 241 29 93 22 15 40 29 12 100 134 53 58 71 13 87 93 22 7 82 28 210 121 28 222 10 3 165 195 2 144 32 19 40 73 9 125 173 23 244 231 29 64 62 36 21 69 25 34 24 27 1 246 5 197 155 39 97 44 18 140 84 11 38 209 4 177 197 17 83 5 32 18 27 39 87 61 52 227 62 52 204 3 19 7 100 6 188 240 18 124 22 54 254 200 47 161 27 36 141 45 34 38 132 37 167 103 42 102 51 33 106 58 4 135 247 41 154 115 1 72 113 16 35 19 0 81 160 51 81 199 32 21 110 28 223 212 3 196 62 54 231 197 8 72 95 55 172 168 34 117 203 52 47 28 15 255 109 55 151 131 6 74 98 52 42 39 48 142 14 7 89 86 4 87 2 4 143 120 12 191 167 31 97 166 3 117 61 17 156 135 36 100 177 38 242 63 29 239 152 27 191 239 17 206 126 36 163 61 36 215 159 3 179 20 25 90 177 30 29 21 53 78 7 14 2 246 37 25 182 13 86 132 52 162 39 34 67 254 16 231 177 15 3 11 11 198 41 4 47 119 9 213 122 17 2 147 7 224 233 29 253 139 2 178 207 1 86 182 32 121 186 17 217 128 5 216 176 22 235 133 45 176 136 23 137 104 50 106 102 44 66 24 55 207 111 46 225 232 53 27 193 39 83 153 7 60 132 39 49 52 53 79 190 13 229 40 5 244 106 51 151 58 52 35 27 43 58 54 43 33 137 28 190 198 53 21 247 41 236 71 54 116 44 4 129 32 44 22 183 15 19 218 41 119 21 12 243 54 27 222 244 20 177 9 18 69 245 10 114 105 49 35 234 37 9 0 37 173 20 21 122 139 39 177 126 52 34 92 34 174 13 22 113 82 55 190 196 45 208 231 38 218 241 9 43 158 33 168 24 37 70 201 0 155 235 14 202 154 10 15 11 31 137 201 49 248 154 29 111 116 45 220 
160 6 179 72 12 116 142 53 53 41 14 11 244 34 107 3 28 74 140 47 132 132 41 204 244 43 101 208 31 195 131 15 8 247 40 62 45 6 18 56 16 255 163 36 182 237 23 88 114 51 148 62 16 219 163 28 236 102 20 151 110 16 183 172 23 118 191 20 126 190 12 21 116 32 213 204 45 137 96 7 64 60 21 131 40 33 75 192 47 7 119 22 148 237 2 164 108 41 171 129 40 224 86 36 76 223 9 92 31 41 90 162 37 201 238 38 119 245 30 200 137 29 127 45 50 165 217 6 120 185 15 9 5 5 89 98 44 30 188 11 175 133 54 160 252 4 206 196 1 36 68 51 58 233 0 199 97 25 65 107 34 40 196 40 143 226 2 77 145 46 233 50 27 165 0 8 3 36 20 79 94 0 144 37 50 91 102 3 84 142 14 37 30 35 176 107 5 64 84 15 50 249 33 224 252 41 19 75 45 67 220 51 56 55 40 112 139 22 146 177 45 22 97 51 4 161 30 183 211 26 77 179 52 116 198 16 205 10 20 38 66 8 163 178 15 126 69 43 126 91 28 228 95 37 217 23 38 236 100 17 106 216 4 61 165 42 9 203 52 209 110 54 229 236 33 213 106 22 253 78 25 176 40 24 20 20 31 217 127 19 63 188 43 120 197 24 100 150 43 22 124 33 211 81 29 209 78 15 130 254 54 120 18 22 201 235 26 122 42 9 65 162 53 109 6 42 112 29 49 25 240 45 140 193 14 110 68 53 59 188 19 115 134 54 249 0 25 167 65 52 105 174 38 171 31 29 168 56 50 107 196 2 196 50 35 153 110 55 191 225 28 52 218 18 168 129 34 46 234 35 159 149 2 59 62 1 122 169 17 191 109 45 33 6 40 115 197 54 134 250 47 222 162 17 242 208 42 140 111 20 38 171 2 1 37 24 139 228 33 52 5 30 21 120 36 187 254 33 147 220 35 217 206 29 0 90 13 1 128 13 131 130 8 239 13 21 241 66 9 49 87 38 26 18 6 112 165 52 204 126 17 238 126 15 9 127 50 199 2 10 84 242 44 81 227 42 249 21 20 198 47 3 119 160 14 45 108 3 91 90 42 136 100 32 145 43 24 104 127 42 154 209 52 77 202 40 129 145 13 195 8 20 71 54 20 35 145 33 17 25 19 164 170 31 182 19 10 71 173 26 87 250 19 105 124 53 110 63 38 86 135 23 83 170 45 127 187 38 76 95 0 133 22 42 24 93 29 16 180 19 50 29 21 212 139 41 71 225 17 133 52 40 83 180 2 42 0 53 55 133 28 214 157 10 142 173 15 240 224 43 102 180 33 137 252 52 166 129 14 64 
212 42 25 255 14 121 54 38 131 12 43 72 154 49 108 139 30 167 241 38 62 122 43 138 32 47 243 96 32 231 121 52 189 242 27 200 117 18 134 189 6 69 42 33 136 209 44 105 15 53 248 153 47 102 140 23 137 116 32 168 49 49 72 249 44 189 128 17 48 197 7 218 77 41 145 183 26 226 175 9 190 21 19 139 159 55 210 71 51 57 144 29 1 77 30 67 125 14 119 88 3 32 233 25 135 203 0 24 137 31 122 20 12 236 230 19 247 31 11 142 33 35 154 100 0 215 219 5 13 251 21 196 131 30 63 155 49 8 22 10 136 2 6 183 249 12 252 135 52 223 33 29 10 248 33 197 6 52 205 202 31 83 9 34 48 18 14 247 154 12 136 82 38 163 78 7 209 45 6 230 56 0 26 253 0 111 203 54 40 30 48 188 78 42 75 69 28 94 206 6 12 113 8 208 66 46 150 40 36 85 66 36 155 177 33 3 217 28 100 149 26 202 225 49 251 63 54 53 75 36 129 27 21 103 177 40 160 6 8 38 161 19 218 165 44 198 9 6 176 211 11 100 206 36 55 3 11 88 132 38 190 236 41 243 140 42 152 178 8 128 141 26 145 83 39 228 3 32 232 104 19 198 159 34 58 247 45 142 181 42 34 168 14 0 65 42 250 193 12 164 82 49 85 54 45 167 31 16 158 229 8 158 31 47 113 174 38 19 208 52 185 208 12 227 202 37 249 111 55 155 196 41 239 107 16 209 9 23 6 167 36 62 24 28 223 44 18 30 229 18 85 200 34 65 193 13 213 92 36 171 75 40 66 28 11 43 34 52 75 97 43 138 64 43 175 94 15 243 179 4 229 244 36 167 202 29 57 117 49 150 183 53 98 226 33 242 46 4 237 184 37 241 103 13 156 90 35 96 63 15 79 230 43 36 32 37 192 182 34 30 25 1 215 11 20 220 249 26 254 234 10 66 135 26 231 231 12 204 54 4 15 90 42 6 27 50 242 57 25 167 16 18 210 237 13 179 235 46 119 45 1 105 20 16 20 224 39 38 239 37 146 246 32 62 232 43 209 143 44 131 97 12 236 21 1 110 140 44 252 246 17 130 10 13 243 48 45 235 194 21 202 1 51 224 210 27 80 85 10 219 66 12 159 176 25 115 172 45 53 47 27 225 34 21 187 14 13 168 216 0 118 184 25 51 8 19 230 227 16 129 130 26 171 246 27 55 43 31 216 12 38 6 199 25 41 112 31 87 230 55 180 25 48 212 255 40 245 128 20 232 43 46 49 99 44 187 59 15 246 65 4 222 107 11 244 194 51 45 118 41 116 75 42 148 64 49 108 41 33 76 
90 29 16 21 8 87 12 51 147 234 45 251 222 48 111 12 10 170 128 24 86 20 35 231 128 12 146 205 53 59 221 23 101 52 4 186 200 48 114 195 34 101 50 41 154 220 21 58 50 5 156 26 34 117 172 26 152 231 23 252 76 45 137 6 9 112 120 1 109 222 52 117 120 6 104 179 35 57 79 29 22 196 47 115 93 19 229 89 19 216 227 39 151 83 22 52 192 30 6 54 20 159 158 45 252 215 32 138 237 55 245 96 28 147 70 25 74 30 2 174 181 13 249 234 9 144 240 49 46 143 55 69 139 21 57 22 12 166 11 9 198 158 26 54 233 0 106 151 54 251 144 27 229 32 53 179 79 37 212 148 13 181 205 40 205 116 46 130 58 34 15 112 48 136 218 49 98 213 16 130 187 8 192 110 49 180 66 48 145 247 4 95 196 9 188 71 37 164 86 48 163 222 40 173 65 43 85 195 48 231 132 3 15 56 49 200 201 51 161 40 19 201 228 31 133 137 14 14 44 4 12 217 11 68 46 4 236 21 23 111 37 51 200 237 43 219 142 13 93 87 21 32 220 10 219 234 19 91 246 55 33 58 24 62 39 30 57 150 36 117 94 17 116 58 6 248 151 12 179 183 11 56 147 47 230 238 17 120 15 0 147 77 2 218 134 33 250 251 40 72 112 38 172 104 48 53 27 31 171 84 39 175 58 50 10 178 24 65 69 55 99 31 37 123 25 35 205 97 55 71 14 7 87 67 23 197 239 34 110 158 54 173 169 32 164 234 18 46 77 31 166 200 54 46 150 15 3 221 25 94 52 23 181 249 34 124 103 41 171 21 40 246 185 9 148 232 27 109 142 49 247 188 49 199 191 55 181 30 4 189 211 32 38 80 10 157 251 25 87 241 54 1 134 48 73 243 32 58 234 38 21 177 27 62 103 2 48 36 0 183 74 20 28 231 36 180 62 31 70 63 9 64 136 23 78 194 50 22 216 36 198 22 14 5 70 5 0 254 41 186 26 35 147 206 50 63 21 48 59 85 0 50 163 16 27 186 35 138 128 51 236 133 17 57 133 24 55 64 14 156 211 48 37 18 30 248 77 27 178 127 8 170 155 52 226 37 38 163 18 54 38 75 28 129 130 25 242 30 49 170 67 12 96 59 6 48 237 51 207 151 11 130 122 46 139 29 27 55 67 13 157 196 16 131 182 18 239 97 8 225 193 43 18 242 30 23 193 3 45 67 51 145 206 21 116 5 10 242 162 53 149 38 17 75 21 31 75 246 48 206 9 26 110 32 52 82 77 45 112 222 48 124 82 39 31 68 28 60 218 7 118 37 5 243 112 18 52 62 33 43 
173 50 132 255 2 158 111 31 170 235 6 119 10 24 135 70 5 102 188 55 75 175 36 210 227 20 127 15 51 65 147 24 250 49 39 188 219 14 158 82 34 206 217 12 220 64 51 60 139 47 225 93 39 96 220 42 4 29 17 25 24 12 108 212 37 108 115 32 107 65 42 217 29 28 51 89 4 152 59 7 67 155 20 170 160 16 193 185 13 188 37 29 197 145 18 98 252 21 47 213 38 216 9 51 210 161 36 166 228 15 186 142 27 89 80 35 85 12 20 45 209 1 35 51 2 48 99 46 18 59 51 103 13 20 253 180 21 176 110 9 189 200 0 4 29 48 231 75 28 106 110 13 166 158 1 7 177 44 249 24 47 231 22 36 171 198 40 119 131 7 229 136 55 54 111 4 22 218 55 70 128 5 130 136 12 144 129 37 209 105 29 117 20 27 84 139 50 64 112 53 225 167 5 240 189 45 199 4 23 187 134 15 251 22 7 168 231 41 244 92 50 241 176 14 7 241 49 50 210 50 36 194 41 154 137 30 151 68 42 4 63 17 75 232 39 19 220 55 98 206 19 51 213 36 109 7 29 187 44 7 149 198 33 223 93 10 208 98 6 126 173 38 49 192 54 106 35 34 185 86 32 240 196 5 132 127 37 200 20 49 253 243 23 4 195 20 205 66 30 31 115 28 181 221 4 139 150 7 73 135 46 228 11 18 76 211 17 138 208 38 207 212 17 64 161 37 119 192 15 11 117 34 2 1 55 166 74 29 10 46 28 146 123 39 112 5 2 18 212 26 51 20 46 105 139 39 147 150 31 128 152 53 175 62 6 81 73 8 208 219 39 229 75 2 130 93 15 41 144 43 164 250 7 238 141 42 13 13 0 204 188 49 76 13 47 65 221 16 55 194 43 119 68 6 230 110 3 208 18 12 191 0 54 130 13 19 89 218 16 187 38 44 180 103 25 69 158 54 20 21 48 45 252 21 32 204 27 95 140 53 250 14 37 38 104 27 76 35 5 255 215 3 191 28 2 59 49 48 196 94 53 42 126 9 83 221 46 192 216 50 155 254 24 136 75 16 117 74 12 112 10 51 69 69 16 64 10 49 162 52 15 162 135 21 184 71 51 201 226 35 167 106 25 17 224 20 138 80 39 106 150 25 110 214 6 74 121 24 66 27 5 107 211 36 242 157 44 247 68 38 218 86 1 149 224 25 79 74 9 83 185 15 162 3 14 251 69 23 154 176 2 66 162 6 31 153 3 132 116 47 48 9 37 190 88 37 183 172 24 144 78 33 186 74 20 121 228 41 15 38 49 30 70 27 73 202 52 71 250 24 226 184 18 193 112 42 247 0 6 12 
186 45 108 52 15 133 67 19 161 98 25 2 171 23 19 242 9 198 212 51 19 149 36 211 140 4 157 153 36 192 5 31 142 139 3 171 44 22 18 47 40 93 66 43 207 9 37 134 28 25 8 239 23 131 141 11 183 77 28 91 219 26 0 135 21 95 153 49 242 247 8 200 198 3 1 76 28 228 84 0 186 216 23 99 143 4 162 235 41 110 235 29 210 74 36 60 60 21 49 4 20 83 5 10 163 234 47 54 164 35 210 7 43 138 170 35 50 24 54 102 234 9 232 39 3 69 88 23 41 171 35 166 79 25 27 133 43 85 88 47 220 226 14 184 20 24 107 123 48 174 99 27 220 168 42 245 209 2 88 119 14 247 146 13 155 232 26 68 196 2 215 124 5 14 232 17 76 150 12 53 115 7 53 104 39 32 193 32 50 184 8 157 83 26 179 151 42 24 110 31 2 124 27 69 201 19 106 254 10 163 51 53 88 84 45 111 134 14 47 35 55 191 214 42 199 238 34 98 241 0 228 54 29 43 160 6 239 67 44 154 155 31 220 11 11 145 58 10 175 249 45 141 193 20 36 35 10 15 7 3 145 51 41 129 34 17 238 188 29 36 153 48 88 42 11 192 217 53 123 103 39 189 139 16 35 154 11 95 43 34 137 173 37 165 155 55 246 192 12 232 24 13 29 216 39 237 84 25 201 17 0 222 52 27 237 147 14 189 29 33 176 194 54 171 184 26 216 160 50 40 189 42 52 171 19 217 116 31 168 82 8 81 64 5 97 253 0 253 174 45 51 89 15 148 49 8 163 89 24 77 141 22 183 102 49 57 15 45 148 96 23 67 194 23 4 191 45 249 242 27 129 134 20 39 41 45 142 118 31 174 45 4 111 103 19 237 251 42 22 63 42 179 67 20 162 60 3 210 189 29 255 228 20 218 115 29 14 33 28 115 144 49 50 125 8 127 147 36 50 70 35 244 233 54 22 187 2 251 186 15 158 148 4 52 162 23 80 21 8 149 72 1 81 199 30 59 249 50 139 237 48 215 3 17 98 254 52 48 157 14 58 209 42 2 33 28 174 182 2 205 8 50 13 67 9 222 206 50 45 166 31 15 8 50 55 57 17 73 115 30 21 117 23 156 35 40 182 240 30 115 254 46 69 220 25 95 9 32 64 24 30 26 80 38 225 153 39 171 174 19 116 74 48 218 1 36 17 116 28 105 185 50 120 24 15 142 88 8 232 114 41 16 83 17 222 254 50 180 115 24 196 77 51 71 95 4 63 200 32 91 64 1 104 207 41 114 183 9 89 199 35 74 165 54 83 89 44 172 29 47 158 100 53 62 164 12 41 255 44 21 
103 13 117 218 20 142 51 3 191 125 10 72 208 55 67 124 48 145 26 14 222 89 26 157 130 46 170 152 14 22 13 53 75 156 31 192 91 19 4 164 8 255 231 9 193 121 13 40 87 24 232 244 25 198 159 51 9 181 51 239 0 17 213 192 13 35 196 40 74 195 36 165 132 20 126 172 45 39 149 44 76 91 48 140 100 15 37 84 53 65 41 21 244 76 46 181 151 34 18 60 46 203 186 2 39 225 47 107 46 28 40 186 31 60 224 52 69 33 24 236 21 33 73 203 46 167 221 53 197 168 17 167 208 28 77 59 37 120 100 43 79 160 30 187 229 30 130 210 55 174 27 44 46 194 39 216 135 53 206 47 53 91 124 21 36 244 17 168 67 13 14 254 13 161 129 35 239 47 53 29 94 48 108 54 43 209 4 10 0 95 41 13 131 54 195 44 50 72 58 22 9 219 20 46 203 21 244 232 5 159 85 11 28 38 25 180 38 13 15 52 36 242 247 15 3 63 19 145 73 13 20 119 41 218 107 4 158 10 44 228 38 49 89 219 31 44 234 46 53 220 2 66 224 49 174 113 40 157 133 33 185 95 25 14 254 12 63 226 31 59 59 5 32 103 40 89 156 51 185 222 47 63 140 55 249 41 1 170 226 6 154 241 22 212 48 52 133 108 46 161 140 9 200 229 48 22 158 20 62 221 50 81 214 46 65 128 23 16 27 18 81 239 11 24 116 43 62 21 23 98 222 35 104 244 1 169 50 31 81 132 37 149 197 27 183 213 12 101 39 15 60 63 54 246 125 2 161 223 7 125 71 5 196 240 41 152 65 44 81 214 8 168 141 21 221 242 10 233 46 49 117 37 16 28 198 29 178 67 44 188 8 35 219 160 51 217 241 28 202 153 26 238 119 23 150 96 25 3 213 40 70 241 29 175 163 11 88 95 23 125 58 39 130 19 15 205 222 16 9 204 49 133 99 8 216 102 16 183 172 29 137 92 46 137 180 9 174 49 16 153 179 3 200 129 6 255 138 20 214 15 9 158 231 4 0 159 10 216 40 55 17 177 43 30 95 47 29 248 24 190 193 20 191 192 29 250 151 15 72 53 6 117 53 30 110 14 21 202 31 5 140 61 38 251 90 45 198 25 13 69 216 46 246 210 15 90 26 30 63 143 11 174 253 49 44 199 23 146 84 46 151 79 11 196 22 30 162 91 15 223 81 23 21 171 1 11 234 35 194 152 51 16 197 40 148 87 8 77 239 20 20 179 43 250 86 49 29 53 45 155 74 6 50 86 42 161 24 20 226 41 45 62 189 34 41 10 1 17 30 8 193 24 20 197 53 42 25 209 47 130 
3 10 71 165 0 94 135 32 32 197 25 204 238 30 17 0 0 27 193 38 125 135 22 205 160 20 209 34 45 43 106 0 187 200 5 149 232 5 197 180 34 13 198 1 127 225 1 173 94 42 230 44 17 60 253 25 171 41 44 79 228 46 196 121 22 60 62 30 90 75 2 255 202 40 105 120 50 194 94 32 27 154 36 54 69 10 215 148 35 25 88 7 125 149 16 75 239 46 225 238 49 95 87 4 145 26 44 138 53 50 100 107 36 156 67 50 1 92 14 99 217 39 238 36 28 93 5 27 69 100 41 107 245 32 220 127 2 24 227 48 204 128 11 222 129 22 139 228 50 125 210 51 3 47 55 226 116 28 86 223 0 185 187 54 10 212 21 179 160 49 117 127 1 109 10 26 209 135 6 119 138 16 122 109 23 85 195 11 85 125 26 89 135 45 194 58 33 32 176 42 253 29 41 190 238 51 255 102 50 193 224 52 103 53 25 223 138 53 134 228 18 161 166 33 155 198 44 81 195 52 218 130 49 4 129 16 173 67 30 96 170 46 154 138 51 95 16 38 144 178 26 133 77 48 247 158 30 241 121 17 37 125 19 9 43 21 10 139 8 250 38 50 80 133 12 134 21 13 242 155 7 232 146 4 194 131 51 66 168 52 136 177 49 145 188 12 29 182 48 42 7 6 122 141 11 116 127 16 249 103 3 142 41 46 213 107 49 105 243 42 156 133 19 72 162 15 114 204 30 198 70 37 166 186 10 172 179 18 55 65 9 216 22 51 19 128 54 225 28 18 51 101 15 45 215 9 216 157 45 64 68 35 94 240 13 131 40 33 53 0 34 103 19 25 1 245 49 196 40 45 242 85 50 20 45 1 187 109 7 4 203 3 25 78 51 116 132 19 138 235 51 83 236 23 93 176 20 126 163 36 31 183 25 221 115 6 255 119 36 249 145 15 144 5 38 107 143 42 54 226 45 42 64 42 29 190 26 36 222 37 32 187 53 68 186 32 189 179 7 100 67 24 120 174 22 87 229 37 133 15 8 55 44 8 213 81 6 95 113 20 153 182 39 119 115 42 12 215 29 20 79 9 147 167 7 164 44 20 186 100 11 95 57 16 231 152 17 175 49 2 54 168 8 154 180 4 186 200 19 148 92 51 33 0 10 242 186 6 114 25 26 214 1 27 74 176 51 234 230 29 219 129 37 61 59 18 86 207 42 226 240 6 69 227 14 248 85 48 82 43 2 217 117 27 195 95 27 231 58 10 162 120 51 143 206 6 37 176 29 111 245 37 129 238 24 240 64 37 94 25 1 135 221 38 201 196 38 12 102 16 255 246 0 217 27 14 52 138 30 202 
11 52 47 251 34 133 90 10 189 225 4 75 170 25 4 182 29 50 181 11 192 143 1 137 195 36 201 142 6 216 189 50 150 66 21 74 0 31 236 75 16 207 79 18 203 129 8 164 66 54 65 203 37 68 148 24 62 108 6 82 3 28 241 77 38 155 58 6 64 9 9 64 212 48 32 120 10 171 185 52 235 253 55 225 59 27 102 142 16 175 127 19 133 26 32 25 90 34 240 154 19 198 187 7 232 102 47 88 81 0 74 51 46 126 153 17 125 72 47 17 206 14 17 231 24 20 215 43 100 158 29 239 134 0 130 222 30 234 41 16 201 167 51 98 37 44 248 54 37 201 71 35 41 91 18 7 191 2 0 174 0 83 49 22 64 27 4 233 228 53 247 70 53 87 62 42 234 8 48 23 49 55 140 56 42 207 56 25 249 139 40 251 204 17 155 181 52 193 172 32 198 4 15 243 238 5 200 5 5 194 145 6 242 96 7 105 90 47 59 85 27 205 241 31 13 178 4 126 120 0 10 108 12 122 52 43 49 247 24 39 233 10 36 83 2 83 142 4 186 91 50 89 104 19 132 230 21 123 240 30 39 107 42 128 156 54 220 195 37 39 232 23 120 59 10 90 245 24 156 78 52 57 211 28 43 78 3 14 118 35 163 246 6 177 210 43 43 250 6 218 114 14 127 204 33 14 104 22 240 161 5 97 204 32 45 218 6 97 126 4 124 47 10 136 91 37 254 53 39 17 180 41 232 195 37 166 179 29 160 20 7 142 65 19 203 163 14 219 31 52 58 167 27 14 166 6 217 183 43 118 159 48 13 70 3 22 230 30 235 116 11 40 64 12 7 27 31 179 85 31 57 100 30 61 61 36 112 179 20 255 192 43 194 214 49 58 193 55 117 233 28 100 241 28 103 164 55 171 221 21 147 26 9 154 138 6 72 137 17 157 76 9 169 134 7 84 252 8 70 96 49 29 199 2 105 114 6 245 5 19 157 159 37 154 232 16 251 133 17 153 46 53 234 130 20 251 200 16 226 230 0 138 79 55 27 69 33 158 226 55 196 124 22 200 119 22 229 16 3 141 250 17 191 245 4 60 215 12 64 97 42 64 124 34 160 26 31 199 223 17 97 167 53 0 140 36 62 26 12 101 217 14 16 21 19 234 86 50 70 150 43 106 55 31 117 254 34 207 95 41 110 95 40 239 158 28 236 3 6 96 19 7 228 253 37 98 67 35 213 174 41 31 35 16 202 242 39 241 96 30 51 79 6 84 59 12 28 155 31 113 127 50 223 225 16 39 182 11 132 213 25 55 159 12 128 144 22 1 196 54 128 24 45 94 53 0 156 166 27 120 
133 26 87 172 51 74 48 49 58 103 14 109 232 45 79 233 30 83 105 2 74 199 2 160 100 55 70 220 5 38 52 43 162 126 31 156 184 8 120 37 7 9 116 15 112 200 48 117 18 1 11 178 17 101 248 45 216 31 25 127 193 45 205 93 43 160 213 19 31 223 9 207 79 13 231 196 29 230 208 23 207 53 34 32 13 50 57 141 17 182 90 42 16 250 0 157 25 37 169 233 20 108 208 3 85 182 32 179 133 8 216 166 45 16 223 19 250 150 40 220 166 2 222 67 28 160 236 13 192 89 46 182 174 38 138 97 45 174 58 42 150 74 32 78 68 16 59 32 22 54 254 20 190 159 55 160 95 44 124 21 45 114 160 27 80 78 29 255 228 55 100 50 41 78 109 37 223 164 21 79 98 12 85 3 35 1 127 34 240 241 48 204 66 24 1 65 38 229 165 34 42 243 36 169 210 17 114 33 53 127 118 16 172 119 43 216 104 10 163 52 12 206 54 38 14 27 55 238 69 52 28 238 39 46 96 26 114 223 51 35 139 42 121 100 17 49 7 1 236 213 22 38 227 12 82 209 55 192 237 36 111 27 26 195 141 34 11 177 17 37 42 4 96 91 40 18 71 0 60 109 5 205 192 17 147 128 2 143 240 40 166 179 51 2 190 1 76 227 2 246 68 12 127 86 15 148 146 14 12 96 19 140 243 51 226 131 52 27 41 4 37 44 55 29 120 6 49 111 49 210 238 13 36 130 52 160 143 54 119 27 46 149 253 10 32 24 13 108 62 38 56 91 50 244 140 19 99 94 34 145 130 24 163 34 11 248 153 2 164 46 29 227 79 11 129 187 19 19 243 41 40 231 5 103 74 17 209 220 8 180 127 50 6 119 13 71 28 38 10 255 53 92 128 20 201 148 7 52 188 34 184 35 49 121 245 35 150 169 39 64 176 14 72 247 54 210 1 2 127 93 9 198 38 49 59 91 37 255 19 26 126 140 37 240 35 26 73 99 52 236 171 20 108 125 11 106 253 20 224 195 33 114 254 39 3 253 34 21 123 21 186 107 42 28 180 13 162 160 24 28 12 11 64 119 8 20 87 5 223 202 48 171 205 22 212 226 3 36 157 54 206 185 9 140 91 45 214 120 30 67 184 26 19 205 9 142 172 1 134 88 3 124 44 48 52 80 51 235 31 16 158 171 9 205 129 29 102 196 53 180 215 37 162 101 42 156 235 47 14 103 55 215 156 19 106 135 4 202 37 43 13 242 6 237 89 15 135 13 43 124 175 26 233 75 47 14 89 42 1 48 2 160 154 30 151 101 21 186 114 34 46 96 53 193 231 30 255 99 11 190 
76 50 65 90 21 155 91 31 90 251 23 5 146 26 23 77 47 197 123 9 250 61 25 84 60 24 161 251 43 71 60 55 250 216 10 92 50 5 10 55 33 17 78 19 72 19 24 26 13 12 81 98 9 251 3 21 4 75 48 245 69 21 72 162 5 232 172 47 226 189 7 55 5 13 136 32 25 108 113 46 156 108 16 72 113 28 49 102 55 87 174 36 119 150 22 212 120 34 9 176 31 113 56 37 16 164 37 253 65 30 254 137 43 13 187 44 125 18 26 241 137 8 176 94 39 181 103 47 91 216 23 174 232 24 189 230 44 210 228 5 7 241 47 174 111 10 193 96 52 69 17 53 47 198 35 199 33 27 246 207 19 158 141 4 245 95 10 133 103 46 186 21 32 47 214 55 46 27 39 232 74 0 180 17 14 10 8 48 189 166 7 216 155 52 204 33 20 168 219 3 106 10 32 16 57 22 168 33 17 175 214 43 23 224 20 143 157 4 206 118 10 46 66 22 93 234 47 26 84 18 54 100 20 185 13 5 81 188 7 191 211 21 72 99 45 27 49 26 255 95 8 236 188 50 126 214 12 172 12 48 251 197 5 37 22 42 90 213 14 199 29 2 86 56 21 187 56 14 0 36 13 227 162 25 59 79 32 214 74 36 90 112 2 51 202 16 112 145 14 186 232 11 192 163 12 154 164 44 215 135 16 69 194 18 18 152 33 156 243 52 252 38 4 104 150 6 154 80 23 227 16 15 1 171 35 60 130 23 176 200 38 92 218 0 44 118 17 159 114 44 96 219 2 108 117 8 232 88 32 46 89 16 6 150 35 197 70 38 40 163 22 47 207 0 189 110 39 14 207 41 247 59 44 211 36 34 213 82 42 109 88 36 85 30 2 77 70 32 241 118 43 23 51 27 5 65 9 205 56 40 12 11 4 190 224 40 74 77 26 76 162 3 167 240 41 91 225 31 165 248 13 53 253 9 105 202 42 108 215 51 221 149 46 30 223 15 154 44 36 58 211 15 44 46 7 119 211 8 224 8 8 144 113 5 181 221 23 14 187 6 169 217 35 124 115 27 90 173 31 25 217 18 38 81 8 213 49 43 116 193 3 244 119 13 108 133 26 225 46 13 32 170 38 55 5 9 226 30 46 109 68 24 36 25 25 174 141 50 102 129 4 241 237 27 133 206 24 138 239 31 108 38 49 10 8 14 128 118 53 106 154 17 0 73 51 112 175 32 49 161 10 36 38 47 216 176 22 3 28 13 179 38 43 146 167 43 28 17 1 170 17 4 87 130 37 73 179 12 84 215 13 236 175 27 6 178 11 14 102 16 228 248 14 169 20 13 148 191 38 135 
22 8 241 95 2 245 179 29 66 160 13 62 166 12 220 180 39 159 152 5 19 65 37 163 213 2 89 93 9 183 78 55 37 67 47 165 133 2 167 195 10 93 159 25 234 63 5 38 82 30 21 245 55 106 78 53 184 5 50 26 43 48 59 208 35 114 120 8 9 213 3 84 191 51 62 229 18 207 251 4 21 101 33 243 29 7 18 55 53 7 114 8 89 229 24 249 238 16 220 66 29 68 129 4 112 80 26 59 101 5 69 88 2 161 107 40 242 114 7 145 204 26 54 197 39 6 162 5 167 230 0 191 86 41 173 145 17 89 214 15 235 119 47 120 105 34 107 251 21 123 49 33 194 56 30 124 223 8 27 158 55 169 75 21 121 165 39 202 144 13 107 9 5 114 116 30 210 239 25 156 177 27 217 46 43 226 73 42 177 242 8 33 107 44 120 53 9 38 161 1 101 19 10 122 229 38 7 130 53 254 91 7 239 62 37 18 239 54 109 16 25 167 137 28 128 175 50 164 20 51 109 142 14 198 150 4 41 148 22 255 131 33 197 150 15 60 3 14 225 171 47 207 43 32 176 207 55 253 60 3 127 2 41 162 43 7 216 43 27 244 240 55 146 44 21 140 13 32 195 220 19 234 141 46 33 138 29 225 9 17 80 171 28 211 131 39 228 120 50 140 10 26 199 150 46 134 90 19 219 68 40 52 101 21 55 70 47 102 150 40 99 105 51 157 77 22 217 217 54 64 161 1 211 39 47 85 3 1 4 55 53 191 110 42 87 212 40 124 56 6 43 213 23 227 174 37 70 238 22 45 193 7 139 23 47 244 27 34 244 218 41 77 50 31 235 174 36 237 218 44 54 189 1 20 4 47 92 49 21 241 188 7 95 177 38 111 165 25 166 242 51 224 221 45 81 203 12 48 1 14 228 21 3 208 113 31 145 98 32 0 194 37 94 49 54 125 215 51 179 183 13 4 8 19 47 56 14 141 29 39 153 237 28 127 127 46 34 127 16 202 221 2 162 90 51 55 13 10 125 17 41 104 65 41 70 206 26 1 103 47 135 230 4 14 8 27 170 210 19 184 117 16 41 172 51 91 42 48 191 146 18 249 216 11 235 217 41 228 96 24 22 110 54 101 25 22 162 209 1 93 250 22 152 86 10 177 21 28 36 14 7 164 249 39 54 222 17 9 244 41 170 90 8 178 252 1 160 89 10 151 242 53 96 163 3 158 199 8 136 107 22 157 162 32 68 171 46 195 86 10 28 8 36 214 169 48 254 64 2 63 160 28 81 62 15 94 198 54 193 99 41 57 167 3 192 107 39 64 135 5 158 93 21 240 91 14 157 154 38 69 
236 6 71 74 52 59 12 19 210 69 46 48 5 14 250 69 41 101 227 8 124 212 38 233 113 9 95 182 20 125 254 40 220 57 50 218 12 22 23 60 20 26 54 9 128 156 23 142 24 18 7 2 6 8 97 39 102 222 22 31 186 12 115 149 37 179 172 1 62 198 14 212 70 28 176 213 48 146 220 1 185 228 3 195 74 44 162 106 26 241 221 45 247 145 34 251 207 46 57 163 44 130 84 2 8 230 7 197 159 12 29 98 24 142 4 27 1 246 53 213 237 26 136 233 43 245 34 26 247 164 38 165 173 2 25 114 24 211 143 15 99 30 17 207 31 54 31 245 36 186 125 9 191 114 2 162 105 36 21 14 17 88 39 22 62 250 0 120 93 7 152 44 45 87 76 21 120 6 2 158 198 55 186 104 1 196 125 10 182 213 16 203 19 7 132 139 25 234 35 23 194 122 35 41 243 31 175 145 38 84 76 4 238 16 44 5 198 17 142 145 31 128 21 42 128 255 6 167 193 33 200 235 52 71 154 39 243 238 48 234 220 44 232 225 20 172 111 11 216 239 20 130 111 10 1 22 17 147 222 51 177 38 22 243 25 16 175 3 54 94 236 10 158 152 11 43 113 10 199 243 33 42 244 40 31 135 6 41 57 12 50 44 26 253 219 11 179 57 55 3 215 51 65 2 19 91 202 44 86 244 31 192 19 11 25 60 11 225 111 36 191 108 48 124 32 43 94 35 4 90 101 19 89 192 22 68 23 16 199 215 52 188 241 24 163 210 52 127 146 43 226 14 32 126 108 40 70 198 11 233 31 0 197 99 1 120 43 40 46 231 39 174 138 48 35 9 35 171 235 5 111 105 27 163 175 55 67 152 46 3 93 37 230 214 9 47 4 36 56 179 51 88 214 13 79 129 47 56 240 50 243 147 44 64 214 3 155 217 44 98 192 25 240 239 39 158 39 20 175 127 39 235 206 37 14 6 6 187 249 14 114 57 34 21 212 24 33 55 42 220 39 10 48 197 25 226 116 16 105 95 39 245 109 29 52 41 52 73 155 29 223 176 47 102 209 35 128 174 18 112 222 26 58 192 39 196 42 52 61 31 27 221 84 17 252 157 34 234 125 53 222 227 14 203 99 39 242 211 21 238 14 4 32 210 36 122 16 6 154 237 14 46 234 42 33 212 55 130 178 4 12 125 39 50 112 26 8 94 46 175 126 12 5 249 30 57 147 14 45 193 36 76 226 46 138 101 18 28 113 20 75 163 49 248 171 41 135 91 47 122 96 14 64 153 7 20 198 10 186 18 19 113 156 45 21 184 34 163 4 20 5 252 55 25 131 43 170 253 22 172 
61 38 11 81 39 233 12 5 192 125 0 42 146 36 85 53 13 99 58 17 213 83 37 185 253 0 65 169 30 116 181 19 2 158 5 240 95 33 119 137 6 196 223 40 36 66 13 33 23 15 214 209 18 143 18 31 68 134 25 124 136 30 178 120 4 38 239 51 235 179 13 188 216 44 10 249 54 234 207 29 255 94 6 78 162 24 240 30 54 143 209 22 216 247 30 214 226 37 115 158 1 110 168 49 243 146 50 87 145 41 253 223 55 187 207 17 73 94 23 234 55 48 16 13 55 191 128 33 229 239 55 251 226 31 196 58 41 101 55 10 255 242 25 104 60 32 47 38 47 152 54 38 31 245 35 120 219 44 199 214 43 249 154 5 200 255 55 64 254 39 73 102 25 228 149 5 93 45 43 166 76 42 77 196 47 43 140 34 22 133 40 130 77 34 221 141 25 27 215 47 146 187 29 65 24 26 227 190 39 192 11 36 196 54 8 254 77 12 45 207 49 56 173 7 24 200 28 147 90 27 12 156 30 132 127 47 97 63 37 212 3 17 115 1 39 95 47 36 16 103 28 76 127 9 14 18 41 29 31 27 185 163 31 45 4 22 91 216 6 162 76 9 168 171 19 185 187 26 0 8 49 149 22 16 249 51 19 10 236 26 227 25 53 22 117 49 230 23 10 52 191 30 194 120 17 84 121 53 231 14 5 169 7 19 210 17 6 122 244 2 53 10 36 15 240 1 140 37 8 14 231 40 104 59 16 14 34 41 95 203 55 108 157 14 129 24 39 172 77 27 10 93 22 85 233 54 185 247 3 146 95 19 130 109 6 50 205 17 91 57 12 252 187 18 172 103 34 98 114 7 42 199 4 229 128 38 171 18 13 98 148 13 61 199 10 0 34 7 255 30 1 32 202 36 12 45 19 150 87 13 56 60 44 40 232 52 116 74 6 170 135 27 216 136 26 101 135 4 95 167 18 39 179 37 40 74 18 228 130 41 7 170 37 157 31 13 249 201 47 214 161 47 196 6 15 71 102 14 145 141 45 253 181 48 136 153 2 221 160 21 95 61 15 56 55 14 77 13 0 75 209 25 146 25 48 97 170 46 184 168 43 150 48 8 27 13 33 84 108 25 214 164 39 219 241 6 139 60 51 89 207 36 241 48 45 43 233 16 107 127 24 17 155 16 68 239 53 44 197 41 173 161 21 206 44 30 45 133 11 195 119 50 102 162 42 219 13 27 104 30 51 160 98 54 128 142 29 144 59 50 173 9 35 54 55 15 99 250 45 130 97 52 221 60 22 7 164 43 97 69 17 165 197 19 104 86 25 198 3 12 19 58 29 37 157 20 217 31 15 184 
252 24 29 3 36 249 101 16 119 10 45 2 114 51 171 56 33 182 75 12 79 112 46 35 73 28 1 2 27 21 31 32 36 25 43 148 144 8 64 147 50 145 62 52 38 245 36 129 68 31 50 104 32 231 105 1 213 126 35 97 163 27 13 55 52 181 120 20 96 9 31 113 47 14 139 177 3 24 227 7 220 202 39 236 160 0 108 1 7 53 14 34 1 195 17 236 36 33 240 149 18 132 32 42 172 56 27 18 21 22 109 1 9 12 109 49 20 162 10 132 163 49 115 143 28 5 127 16 207 4 37 16 176 14 91 194 38 213 47 19 0 59 44 14 79 33 231 212 12 96 71 15 219 77 15 100 28 30 176 44 42 33 135 10 38 92 44 76 92 35 171 107 15 30 82 54 147 179 10 116 142 2 248 242 7 32 162 11 215 195 7 13 234 55 72 54 11 50 225 16 223 0 19 186 147 45 209 7 0 56 0 6 114 32 40 244 247 19 195 4 54 174 76 16 198 127 31 101 94 8 96 24 8 184 234 35 123 34 35 145 148 3 89 137 11 176 76 2 248 251 46 227 193 51 146 38 50 42 134 32 249 63 16 170 186 18 90 75 36 158 165 25 233 85 26 52 77 6 159 49 17 1 195 50 103 237 8 26 231 55 76 145 22 220 235 40 133 137 28 23 114 1 204 166 6 21 69 27 231 70 12 5 174 31 31 200 29 249 21 20 250 241 29 129 118 8 71 142 2 199 90 20 147 111 19 4 86 8 202 91 31 222 122 5 34 116 13 42 110 42 31 239 28 251 54 26 104 253 40 192 145 10 162 149 1 247 96 39 242 62 3 50 96 21 185 138 33 238 169 15 236 164 38 254 12 52 2 205 26 125 111 27 133 102 0 232 88 48 185 139 30 225 68 39 100 51 9 97 31 51 211 29 31 178 32 20 129 157 25 133 34 32 135 10 23 26 196 23 67 165 42 203 9 39 146 106 34 185 61 49 106 240 30 197 113 30 197 246 35 209 126 54 170 152 0 242 219 28 161 167 49 169 57 26 59 242 21 18 92 10 28 34 34 69 231 19 140 184 18 242 98 40 246 84 0 28 246 52 76 159 19 65 218 44 218 237 22 125 9 34 138 79 4 212 219 27 15 205 3 186 195 5 92 223 42 124 44 48 53 109 47 201 71 9 4 196 30 120 78 16 222 35 15 160 50 10 133 236 7 80 73 11 212 197 34 185 250 46 243 195 19 35 199 43 242 63 47 156 29 54 50 190 41 210 67 3 193 147 39 139 103 32 35 33 6 126 20 0 184 56 36 31 42 51 242 198 43 13 249 8 237 203 46 27 141 25 108 24 53 239 
