P2
 200 100
255
238 254 24 96 27 211 150 225 161 90 105 24 98 177 166 53 240 218 166 53 163 159 15 161 41 205 108 155 171 113 141 153 111 165 250 138 121 144 108 26 234 213 50 76 134 216 130 119 178 40 172 85 199 187 246 240 137 99 139 52 212 25 206 68 190 200 206 55 88 58 81 66 16 131 142 150 91 16 13 13 56 186 99 255 117 89 240 254 188 123 51 145 148 1 213 83 201 163 138 33 222 220 99 238 95 241 132 187 2 146 200 58 76 43 58 193 133 42 192 65 165 243 210 58 244 167 141 189 75 23 222 41 243 65 23 83 50 155 14 52 45 214 111 121 2 169 59 135 211 251 200 120 238 155 178 226 66 63 159 141 87 125 182 74 190 205 157 240 105 171 37 150 130 148 16 132 61 75 11 16 70 211 136 52 110 59 22 177 122 181 62 209 50 245 28 240 194 185 224 43 
101 5 194 231 153 210 107 214 29 118 230 99 73 111 151 184 170 173 105 36 98 167 246 148 156 18 132 95 203 100 138 48 106 76 23 3 30 130 218 59 248 192 158 66 47 53 250 217 226 99 254 68 10 244 216 167 6 92 6 209 193 144 2 43 221 25 46 251 156 8 55 148 201 213 214 248 11 208 210 237 51 208 50 62 196 10 229 202 103 235 155 40 123 157 83 88 183 129 84 83 138 139 231 83 96 190 75 107 142 29 89 194 237 139 0 177 149 229 123 252 208 23 36 75 180 119 164 107 249 248 190 131 131 166 214 227 100 33 79 242 63 168 180 44 51 180 222 200 153 89 197 105 112 233 181 37 97 89 144 90 81 79 221 212 245 179 183 89 212 6 75 19 174 0 64 225 180 30 170 78 119 111 183 232 88 108 13 185 197 157 19 22 236 240 234 225 163 162 58 120 
168 134 139 87 134 203 56 58 233 226 136 97 81 64 73 170 172 86 99 114 243 119 136 224 103 115 193 11 21 252 131 189 130 14 20 8 218 77 66 195 47 203 36 129 11 109 43 183 195 142 41 183 5 178 151 109 37 88 120 58 84 251 247 214 9 12 222 227 89 33 167 136 236 203 9 247 57 52 174 252 195 216 179 200 138 74 53 175 163 173 233 247 168 224 206 178 236 172 149 69 205 60 206 185 8 215 176 65 12 95 61 207 55 241 151 193 59 205 112 222 122 89 214 35 57 164 213 38 80 106 107 30 167 57 215 175 17 136 240 29 231 45 236 30 30 131 223 90 80 79 56 203 168 14 238 225 178 195 7 3 45 115 33 212 172 248 131 189 128 115 218 103 161 198 133 191 74 100 25 154 179 82 101 91 96 83 61 19 22 68 22 68 183 55 24 100 47 156 33 176 
15 252 23 176 194 157 112 12 1 137 167 181 219 12 16 60 96 77 79 118 146 101 186 73 156 211 173 203 111 207 123 126 203 147 47 141 48 159 154 49 40 65 230 4 77 247 64 173 68 143 36 214 244 222 32 144 177 205 91 32 156 215 159 103 106 206 245 154 109 143 203 149 208 178 153 29 169 217 203 237 104 239 196 92 205 228 236 127 177 72 159 78 31 62 181 137 12 170 35 121 57 238 15 9 160 168 39 73 130 242 55 234 225 251 71 174 223 51 45 144 123 205 222 154 11 148 35 24 62 70 145 120 53 160 129 213 73 168 31 203 154 86 181 123 81 252 42 48 48 87 192 171 36 159 70 48 51 105 72 113 176 217 233 229 122 107 186 195 19 217 142 174 47 67 41 128 64 83 176 112 171 113 27 207 16 97 255 67 203 71 180 123 33 158 96 155 9 26 94 28 
244 236 202 35 47 244 164 111 71 84 223 242 197 251 194 213 92 193 24 39 9 205 162 42 107 2 197 116 29 35 144 17 15 91 52 62 79 216 174 150 45 141 137 242 136 75 200 229 12 224 12 21 173 175 63 24 177 4 140 206 39 29 223 54 120 20 117 199 236 35 93 25 176 230 12 57 49 212 30 62 180 42 83 98 217 147 122 139 151 7 89 191 36 57 245 156 77 106 99 57 141 192 83 62 167 95 119 216 51 149 22 231 191 106 73 153 253 196 36 148 203 125 83 239 182 73 139 3 179 238 61 65 174 144 127 85 239 246 46 34 139 68 9 74 174 83 227 171 23 7 64 226 133 147 209 59 220 92 63 144 74 124 209 248 12 80 78 251 70 124 29 209 192 38 27 111 121 255 26 144 6 90 114 139 238 67 199 202 159 6 90 233 130 43 226 142 123 48 137 193 
172 166 146 108 204 174 219 70 173 246 214 179 80 73 63 62 140 6 9 44 12 99 21 142 143 247 28 10 39 165 204 211 75 94 64 23 12 27 93 185 17 52 109 98 125 172 160 9 178 169 53 190 13 75 76 156 66 104 166 106 13 114 61 88 209 125 111 221 153 205 151 170 1 4 12 126 176 173 135 98 86 189 32 99 8 108 255 74 212 166 180 225 24 242 57 233 111 168 199 8 117 94 179 118 98 191 244 18 108 124 116 195 57 148 38 65 0 38 139 212 204 64 181 228 50 238 206 161 150 149 170 12 243 93 130 85 28 119 103 137 243 219 76 44 111 114 109 111 152 248 67 100 56 248 73 106 230 23 12 124 172 182 136 159 19 11 244 47 130 91 184 117 54 4 161 165 119 14 20 15 6 87 116 63 79 189 169 53 212 181 177 128 107 58 31 126 69 19 174 199 
110 102 60 164 107 221 73 226 235 93 241 241 180 101 48 3 34 218 56 246 143 233 118 251 35 149 121 104 168 39 47 22 142 107 186 249 72 3 219 51 96 204 37 20 50 85 23 84 47 79 75 191 57 193 186 92 87 51 197 255 91 244 22 233 96 208 226 168 212 189 220 52 137 1 73 187 86 96 16 134 176 91 69 233 28 255 69 115 50 10 115 141 255 137 118 95 89 88 7 45 21 227 98 159 228 171 90 59 11 106 193 187 197 6 164 226 5 234 85 55 244 200 197 243 81 59 82 171 148 90 216 169 61 58 72 34 229 163 93 241 13 30 172 211 36 81 181 41 59 10 96 47 211 37 35 36 97 117 207 245 207 168 158 13 226 231 47 200 138 140 185 151 170 101 106 206 182 31 247 241 42 87 33 253 125 68 33 222 185 241 211 137 153 113 150 123 88 197 67 226 
81 252 122 251 98 228 201 24 4 192 10 46 23 43 43 148 111 76 114 40 61 69 177 214 183 71 82 15 12 149 242 93 146 108 88 244 80 33 12 84 225 22 130 249 65 173 141 176 250 0 217 55 69 138 14 252 210 96 12 222 245 254 60 135 106 148 123 186 182 136 15 151 158 145 144 224 63 30 144 57 30 105 112 99 244 126 96 198 222 108 164 212 106 224 91 212 117 215 142 43 95 157 194 253 47 83 221 110 113 110 167 143 215 23 242 203 150 82 145 116 190 54 72 40 22 164 252 139 123 139 182 218 40 121 215 87 204 181 197 61 35 108 204 250 132 190 198 26 17 87 142 207 141 215 248 164 123 244 47 246 127 230 208 168 95 167 255 43 92 197 104 127 49 52 122 181 242 64 207 3 151 94 211 37 53 203 201 176 191 248 166 63 222 118 231 61 29 230 104 122 
171 208 249 221 4 115 146 247 179 98 250 75 192 205 112 245 152 57 165 88 49 75 151 16 193 126 77 222 100 182 88 16 134 82 237 139 197 127 130 121 225 124 196 161 74 52 150 226 109 59 58 158 134 209 174 71 79 252 38 180 178 126 196 56 208 177 195 150 48 69 15 18 194 211 179 12 7 74 238 116 133 41 18 12 250 193 83 74 189 121 254 111 248 194 167 200 115 107 94 163 176 109 181 114 64 105 126 71 179 109 187 56 150 206 68 144 143 152 218 76 17 216 187 9 154 98 210 13 205 48 177 126 158 102 240 222 207 111 38 130 220 225 187 114 175 255 2 62 151 221 138 169 181 69 178 80 168 132 93 117 181 14 243 83 117 228 49 68 83 87 199 47 57 130 161 232 129 163 39 25 128 177 194 54 247 116 134 159 249 227 20 174 242 8 1 103 236 50 171 63 
138 114 110 195 244 15 171 118 178 210 143 51 132 81 105 123 197 239 26 190 210 46 108 196 54 109 43 34 160 215 97 42 73 207 237 62 222 152 180 145 107 67 196 239 148 45 106 89 28 132 24 238 178 132 179 233 242 222 11 146 181 109 188 255 60 169 61 27 65 241 172 172 52 112 155 200 157 5 33 185 137 57 167 60 190 90 37 176 57 48 66 238 157 254 237 218 167 42 245 232 27 161 149 79 17 48 23 174 54 57 103 191 114 14 251 48 105 32 224 162 81 34 144 238 32 126 200 199 168 189 176 196 94 69 19 111 117 43 29 171 100 132 107 214 147 102 7 252 135 231 158 216 10 46 198 42 172 143 242 85 76 162 25 171 231 44 26 92 87 56 8 187 188 115 146 79 217 153 75 96 128 233 56 138 24 255 181 196 142 167 25 218 73 50 133 48 95 160 140 182 
216 148 114 148 7 4 228 225 157 47 65 29 25 122 168 49 121 93 245 7 4 15 225 77 65 103 125 160 7 9 87 223 158 201 115 165 205 87 134 106 135 200 135 160 66 47 209 187 140 198 194 144 213 163 221 23 10 90 183 17 100 14 240 2 215 100 167 164 187 46 14 66 246 150 226 56 197 179 243 82 122 181 226 79 88 192 102 99 26 30 116 126 44 101 128 4 201 40 168 132 86 183 199 76 77 169 132 18 93 119 100 215 44 71 38 132 7 141 231 33 171 92 160 215 193 32 219 138 72 132 14 158 59 213 234 136 127 110 154 220 229 255 179 17 70 217 150 77 102 125 110 17 217 14 233 154 47 196 36 119 72 51 22 131 8 0 11 135 111 166 99 84 165 22 102 235 240 252 56 86 121 166 104 83 181 81 237 228 21 18 91 94 69 113 225 77 114 237 213 225 
147 56 53 56 79 155 35 63 151 91 149 17 1 253 100 182 78 81 154 100 99 246 194 168 103 163 246 217 144 203 186 35 3 240 91 82 139 126 145 35 217 39 52 219 36 152 145 115 233 44 215 77 34 153 245 137 60 235 99 205 182 29 240 186 13 76 12 153 202 158 188 164 197 240 127 233 136 16 92 113 60 51 190 94 204 180 232 9 159 75 214 86 104 198 16 118 18 28 15 221 186 203 129 127 187 0 105 67 16 197 180 77 249 115 171 197 39 147 206 198 222 164 28 71 107 44 189 125 73 204 90 3 151 219 131 82 219 236 149 236 177 73 57 170 188 228 112 227 120 62 170 86 227 198 157 78 243 90 203 60 38 38 63 189 1 194 15 221 174 164 201 96 238 2 10 170 230 122 142 94 185 56 181 156 254 82 234 241 173 181 45 211 219 109 145 221 47 160 186 222 
69 131 62 51 133 72 221 107 195 107 202 124 163 127 24 162 209 2 147 126 183 193 82 147 46 227 112 93 131 42 59 200 173 121 251 50 194 217 157 133 68 103 1 232 230 25 138 184 27 29 54 210 222 136 101 12 107 213 106 239 255 165 183 172 31 179 222 225 140 124 102 208 227 103 184 202 128 66 130 155 96 184 109 62 65 211 75 172 168 181 155 168 90 83 84 121 6 51 90 146 175 192 98 146 39 27 92 167 93 222 66 189 151 176 252 216 131 71 132 43 252 32 211 86 115 40 208 121 91 42 11 10 235 109 156 18 136 249 186 230 215 252 163 110 172 159 70 47 230 203 91 226 235 46 57 94 86 9 215 177 51 226 187 30 79 88 49 216 81 235 190 40 231 97 151 148 1 221 195 231 168 30 202 147 77 3 241 163 12 200 85 63 170 16 94 250 104 143 210 185 
122 144 226 97 241 121 245 242 86 185 218 255 215 164 146 36 167 132 200 179 76 29 242 247 45 80 241 150 223 195 79 89 83 49 187 68 170 176 55 1 105 17 0 65 181 146 101 92 22 45 15 99 74 1 90 120 82 75 14 49 14 93 139 97 143 70 165 57 246 220 58 96 237 58 161 162 205 6 254 227 52 13 70 126 15 160 246 97 235 4 146 249 98 29 90 241 99 0 42 90 220 101 186 202 159 91 108 108 97 107 80 149 120 150 20 135 55 10 232 34 15 123 28 113 152 118 98 252 118 140 86 83 241 16 29 145 107 137 253 204 244 77 98 109 228 118 244 27 128 221 61 143 88 89 0 240 208 98 236 70 239 66 153 224 82 182 113 189 64 111 138 52 188 236 161 160 98 150 187 226 115 249 114 203 82 114 187 34 213 168 105 196 234 2 164 61 185 22 250 249 
133 132 45 65 112 207 226 210 101 157 181 216 150 39 163 233 153 94 11 110 6 116 50 241 119 215 46 48 237 40 41 114 173 86 179 29 37 149 240 138 51 165 98 201 204 5 178 101 100 190 212 106 50 6 91 169 221 137 217 202 178 2 60 95 89 240 124 126 133 108 9 184 17 107 130 221 113 52 67 213 242 23 63 37 29 155 206 251 36 168 197 214 170 2 53 3 242 178 130 119 30 139 48 48 246 178 13 103 230 80 60 217 103 124 254 133 23 204 128 59 116 69 18 31 71 71 34 57 249 164 177 24 47 225 72 38 147 85 141 121 166 202 82 13 70 80 146 93 29 18 152 145 88 170 176 159 242 211 217 235 119 138 3 167 107 75 205 254 161 90 119 71 36 202 84 106 26 231 199 55 249 96 201 81 10 121 241 252 76 202 232 196 84 235 107 191 55 56 189 216 
146 52 31 183 254 115 33 25 90 233 80 84 73 25 165 83 147 150 80 223 96 56 163 180 35 14 115 90 70 48 50 217 101 81 144 99 197 177 124 31 154 205 115 227 230 25 55 121 175 135 89 16 191 252 196 226 11 56 61 81 104 111 42 205 193 186 49 134 108 173 165 6 122 25 234 97 50 33 218 225 168 51 241 103 48 182 73 59 238 134 140 86 246 183 36 183 113 85 61 221 2 226 228 125 251 206 222 45 239 184 15 151 236 0 254 28 182 71 87 164 206 227 251 196 154 31 123 12 116 184 233 118 154 205 243 150 155 209 195 138 138 210 33 118 211 31 146 137 103 233 46 53 204 41 249 103 72 116 115 188 44 92 50 198 42 38 92 197 247 32 80 129 242 113 247 197 145 137 79 248 114 125 45 63 166 38 166 238 154 25 170 198 117 220 140 159 2 233 101 250 
9 181 123 251 38 115 193 183 252 16 175 111 141 220 174 51 2 84 33 156 109 203 98 226 167 239 130 170 216 231 164 225 156 31 220 194 146 157 122 143 173 41 254 58 6 172 109 8 0 142 165 109 89 7 79 1 246 209 171 206 184 79 175 84 110 140 23 1 41 145 144 215 186 142 17 192 58 127 201 58 13 110 167 103 117 246 104 108 200 19 58 128 98 234 213 208 118 236 209 159 125 97 118 55 239 136 248 41 7 193 99 20 47 10 123 164 1 227 16 201 246 75 73 88 53 30 41 171 10 250 74 135 92 193 191 75 73 183 117 80 120 216 100 167 227 224 75 228 195 92 173 186 167 246 18 220 21 59 135 31 54 209 167 146 146 102 221 219 29 82 43 149 43 144 60 14 112 135 242 51 227 159 237 138 149 0 102 170 59 237 202 113 191 113 3 81 215 225 45 244 
51 88 137 94 232 197 108 88 76 94 140 48 253 121 186 147 121 33 61 181 14 7 38 205 120 42 31 79 11 76 67 62 164 204 157 141 145 9 229 222 104 113 14 101 235 200 248 100 233 54 25 248 61 64 197 182 106 228 5 117 48 73 179 213 21 80 98 167 90 71 133 194 185 147 39 164 91 32 8 69 86 34 61 147 98 2 73 204 231 79 65 23 152 244 236 173 69 78 84 159 150 217 97 79 108 136 243 200 168 251 13 254 29 74 146 127 76 219 75 51 42 140 75 194 129 55 112 198 134 196 101 28 158 198 107 10 78 94 210 247 89 223 245 119 41 135 246 118 99 66 169 141 206 244 80 79 44 192 21 178 132 122 206 34 64 57 45 143 151 255 134 240 223 123 103 8 3 94 126 102 160 40 243 110 28 67 190 72 3 211 250 136 78 200 170 142 1 215 29 152 
215 163 137 182 31 240 190 34 78 61 136 238 101 123 93 129 191 27 202 194 238 196 74 60 141 245 203 142 204 232 39 163 140 176 89 171 160 24 205 239 85 85 221 186 208 58 59 143 85 5 82 68 202 156 128 87 145 75 229 94 52 12 1 192 188 91 107 93 115 56 76 200 141 41 130 93 100 189 237 185 195 63 253 141 219 126 228 109 201 201 203 253 214 204 189 146 39 40 239 154 96 59 98 237 101 228 75 201 162 56 130 101 119 128 242 82 254 214 191 199 159 138 197 117 87 130 8 126 171 247 25 11 51 123 249 152 96 68 97 2 124 227 103 243 99 89 69 97 47 5 41 206 143 238 68 230 112 76 101 27 67 126 39 118 249 32 14 89 100 111 91 224 83 194 211 182 27 24 24 74 29 65 25 173 47 93 147 159 169 248 187 236 118 226 99 112 2 113 201 102 
225 37 70 52 231 25 234 3 49 2 77 79 67 102 252 114 195 143 18 108 136 205 89 254 175 188 110 177 45 56 23 14 93 93 66 68 118 45 71 167 47 149 246 115 251 242 229 191 130 247 43 10 196 132 8 115 64 119 36 110 175 59 124 12 152 191 80 14 236 152 182 27 45 172 142 40 159 116 231 33 107 19 43 48 151 51 163 216 170 200 70 89 3 194 101 156 129 182 170 109 78 96 137 123 13 23 163 172 139 139 205 247 158 248 39 53 43 202 13 214 146 83 47 150 22 149 50 151 75 220 5 153 61 142 20 74 165 183 246 49 66 195 40 224 187 79 22 230 25 35 188 172 119 236 66 141 129 116 36 204 80 41 101 141 183 121 215 93 48 205 142 115 144 182 83 75 5 105 50 30 141 238 202 4 218 12 145 91 128 181 39 209 223 140 94 150 5 54 243 54 
3 129 169 148 55 252 223 60 102 17 91 243 0 37 247 218 50 136 54 178 61 93 131 28 234 226 179 239 24 166 37 27 40 206 175 95 203 143 156 49 160 247 36 160 28 27 123 78 163 177 1 224 14 132 253 248 102 176 232 126 86 13 154 126 220 73 222 167 216 122 216 121 113 252 25 141 23 148 220 186 69 221 154 84 97 151 76 200 71 52 70 158 66 224 28 30 42 250 197 2 116 157 123 229 153 149 115 176 41 79 106 111 44 4 195 141 156 15 85 227 68 156 129 134 124 158 164 166 152 105 169 13 6 36 242 159 185 101 79 227 180 185 82 224 189 21 110 89 36 195 61 104 95 190 238 220 92 146 130 245 251 43 2 1 80 244 160 9 90 239 236 14 168 62 239 102 83 93 191 120 32 252 224 128 187 207 92 23 97 222 12 93 10 14 94 90 3 255 99 93 
238 80 107 151 142 90 253 226 183 188 90 216 185 58 88 116 9 180 139 107 146 152 200 156 166 38 246 169 37 90 6 20 170 114 171 56 204 168 26 132 100 116 92 29 175 180 145 184 104 29 35 250 181 235 151 91 18 141 5 55 231 11 75 145 125 246 202 74 158 228 206 3 89 42 32 8 222 178 192 70 207 228 64 132 207 215 223 225 101 228 25 76 240 100 222 109 91 168 183 249 140 133 252 229 175 29 237 141 207 174 211 158 146 20 34 97 235 1 67 80 230 92 157 214 192 123 67 27 35 251 21 175 128 17 149 48 46 130 189 253 48 145 155 194 165 189 36 144 191 103 225 165 195 126 123 131 249 190 159 28 185 180 203 58 197 96 106 244 227 39 241 19 184 141 214 93 74 250 238 9 97 207 174 36 77 41 167 70 232 70 98 161 250 45 219 192 142 69 180 113 
109 165 132 37 50 90 131 125 84 113 134 181 64 53 217 141 94 129 211 70 199 53 232 194 98 195 130 240 9 54 97 118 219 230 155 14 64 30 139 149 143 17 74 207 70 36 92 165 165 47 235 108 100 211 46 199 151 176 183 160 230 25 22 194 255 177 208 63 208 91 212 95 108 31 47 179 67 139 88 232 187 67 84 31 23 131 230 174 51 158 78 26 183 100 220 182 21 172 245 229 7 202 69 115 233 116 38 44 255 126 20 186 194 104 218 217 235 192 135 31 94 213 57 21 57 21 203 78 193 193 52 200 139 121 59 116 237 98 160 236 224 180 167 162 28 129 123 8 65 2 39 160 215 96 181 16 117 129 95 54 66 147 254 205 12 57 65 249 155 225 229 124 149 140 30 177 13 154 185 79 156 224 239 116 64 164 132 181 37 227 235 103 118 233 52 130 35 117 123 190 
86 97 58 235 237 89 157 251 243 86 74 143 55 57 3 119 221 136 45 3 107 24 106 226 2 159 100 37 20 224 227 107 65 30 86 46 119 243 41 106 74 115 249 129 172 253 248 138 133 37 141 240 62 247 210 64 150 55 101 171 23 72 22 88 102 108 134 221 96 176 71 170 35 65 43 208 62 35 90 195 73 231 179 135 222 134 199 117 189 44 32 212 116 54 44 219 162 178 184 2 98 0 172 134 65 215 86 127 251 176 66 68 151 245 203 117 123 146 234 56 190 10 12 50 64 56 13 227 235 198 229 77 198 146 211 7 105 41 134 100 217 200 168 112 189 115 230 57 5 208 113 195 219 126 246 27 182 3 254 161 201 228 239 143 118 194 150 223 236 28 68 197 228 236 54 162 96 28 219 101 236 76 41 199 202 31 227 129 34 225 34 236 197 17 123 59 212 18 27 192 
46 95 133 19 75 187 181 171 215 144 17 196 220 58 139 167 89 110 40 123 80 74 103 21 92 227 81 48 245 108 240 35 203 117 54 22 49 235 194 8 123 211 204 88 13 88 255 102 198 39 225 22 113 73 44 205 44 125 253 33 233 237 68 180 99 123 202 148 102 140 156 226 95 105 58 108 193 57 210 135 96 180 158 209 253 202 159 41 71 156 74 48 138 142 228 237 9 174 129 112 59 29 82 154 134 140 7 71 197 217 207 37 141 109 246 138 55 149 179 126 50 253 174 188 140 146 169 149 64 42 5 123 71 87 22 206 227 29 21 168 246 228 205 132 81 196 14 136 89 194 6 139 191 180 71 75 70 240 225 135 26 230 2 98 62 24 48 33 53 69 202 44 42 151 176 123 91 190 4 181 128 10 64 64 191 136 139 5 120 108 140 147 83 143 245 145 167 37 178 221 
106 124 9 148 20 185 16 111 119 20 36 248 30 101 56 221 237 195 227 101 48 111 248 131 254 237 20 166 18 198 131 125 67 140 17 87 69 33 198 188 53 235 180 84 80 236 49 61 176 20 162 224 132 155 99 130 136 119 40 155 61 171 24 128 55 41 215 124 75 158 57 128 137 237 212 217 218 6 22 138 26 184 106 158 83 205 33 220 68 73 119 129 245 143 2 44 184 217 169 3 119 226 132 0 207 88 217 169 94 239 51 121 168 157 23 251 106 56 215 174 130 78 48 119 221 50 163 150 11 76 153 131 46 29 131 254 118 93 167 212 76 219 77 244 120 101 240 227 157 199 145 31 22 193 150 243 243 58 137 255 134 35 130 181 64 5 179 182 98 90 139 175 53 216 163 174 61 147 145 219 91 34 250 113 228 145 100 215 203 238 214 81 17 88 6 81 94 185 8 192 
20 147 111 73 107 19 247 169 166 136 132 1 171 126 114 143 15 215 102 218 197 61 44 214 149 50 39 243 236 47 180 0 194 35 73 46 54 65 215 221 201 91 222 116 217 81 3 233 40 106 195 237 167 239 195 60 34 234 48 14 26 228 14 220 7 87 10 62 152 225 27 98 60 249 214 22 74 218 255 114 68 194 95 235 178 34 39 212 13 87 226 39 59 240 3 67 71 14 129 224 239 156 66 44 149 24 66 224 242 65 82 54 3 178 33 181 212 73 137 225 160 107 8 220 91 12 31 163 26 160 131 9 60 197 53 209 221 119 177 208 184 4 6 188 182 40 113 138 113 251 108 17 102 116 237 194 128 12 101 154 172 232 164 232 173 217 186 138 81 107 90 9 111 97 197 37 137 55 176 250 50 28 11 152 144 249 90 17 5 191 171 178 167 79 154 84 41 84 223 122 
192 57 131 47 154 73 85 35 128 5 29 178 33 41 74 177 34 165 194 39 100 110 217 12 189 116 96 230 200 63 96 136 121 228 184 19 45 13 55 173 18 84 95 51 125 169 228 159 78 167 199 179 21 160 191 210 20 31 185 221 95 25 101 216 253 29 235 42 42 34 215 60 119 54 111 244 224 84 148 46 251 91 225 16 251 160 226 16 192 155 237 31 181 82 247 178 112 226 221 154 5 180 215 124 235 70 112 203 154 4 249 149 95 219 165 91 123 136 107 59 35 88 90 216 170 81 139 26 52 104 181 57 28 140 181 7 210 37 210 109 42 204 2 137 167 168 228 34 48 79 94 83 167 184 44 82 10 183 108 62 31 33 119 59 173 44 67 128 81 21 237 123 225 239 5 136 151 233 171 199 57 9 27 224 193 71 50 203 254 159 9 29 192 128 88 110 172 155 238 254 
177 219 121 146 202 126 27 98 104 198 41 161 207 68 129 144 139 180 92 137 83 101 166 19 230 255 129 146 154 111 144 75 74 10 222 21 136 249 119 240 191 160 145 142 229 19 30 112 199 122 250 26 224 160 45 198 159 175 88 58 30 233 133 105 243 99 126 123 92 245 108 27 149 253 169 122 16 200 235 215 66 229 241 34 133 31 232 37 206 65 95 236 42 228 85 29 72 211 152 164 200 4 192 94 2 105 216 18 49 195 234 116 168 219 150 46 250 127 83 200 192 178 181 234 150 10 7 222 222 159 131 166 164 67 4 166 172 221 184 222 160 162 82 73 126 232 119 120 103 202 65 39 124 246 17 18 0 24 241 222 184 116 133 92 183 137 2 99 102 186 65 7 93 147 80 219 124 199 83 227 145 148 11 13 138 28 31 139 53 16 105 237 132 238 73 59 120 75 159 222 
5 224 229 98 116 53 61 240 252 145 211 141 37 222 154 176 251 186 59 48 202 164 29 79 147 102 138 11 177 41 233 182 10 207 25 126 4 86 110 1 231 65 142 13 32 41 189 27 227 248 75 173 156 104 252 47 206 135 58 127 176 36 53 186 243 78 56 247 165 166 248 140 232 135 153 8 176 86 35 147 78 110 64 235 214 61 26 164 196 85 35 116 121 88 47 108 167 103 99 76 14 92 216 246 227 114 254 147 200 33 38 23 143 102 2 101 163 28 9 103 113 44 220 234 132 11 86 43 114 186 119 128 22 80 118 249 194 116 140 138 149 178 161 36 24 163 137 188 192 146 35 49 190 255 28 67 10 114 110 125 44 230 253 66 54 116 59 248 232 199 130 126 121 36 162 146 199 44 78 135 190 113 185 125 113 213 192 123 71 46 248 116 20 246 182 74 106 242 66 82 
185 197 208 51 233 115 197 176 159 19 56 93 132 241 218 245 198 154 113 13 201 105 129 221 95 56 40 201 42 106 28 227 47 236 22 24 95 219 201 254 238 1 92 115 242 54 104 184 209 217 197 154 67 71 119 162 127 159 108 169 10 136 140 57 116 163 82 212 126 27 210 109 28 46 224 14 101 72 198 54 34 139 208 101 210 71 7 81 231 115 250 241 251 135 42 112 42 124 68 168 151 22 21 179 69 245 193 170 62 135 224 96 19 176 197 229 247 204 55 222 64 49 207 59 184 250 171 226 118 239 139 14 6 160 193 75 150 131 245 212 10 213 52 29 133 249 3 124 197 58 91 5 107 42 65 36 36 236 6 155 220 145 169 226 50 106 45 200 237 34 156 248 247 208 21 124 201 24 248 142 82 83 148 190 126 213 226 162 193 232 61 157 122 230 127 172 81 172 116 62 
206 16 54 197 224 76 65 169 100 58 55 183 141 203 117 11 160 87 174 98 63 235 255 185 210 127 101 35 43 217 97 250 233 152 191 201 228 1 114 72 59 170 255 200 117 116 212 22 203 130 120 11 109 119 196 63 246 42 98 34 3 196 28 237 92 219 182 64 220 41 136 23 211 136 224 72 252 180 94 200 54 214 211 163 78 151 227 68 193 69 102 197 9 130 178 101 94 104 165 58 145 46 82 100 182 50 173 178 230 11 122 28 226 77 191 48 229 162 116 166 232 219 107 241 93 29 87 187 134 252 246 23 42 72 124 224 122 41 147 96 52 13 124 22 91 59 70 64 222 187 230 198 150 82 183 243 111 14 175 245 11 165 13 53 237 137 22 103 178 169 199 230 182 67 253 17 126 67 81 92 254 56 34 148 138 218 136 249 232 55 239 243 220 252 41 201 133 63 48 55 
232 247 29 158 58 26 176 184 94 1 21 92 57 55 241 195 17 121 189 250 176 172 237 140 168 22 85 45 85 133 100 61 124 129 220 182 156 140 110 250 141 131 86 199 187 71 138 204 192 71 198 112 243 180 252 155 202 81 200 32 214 44 93 82 174 57 8 74 197 119 68 83 250 154 26 181 226 164 130 162 236 72 19 223 252 15 123 199 97 67 231 55 112 68 138 30 126 146 104 67 9 172 150 4 70 176 185 40 85 59 203 65 132 222 32 128 237 155 71 78 223 46 134 79 115 16 109 241 162 213 52 172 129 203 176 199 123 105 240 208 165 187 17 41 153 50 169 134 205 241 213 172 31 91 251 146 107 104 131 13 61 184 185 190 131 105 134 254 211 118 207 120 49 224 161 202 18 74 80 224 59 37 140 91 128 136 237 235 240 113 249 46 41 178 236 172 28 114 170 239 
232 121 103 25 90 8 227 108 82 52 76 142 89 217 233 218 97 214 197 81 71 190 127 112 113 108 28 141 222 199 124 199 64 227 224 154 235 196 7 61 248 83 203 81 44 180 43 141 139 241 223 210 175 94 67 32 202 95 173 169 38 41 112 103 12 80 1 247 20 8 53 12 92 0 94 136 181 137 22 64 122 245 18 42 83 85 74 30 181 248 199 219 33 55 66 46 135 68 37 156 76 90 168 168 91 6 49 16 144 71 80 10 60 98 52 143 184 127 173 109 119 116 72 152 171 139 198 51 207 236 207 27 70 119 196 161 126 245 177 14 60 1 24 120 100 77 7 28 204 181 137 67 41 209 219 213 92 162 8 43 142 215 71 212 78 11 118 204 0 39 218 60 41 243 180 141 64 187 169 12 112 50 79 154 3 42 111 96 204 119 139 90 78 210 47 156 221 165 105 221 
204 67 25 245 54 205 130 118 137 43 130 249 93 209 147 97 252 2 193 200 121 76 35 199 31 82 100 252 247 205 218 195 16 243 185 71 193 59 189 74 103 64 67 196 17 215 37 13 217 230 214 83 51 249 26 82 75 126 78 66 75 40 5 92 28 190 163 221 250 96 39 97 160 106 37 178 65 75 191 27 49 149 110 100 142 136 182 217 7 5 27 82 45 33 174 73 223 81 38 217 178 77 58 82 184 96 4 249 171 196 20 220 89 130 65 232 11 247 193 18 252 221 100 42 254 19 115 221 100 154 183 22 231 241 105 159 81 109 153 252 49 173 217 139 48 26 115 59 17 52 77 14 17 177 56 15 196 171 237 41 69 164 63 45 149 168 204 231 22 101 227 71 19 188 210 67 214 69 126 232 122 203 246 139 124 46 155 65 217 136 106 31 44 169 76 193 82 24 168 104 
126 140 175 145 72 130 212 31 199 82 7 65 29 253 205 153 43 104 218 4 240 68 35 28 238 111 221 64 136 134 168 6 18 87 151 90 217 107 121 161 189 128 226 218 125 175 115 168 23 78 173 7 146 208 35 128 64 1 192 200 135 104 206 153 192 101 243 153 208 109 58 141 237 29 103 107 204 218 19 228 40 192 235 187 145 15 59 209 16 252 153 151 100 103 48 36 204 35 190 156 144 248 41 126 21 144 233 226 106 252 198 147 189 177 78 78 192 137 31 208 133 184 103 234 31 151 14 235 187 204 135 75 197 176 201 218 64 178 188 170 175 130 61 108 52 139 186 244 21 217 197 154 145 44 132 176 196 147 155 127 95 34 202 36 210 148 255 18 70 187 188 245 62 250 97 114 133 27 102 154 244 43 53 133 88 185 53 28 76 208 155 172 242 101 208 196 249 207 214 64 
139 147 53 201 141 151 59 18 178 161 173 167 205 226 44 37 155 98 65 232 50 220 148 37 65 100 233 59 52 192 123 191 83 176 136 224 71 195 242 250 100 159 161 49 129 205 86 29 47 151 5 98 115 153 135 181 253 112 240 49 48 107 240 131 27 120 99 99 59 86 93 160 245 254 209 119 203 40 148 251 191 153 93 51 50 228 232 47 84 216 97 133 67 81 8 94 202 108 193 5 194 30 165 183 28 119 46 232 159 194 227 94 91 64 145 141 36 121 189 120 81 30 253 148 111 6 243 57 114 180 63 52 211 228 235 239 91 26 215 250 220 186 89 56 250 234 197 30 100 130 151 181 160 148 74 16 154 61 73 12 241 136 64 196 109 44 180 200 70 139 195 34 70 28 90 64 6 32 95 106 162 246 32 67 138 106 83 37 167 156 49 152 37 114 93 146 158 17 90 228 
156 29 6 226 57 97 35 64 129 130 170 35 120 202 102 2 52 185 39 219 86 89 116 123 203 209 13 105 226 103 77 126 133 83 97 190 180 132 254 53 6 169 89 126 115 191 128 168 121 168 131 207 1 247 74 204 200 87 53 170 190 130 41 67 213 138 2 138 14 0 191 20 169 24 146 29 216 18 197 81 186 72 32 187 64 106 135 8 193 188 179 127 62 220 195 20 102 197 158 116 197 93 136 111 118 26 140 78 44 81 159 231 153 191 162 217 41 42 226 234 230 149 105 37 113 44 57 215 241 215 75 183 52 211 38 170 237 178 248 25 3 151 0 156 86 163 118 127 205 88 105 179 237 211 216 94 255 17 53 241 232 128 168 29 83 206 199 64 128 192 89 131 87 90 31 174 253 149 45 202 237 151 125 218 106 86 56 105 103 109 90 80 237 2 109 64 208 52 128 80 
244 218 211 76 52 243 250 49 136 39 251 118 190 120 80 40 206 137 146 54 246 236 134 228 239 243 36 191 39 165 16 28 127 227 104 179 214 98 228 95 137 223 213 72 87 37 112 38 174 2 92 165 239 226 137 222 213 173 157 252 82 173 24 209 145 128 132 103 226 104 198 108 71 155 180 159 193 36 197 111 39 33 20 22 3 157 244 216 75 145 212 157 63 237 111 208 109 243 55 80 92 254 188 163 153 112 66 90 148 7 202 187 40 222 209 43 124 197 3 199 87 216 100 150 197 211 102 50 199 157 130 35 155 62 198 53 174 9 143 67 16 89 254 57 56 208 100 180 149 104 123 236 64 223 130 5 179 232 55 122 134 186 157 33 248 99 86 167 108 230 234 125 63 232 182 119 184 26 43 78 130 166 58 194 134 189 199 57 165 255 179 43 185 80 77 177 179 163 88 32 
137 66 157 201 43 83 64 227 109 108 49 240 18 108 178 152 41 122 209 206 121 132 250 50 212 71 227 136 234 60 168 116 126 69 61 169 152 125 141 5 233 190 245 252 42 168 148 83 34 102 34 155 234 28 205 191 99 176 71 77 236 239 193 107 52 254 20 204 124 161 209 101 96 199 97 138 111 246 222 145 92 0 44 70 28 249 5 127 169 76 204 150 59 142 1 111 140 21 59 8 183 13 110 23 212 207 161 67 197 127 212 33 127 0 104 155 249 109 26 162 186 231 56 245 117 57 101 1 79 160 10 6 173 120 29 129 71 190 196 13 62 152 46 189 152 150 89 145 4 115 52 190 90 108 179 207 166 24 209 245 185 219 251 102 83 24 232 154 214 172 167 20 69 214 210 221 108 43 111 112 158 163 46 249 15 226 200 181 250 153 170 179 116 165 26 199 189 2 98 148 
174 9 168 243 223 122 209 76 165 64 188 68 227 235 61 242 205 5 168 199 159 82 123 19 248 149 219 181 151 61 73 69 70 242 57 38 108 10 114 18 74 46 86 45 25 147 31 230 152 199 174 55 26 41 75 18 190 38 199 85 99 17 154 169 3 211 207 111 221 65 129 39 112 215 84 137 106 116 112 3 59 30 58 85 71 133 103 5 171 47 90 14 64 244 184 67 200 135 178 165 201 52 205 57 11 33 194 118 149 50 121 209 80 179 38 151 57 142 156 228 189 246 243 253 235 171 64 179 50 242 88 251 38 37 52 50 71 247 168 220 41 33 173 122 212 212 17 13 98 174 242 31 164 229 28 143 144 92 66 194 78 155 190 117 192 242 167 7 233 79 228 19 112 145 141 68 101 158 82 199 76 68 230 241 41 2 128 185 94 195 123 173 94 57 34 30 44 201 38 21 
24 10 40 136 155 181 204 1 84 30 200 160 98 175 145 139 177 18 68 16 213 192 189 51 249 223 81 37 168 119 59 192 129 99 72 29 25 20 30 109 51 230 13 149 149 159 33 71 177 101 87 134 37 20 185 31 243 10 68 155 130 127 91 3 227 163 32 252 183 62 105 234 37 118 128 186 21 161 1 198 6 88 76 44 108 5 75 95 16 143 250 146 15 85 149 242 248 182 238 176 244 87 154 25 205 26 212 227 187 213 169 194 46 246 238 154 251 57 250 11 200 244 157 215 74 51 201 66 233 183 242 221 14 141 247 220 167 203 191 99 160 104 37 206 94 19 105 90 76 99 101 20 87 3 236 161 54 181 228 31 109 214 252 123 99 243 87 11 190 22 110 95 127 147 45 221 166 150 55 242 249 157 6 81 160 242 242 214 168 214 245 21 173 241 144 16 229 232 27 163 
254 137 2 125 28 48 91 194 198 146 180 192 47 187 17 207 173 3 165 85 218 154 106 135 140 251 151 113 227 179 20 225 60 23 95 89 71 186 27 13 76 208 205 124 139 222 75 56 226 241 142 188 139 248 67 23 243 218 136 214 141 157 184 202 180 23 35 251 209 62 8 29 14 214 153 153 180 229 210 150 214 96 82 97 88 149 121 76 112 1 34 253 158 218 199 82 241 234 77 194 41 86 224 55 44 121 209 224 94 163 119 52 3 201 150 91 95 15 167 207 16 202 204 175 164 148 1 150 126 79 88 167 165 56 223 209 178 176 177 16 83 40 69 86 242 219 177 81 234 89 32 250 35 236 169 199 128 171 93 255 250 182 166 159 238 133 112 160 53 33 177 136 74 246 222 60 209 144 141 187 233 173 181 12 153 95 211 26 10 49 25 4 231 191 163 213 69 19 118 122 
52 39 3 126 29 225 186 238 113 71 169 90 244 94 102 142 189 58 168 199 107 193 203 82 128 110 39 197 129 157 64 182 196 67 52 225 36 239 207 150 54 120 240 43 215 87 185 148 145 97 92 252 34 39 78 162 150 117 104 23 19 168 205 215 235 2 185 15 241 136 165 39 1 150 82 216 237 11 108 126 108 200 122 142 240 200 49 134 61 153 157 80 65 107 40 44 109 225 59 94 105 225 133 106 119 216 66 100 227 175 226 80 119 92 222 103 36 15 237 97 168 139 178 233 246 218 21 99 187 81 193 36 50 70 143 169 30 209 13 2 128 239 82 248 75 48 95 111 64 77 208 232 216 130 210 206 92 231 49 23 56 242 60 106 56 203 19 87 156 32 89 29 15 171 21 90 219 116 201 27 193 154 4 153 28 214 103 121 189 152 144 246 138 204 96 195 151 116 26 52 
148 115 81 164 30 102 254 249 218 200 21 156 98 25 53 126 239 157 247 172 53 136 162 192 84 3 131 236 119 157 32 11 16 113 175 46 215 174 39 177 118 60 77 216 85 131 86 68 32 78 241 85 214 147 21 42 150 152 22 13 53 54 25 69 167 200 115 126 118 155 48 236 215 125 196 45 0 27 113 32 105 98 118 63 246 139 105 140 36 128 154 89 182 179 159 94 123 18 220 242 173 12 222 133 138 163 178 138 190 35 171 39 134 33 102 124 172 207 8 208 79 162 42 6 85 201 100 209 219 64 195 137 77 161 14 215 68 192 97 2 227 12 41 105 45 143 229 218 95 238 170 174 144 212 180 230 157 24 183 121 89 122 2 166 27 16 125 96 208 222 98 179 235 140 29 24 27 2 242 122 240 157 41 129 113 221 103 15 246 30 136 79 152 138 245 179 154 114 19 106 
80 118 29 59 2 58 84 29 61 70 152 45 227 193 174 85 158 21 100 148 51 236 227 203 118 216 127 16 74 146 122 155 8 151 214 10 210 42 40 15 113 192 60 84 129 235 169 31 0 13 180 52 249 151 255 111 112 126 127 186 17 249 85 25 145 44 36 99 86 76 114 199 12 174 28 141 153 197 172 154 211 96 206 204 248 205 60 104 76 187 34 93 181 120 118 70 164 154 169 250 230 27 194 242 201 222 127 99 163 44 253 118 140 203 67 132 152 127 236 228 58 15 65 239 135 184 53 43 82 222 37 57 249 231 43 195 197 171 38 105 215 35 223 99 238 34 232 134 161 212 107 220 227 172 203 106 100 1 149 183 223 187 240 217 162 27 156 104 198 194 209 157 229 176 1 211 211 233 89 116 189 196 80 161 113 28 11 213 29 161 140 252 92 124 213 254 152 113 102 94 
51 55 252 24 232 253 235 187 230 69 47 163 9 128 68 122 156 80 80 185 241 220 181 77 89 139 75 241 252 178 79 48 233 75 72 209 72 52 140 46 121 188 210 130 60 22 253 216 102 77 145 87 41 70 164 130 209 240 115 206 162 195 254 139 14 70 93 87 122 233 133 243 165 87 118 225 110 115 185 212 192 74 44 233 145 208 108 98 192 223 48 98 162 46 238 177 117 75 8 239 52 141 227 218 229 89 187 83 204 117 39 140 191 83 117 80 36 225 179 228 193 227 71 99 18 53 20 135 128 28 118 180 170 89 142 143 178 74 226 126 191 9 10 126 93 128 207 129 97 130 101 34 101 172 134 119 225 154 254 97 183 117 22 97 206 164 240 129 238 210 255 173 219 10 44 56 138 251 185 235 125 31 14 226 203 148 90 173 46 88 14 229 205 36 70 156 201 54 29 183 
8 28 101 228 38 145 28 176 140 214 156 9 245 170 235 192 62 69 109 108 158 124 82 107 160 152 7 105 207 36 33 215 65 134 187 103 23 216 24 163 174 180 172 163 94 151 99 156 221 209 8 123 77 90 230 237 243 238 87 194 18 120 153 83 254 85 187 21 45 211 184 219 135 100 126 229 251 225 129 216 178 137 83 255 228 58 237 215 40 68 153 58 188 50 142 186 135 73 207 180 28 135 143 163 235 13 136 230 239 9 191 161 146 18 161 118 76 142 77 116 210 230 175 142 25 61 72 160 134 23 85 162 158 228 69 137 242 205 111 225 214 46 130 104 65 35 223 141 177 44 2 131 19 177 17 44 238 89 204 116 112 33 22 14 6 91 151 248 40 7 217 254 53 91 102 118 127 69 4 48 114 6 180 133 183 197 177 165 31 125 25 143 159 47 158 165 138 53 157 178 
60 118 176 114 209 22 232 80 92 236 129 206 242 53 83 169 250 4 78 25 129 103 169 32 150 71 197 32 124 98 210 185 216 130 43 170 153 19 250 245 0 123 195 242 176 22 156 171 26 234 196 155 82 109 188 232 180 129 9 49 228 219 234 188 94 21 102 247 40 97 236 40 220 175 27 141 197 183 56 223 161 252 122 243 106 54 220 30 184 229 79 156 192 57 88 30 78 191 21 119 32 1 159 252 176 186 137 117 113 193 84 19 190 207 6 40 5 226 70 189 199 150 89 136 207 178 166 30 113 188 149 145 189 52 141 110 239 23 227 96 216 56 115 150 7 122 190 12 92 5 202 36 155 35 172 106 213 82 136 70 14 29 215 204 82 101 58 65 124 29 161 84 85 21 235 92 143 169 105 235 174 51 15 73 86 187 180 44 14 60 114 28 90 74 232 172 175 34 237 43 
64 142 127 149 163 106 242 50 20 91 30 194 142 45 12 228 233 192 16 247 252 131 19 86 205 252 2 124 30 239 167 94 126 38 244 33 145 230 84 165 65 114 103 207 159 115 179 136 51 196 127 48 71 147 134 20 143 137 144 173 120 55 12 246 93 0 24 238 230 108 147 39 222 251 246 125 110 169 6 162 109 133 210 180 24 88 200 167 225 88 85 90 143 97 80 237 97 104 219 71 212 111 110 178 106 100 48 216 13 54 122 123 187 76 47 212 165 248 123 134 80 208 224 224 49 49 205 146 153 168 217 110 23 71 32 129 171 80 90 185 134 212 52 66 33 99 22 198 91 145 76 172 98 45 140 147 94 89 38 247 1 255 101 25 71 134 154 242 214 244 171 93 201 223 159 234 67 181 176 158 70 252 74 168 41 214 60 135 47 98 127 49 97 228 74 168 106 228 155 65 
217 70 158 162 38 61 140 105 242 60 7 56 56 82 225 98 40 29 233 88 127 104 137 224 77 211 137 183 183 36 248 144 106 150 50 144 211 190 249 197 250 1 254 51 83 223 149 123 252 126 211 123 231 92 91 52 47 228 235 231 8 228 119 115 122 170 3 78 104 253 19 99 254 17 150 81 240 43 204 236 169 160 103 144 252 195 196 44 167 176 19 176 148 138 35 14 52 38 92 157 35 112 0 33 129 150 114 114 193 63 94 106 223 198 251 219 137 191 7 48 111 26 224 3 165 3 18 217 42 110 118 77 222 118 111 96 12 225 210 205 32 48 56 255 246 51 219 127 242 226 176 98 253 144 101 162 148 119 123 190 230 242 11 196 104 122 36 117 92 246 66 124 39 122 124 29 173 87 157 160 57 77 2 54 221 103 216 113 223 84 47 197 70 59 137 174 181 174 35 17 
164 102 142 203 224 10 233 142 97 134 46 154 211 48 209 176 151 169 34 118 253 81 59 67 140 197 242 66 115 21 83 23 123 225 227 92 235 204 234 76 82 24 231 37 72 184 213 223 97 247 86 95 73 145 162 213 86 148 23 201 170 107 225 37 76 196 129 56 144 107 132 226 131 107 7 203 35 220 171 133 212 1 228 29 146 134 242 233 27 10 178 197 117 147 234 193 87 108 249 231 215 126 201 91 233 208 38 13 173 209 146 129 210 118 158 101 252 144 78 23 154 0 220 15 148 199 209 235 51 202 211 10 72 156 101 50 109 140 63 26 93 209 155 48 71 57 149 67 201 227 91 100 227 55 115 119 254 68 99 49 15 54 60 87 210 161 137 63 45 200 89 139 153 244 187 224 45 80 36 247 51 127 91 22 182 206 142 181 19 241 230 34 39 34 121 249 196 3 57 241 
203 146 124 101 135 55 69 180 135 105 171 186 232 6 209 159 213 95 84 232 80 58 10 119 93 131 112 33 134 169 18 82 60 143 183 195 198 252 119 78 102 35 8 78 41 217 237 254 56 65 230 136 124 240 255 217 116 112 250 250 25 12 76 85 155 3 24 98 0 144 176 102 179 184 180 220 146 162 219 202 227 193 83 95 178 82 56 38 194 50 32 220 63 109 49 218 112 74 60 112 218 236 214 141 165 139 105 55 45 68 1 16 6 84 112 184 167 168 222 105 219 254 69 26 107 119 244 220 193 49 76 155 29 35 40 194 174 145 249 219 214 251 235 220 79 91 148 246 4 114 96 223 112 165 249 220 28 237 184 221 30 4 120 60 39 160 254 213 50 248 176 8 243 156 228 66 247 120 57 251 234 153 218 90 62 211 54 91 193 238 56 223 243 177 27 26 81 26 240 131 
18 160 139 5 60 111 71 52 231 128 47 209 25 10 44 88 221 98 179 158 81 235 126 68 156 153 94 238 179 78 113 197 239 253 202 43 108 18 95 84 146 143 37 172 153 81 4 118 180 183 21 5 162 147 73 63 44 167 45 224 246 158 165 229 155 112 16 8 130 112 92 20 255 129 192 152 211 196 14 135 123 35 140 30 182 213 93 227 124 138 195 114 40 104 87 196 216 104 204 90 216 40 111 215 169 47 111 124 244 125 3 111 161 143 141 87 100 234 58 225 116 253 83 157 102 171 97 62 19 45 153 235 85 8 194 254 55 49 123 43 174 126 155 79 14 40 167 114 19 225 83 135 223 167 36 69 82 133 131 101 178 28 80 7 36 18 6 92 67 129 135 241 255 34 65 13 75 232 128 94 201 211 229 168 122 10 237 204 143 113 49 66 141 129 73 178 147 79 14 214 
208 149 200 208 184 9 221 3 241 93 97 186 49 70 99 171 80 80 120 224 193 169 34 79 43 107 1 190 187 15 149 139 164 93 91 92 102 57 95 87 150 192 17 199 7 116 115 87 197 235 55 134 148 89 213 191 197 214 126 128 229 19 11 138 112 103 230 214 160 70 45 54 6 62 254 13 179 113 101 120 92 156 254 240 246 212 176 187 170 46 59 144 65 70 26 177 173 0 135 77 70 180 132 77 242 130 90 165 243 191 29 79 92 28 63 82 240 239 13 154 29 72 42 94 142 68 15 60 69 150 137 139 74 13 216 61 143 51 226 130 242 0 209 78 28 17 160 12 0 173 166 30 245 209 124 132 21 140 192 90 34 73 230 109 87 190 170 230 241 140 105 228 140 58 50 168 75 211 180 76 128 91 106 118 44 230 250 65 114 186 156 149 3 130 2 90 64 172 65 50 
56 170 22 197 228 72 109 48 27 34 124 156 125 230 18 169 204 12 234 63 198 134 212 201 8 214 36 73 130 101 123 186 15 145 127 243 217 237 35 245 15 159 145 140 133 163 53 82 175 31 145 117 166 101 62 174 59 98 247 189 199 114 119 214 3 247 202 221 228 237 210 243 141 99 127 18 6 180 100 181 211 245 42 121 90 104 40 149 203 31 82 146 146 202 105 149 193 51 114 165 32 68 152 173 167 23 192 173 203 36 98 158 26 140 24 116 245 64 10 192 95 92 82 241 38 187 135 231 238 249 140 15 62 36 188 229 59 124 147 6 161 245 165 187 130 189 47 119 253 57 55 92 150 137 78 188 69 213 164 51 206 48 66 12 85 255 242 144 123 133 151 28 122 60 215 252 249 7 115 246 64 170 82 214 52 160 147 121 117 55 172 68 103 239 80 188 238 66 77 105 
199 228 134 66 32 93 62 25 100 178 15 165 92 97 123 144 2 14 9 119 69 182 187 173 165 12 105 147 78 182 252 22 154 130 88 186 224 150 211 68 72 226 233 165 68 101 53 70 115 63 189 185 245 121 102 154 133 207 45 211 134 41 233 32 172 65 219 140 216 174 208 32 145 186 197 213 31 251 27 146 58 216 75 47 81 177 201 214 129 246 170 7 31 147 39 203 213 2 87 173 177 40 205 66 226 147 23 1 142 50 147 200 10 223 247 92 144 192 50 17 182 220 24 213 112 64 161 69 66 248 242 243 32 191 53 2 82 76 3 224 126 151 168 137 118 159 229 6 95 23 24 21 244 48 235 100 112 140 169 179 132 155 166 165 90 220 167 173 40 171 141 167 66 54 48 184 213 21 190 53 44 214 74 32 7 53 132 119 193 45 42 70 200 209 235 35 173 146 208 213 
61 93 124 127 147 172 55 105 193 246 158 238 204 232 14 211 30 147 75 223 192 117 37 137 70 16 172 243 163 124 201 224 217 69 96 109 242 151 214 179 141 116 161 90 92 176 45 122 67 120 90 3 238 127 140 52 144 56 40 51 180 241 19 142 54 115 251 40 11 209 220 152 69 125 242 161 45 32 28 112 152 118 116 134 245 0 187 133 57 227 184 237 212 204 123 10 63 118 51 74 71 15 227 140 140 213 46 186 245 74 42 142 192 158 20 181 159 207 59 216 178 243 197 134 191 65 145 255 183 196 73 255 211 44 139 95 2 185 25 247 3 68 133 195 226 154 121 129 105 180 89 28 167 31 162 103 96 51 102 23 247 175 22 202 220 162 42 222 91 67 213 95 135 91 34 106 245 155 235 94 79 69 122 247 100 29 94 196 80 196 219 72 115 242 18 79 148 60 45 239 
128 3 78 7 94 113 113 83 12 93 177 92 162 44 83 6 73 177 202 153 117 165 225 232 151 244 56 43 48 101 27 176 104 105 184 198 218 41 25 231 134 203 67 40 247 150 46 64 71 248 217 188 158 187 164 53 175 220 97 223 66 124 144 170 229 72 113 192 113 138 167 248 85 234 32 76 128 79 140 199 71 102 131 229 33 39 27 208 4 124 175 70 248 63 240 221 135 97 157 249 236 68 241 65 46 17 142 174 96 26 117 168 128 248 141 161 32 168 113 36 36 33 106 28 96 90 250 232 188 151 225 168 220 210 233 10 227 119 185 68 146 46 236 18 39 121 180 71 34 37 107 70 70 213 99 167 47 93 143 235 244 112 147 208 66 125 219 37 244 148 105 134 194 85 153 233 207 77 48 241 114 155 55 185 112 154 96 160 247 239 139 236 95 31 188 161 156 151 198 144 
43 48 23 238 133 176 215 84 253 8 69 111 163 125 40 20 23 136 180 15 119 63 251 214 94 183 119 250 79 62 139 122 110 162 104 243 82 64 72 79 72 141 190 235 10 231 255 34 111 179 49 231 243 44 189 81 227 53 76 50 115 215 173 225 121 21 212 203 85 28 26 157 170 216 137 180 191 136 214 47 60 7 22 47 51 211 128 23 8 204 73 123 163 246 92 28 12 49 231 97 77 1 255 247 218 136 172 153 16 130 200 76 138 222 123 189 178 252 212 186 200 30 54 108 20 146 136 32 195 112 130 17 113 129 8 75 9 180 229 25 55 173 102 193 140 225 126 62 221 83 248 166 113 46 18 133 193 154 166 132 10 40 149 124 169 158 199 178 82 172 203 137 90 49 74 230 19 201 36 240 28 28 150 141 75 168 18 12 67 184 144 77 224 38 201 137 196 145 59 22 
61 7 160 151 56 234 125 75 179 161 60 207 190 210 92 9 123 111 21 190 39 165 11 8 203 213 145 143 102 205 166 163 212 70 59 12 48 184 88 228 90 148 179 24 102 16 33 225 127 54 159 166 219 171 174 167 128 64 54 230 13 220 137 225 34 196 237 83 125 69 55 215 217 234 239 64 250 16 33 121 70 193 32 33 108 206 200 236 14 255 210 27 219 91 252 254 32 234 81 157 47 136 116 9 114 99 73 109 115 106 230 185 43 6 218 151 213 163 131 227 162 85 255 125 177 251 123 209 229 204 110 21 84 226 30 199 69 103 52 184 209 26 113 253 33 75 148 246 238 24 217 144 109 216 14 30 212 137 239 185 86 93 206 170 63 236 113 132 83 165 60 37 192 173 34 225 249 182 215 231 206 176 120 60 137 134 90 93 15 74 22 101 167 229 16 231 209 129 107 37 
39 168 74 231 85 108 200 78 34 159 54 241 79 174 45 216 52 135 53 67 209 76 169 121 49 185 96 2 58 203 39 97 115 113 72 201 221 16 23 0 175 77 241 255 251 30 215 47 165 13 115 119 89 28 240 138 213 80 140 15 27 180 113 143 37 185 88 3 202 111 3 121 189 244 120 184 18 80 232 183 93 91 46 182 119 30 64 76 110 204 91 138 128 204 25 166 134 113 169 80 224 172 201 157 160 66 86 178 146 62 105 239 153 152 165 16 182 229 92 37 177 183 175 50 132 200 216 10 57 129 90 25 45 35 183 205 101 13 127 247 75 232 230 228 128 139 244 55 112 80 92 34 7 11 84 139 211 44 149 12 173 239 37 218 19 220 167 120 233 38 112 52 14 86 24 143 226 12 198 82 92 34 116 100 45 200 239 0 244 133 12 161 116 49 123 135 14 34 0 247 
72 112 44 87 198 68 230 168 81 172 251 173 206 111 17 251 56 1 251 44 134 7 206 250 56 73 130 70 108 130 62 180 242 106 11 184 174 241 97 255 157 92 173 107 203 190 102 3 191 97 48 69 104 254 64 161 71 194 231 179 68 37 104 54 143 115 238 62 101 79 61 2 171 234 110 119 169 212 122 104 54 170 174 158 168 238 63 240 176 39 163 244 76 11 42 220 127 24 26 228 104 87 230 19 66 84 138 235 41 5 83 95 175 1 253 88 239 61 72 159 100 235 147 176 247 189 140 118 214 166 90 62 254 64 81 64 149 220 43 190 225 126 29 144 128 26 232 111 87 48 15 187 28 162 108 19 96 248 137 54 159 227 116 157 35 197 221 184 161 8 118 130 134 147 19 6 174 251 118 5 44 133 193 72 39 45 91 135 37 228 189 196 199 49 97 234 247 62 163 152 
70 25 27 205 173 46 211 91 41 73 96 85 206 33 157 246 78 248 125 116 220 59 56 163 108 154 142 99 216 49 252 31 74 23 236 247 69 191 82 110 9 179 196 215 212 97 205 35 90 75 151 54 134 207 218 242 105 104 86 66 153 82 97 227 105 77 219 174 12 45 28 21 224 224 237 181 66 186 216 156 5 111 210 139 62 172 126 168 20 212 234 173 38 75 145 143 152 108 61 164 153 89 186 122 58 167 47 124 97 7 24 103 118 234 242 180 151 112 92 171 68 70 89 106 145 234 249 41 86 54 206 239 144 136 105 202 47 152 70 144 159 94 247 21 72 234 202 223 90 38 139 159 109 228 9 254 206 3 40 36 57 246 19 201 126 125 147 173 21 217 61 181 55 53 202 128 31 148 95 121 187 234 24 40 206 34 38 156 37 78 192 94 68 212 40 194 81 187 111 102 
149 173 27 204 226 230 76 1 122 172 122 53 150 147 93 101 181 132 1 218 210 194 56 23 150 96 217 231 28 73 77 177 246 105 125 216 79 202 217 201 118 83 255 12 230 92 113 155 224 115 117 179 53 174 202 203 14 163 178 42 236 255 219 226 104 89 186 183 35 147 129 153 231 128 165 205 220 23 105 189 138 222 112 191 140 58 138 155 221 60 197 202 59 161 172 164 250 103 91 29 250 220 182 225 92 91 175 57 114 24 246 252 246 102 187 131 160 69 30 125 129 227 71 189 132 244 97 126 91 188 155 85 153 81 55 245 173 230 46 31 254 36 28 244 138 215 119 42 29 149 168 158 121 239 91 253 227 188 124 62 121 23 148 18 105 203 7 22 177 54 53 175 90 81 163 229 41 27 15 70 176 183 228 41 167 64 39 138 252 163 201 117 186 93 135 35 40 143 57 217 
197 111 136 31 192 43 4 233 70 20 47 247 203 20 32 114 84 71 253 80 234 198 198 165 35 77 200 75 220 2 36 161 113 172 193 49 215 197 27 30 217 74 21 165 94 53 23 178 125 20 3 103 218 201 12 253 22 213 72 243 215 108 148 72 24 85 121 240 27 148 14 244 223 35 153 61 88 177 240 213 197 243 61 160 188 73 157 210 30 230 197 245 82 90 61 107 175 183 91 202 75 105 191 42 140 88 104 228 9 88 186 207 75 247 111 7 64 12 217 95 242 159 84 69 249 146 176 168 73 11 115 148 116 50 191 0 138 39 228 148 127 158 99 202 149 210 209 214 222 170 53 209 73 137 22 66 27 198 235 100 209 94 249 69 144 184 69 26 223 41 174 94 200 17 40 93 227 249 51 194 163 104 147 237 242 169 47 13 111 26 114 64 120 107 133 8 35 202 35 2 
243 209 96 187 227 136 25 198 129 76 136 36 181 27 17 167 196 65 180 51 91 38 115 212 145 248 220 180 194 255 182 182 209 22 113 180 158 138 122 31 215 3 68 140 30 85 51 227 150 231 22 242 14 138 198 159 130 162 84 69 162 10 251 115 33 108 39 191 247 161 223 206 164 35 90 195 120 141 166 15 116 188 1 130 70 199 34 201 105 118 14 11 128 9 126 161 117 165 97 108 71 64 58 235 99 148 174 219 33 84 234 150 17 235 24 87 178 58 32 28 176 46 39 49 55 166 210 173 75 51 25 146 115 84 126 214 232 44 178 10 129 156 160 146 136 184 233 58 243 10 86 163 56 126 212 112 36 167 29 111 218 54 2 78 138 128 36 115 172 214 125 45 115 29 191 251 213 169 53 200 179 140 108 235 10 64 91 46 231 120 157 194 175 159 16 57 31 52 172 204 
11 41 249 126 70 185 121 28 98 174 228 21 58 80 0 68 145 92 114 120 212 16 58 131 175 74 189 207 127 105 155 138 147 148 8 217 77 129 245 175 47 218 196 106 42 197 174 187 33 33 52 245 49 110 121 224 185 54 175 56 159 74 194 50 223 202 12 44 75 1 220 122 219 160 228 6 101 147 193 134 180 245 124 229 100 245 197 29 43 117 85 202 191 23 253 158 225 9 203 44 10 167 166 230 71 139 236 173 30 173 51 210 163 175 183 7 164 124 36 207 241 121 154 177 144 151 79 113 160 26 157 170 193 67 144 9 206 124 182 236 42 233 190 205 153 117 212 61 242 248 13 227 113 167 148 1 62 228 114 222 254 15 136 192 82 25 201 33 149 127 13 191 104 204 140 1 65 96 63 51 88 76 23 201 243 171 202 49 143 60 15 142 75 151 78 158 176 23 191 70 
150 204 5 254 152 146 0 218 242 63 13 75 139 36 20 126 208 223 175 95 27 190 237 103 85 59 5 6 82 196 76 232 144 81 231 41 227 231 3 214 38 16 33 177 53 53 47 5 20 222 100 48 156 82 151 241 141 156 247 224 96 67 200 240 149 175 25 120 150 28 78 188 45 111 109 98 165 156 103 185 122 203 233 22 29 128 8 171 28 255 139 124 67 83 109 216 3 134 80 153 163 159 86 208 14 195 50 179 96 153 109 218 100 86 241 130 215 249 45 243 248 184 112 59 11 221 19 14 99 100 168 6 3 254 214 17 193 8 197 33 161 50 252 6 136 237 136 95 230 181 83 222 109 195 26 120 160 45 135 3 145 47 10 148 45 224 166 238 233 107 16 138 157 12 144 37 249 24 133 223 205 216 189 58 155 215 179 59 5 58 62 150 105 72 43 150 41 209 132 18 
60 148 156 217 160 45 254 153 69 131 120 19 91 54 77 246 13 0 49 18 58 112 169 163 184 212 57 225 165 190 243 225 82 144 186 243 189 184 140 2 60 5 21 151 59 99 142 72 99 191 91 158 47 4 65 232 216 123 201 125 57 189 94 139 77 24 126 10 208 11 12 12 16 34 164 75 133 50 147 232 241 238 134 33 242 200 9 202 67 210 71 124 143 165 7 220 189 134 230 142 145 243 154 161 21 62 236 154 112 127 130 98 110 9 131 96 209 140 43 20 94 114 144 238 24 151 202 213 29 177 99 174 164 254 79 185 60 59 83 173 187 213 15 41 222 146 137 175 30 180 195 124 39 83 106 63 235 53 20 8 230 120 183 138 118 6 67 178 66 150 95 253 107 110 38 74 0 175 249 30 100 189 155 139 16 5 202 251 58 222 4 32 86 187 170 204 193 237 127 3 
131 222 0 239 77 38 57 77 214 50 108 58 239 7 197 0 12 143 251 71 109 255 103 196 186 18 144 124 255 15 127 131 238 128 114 59 166 171 136 124 221 244 182 205 251 123 205 8 10 200 79 120 200 182 60 130 200 204 254 200 220 126 75 202 254 189 5 164 104 141 33 69 130 215 18 125 83 223 133 93 168 212 213 112 139 17 242 83 222 241 27 186 111 102 132 109 35 137 17 139 22 50 209 152 10 227 22 93 195 155 186 107 112 144 219 251 161 205 78 127 190 106 57 45 208 189 154 244 70 172 127 93 222 80 245 232 52 11 69 247 167 0 98 23 144 61 18 49 10 96 177 201 202 234 246 155 168 145 143 238 61 14 75 27 95 65 4 147 76 73 138 243 73 236 10 217 41 28 11 51 125 188 252 71 166 243 226 78 132 113 61 193 128 136 220 223 201 224 114 22 
42 252 9 115 232 20 77 17 48 88 68 173 20 65 245 186 52 215 9 184 73 70 121 201 206 85 168 152 54 26 174 96 22 183 211 254 203 32 15 252 120 83 169 140 148 158 71 200 118 80 128 191 150 249 136 100 79 48 252 133 74 170 229 96 98 184 94 45 217 109 41 81 192 211 222 85 113 37 29 231 117 158 166 11 151 46 111 230 94 108 107 168 22 80 8 120 9 102 166 226 211 207 51 148 162 17 233 20 54 6 251 171 164 162 182 60 208 38 34 47 146 142 215 168 222 224 33 231 70 199 201 26 150 253 174 57 14 151 77 69 157 72 240 66 234 167 126 187 205 160 234 95 46 193 7 13 161 40 244 232 239 190 2 134 187 176 191 201 71 12 14 228 84 255 38 63 166 164 250 115 69 228 210 115 165 217 128 71 2 117 47 241 51 49 119 238 225 54 183 40 
66 198 12 151 197 51 214 107 215 208 222 28 180 176 144 89 137 16 160 139 133 207 125 184 0 244 166 225 43 94 9 109 36 22 4 233 73 218 84 32 170 50 61 94 226 205 184 107 221 88 247 99 40 116 27 40 104 194 10 147 32 19 1 68 41 5 45 114 224 129 147 138 179 208 233 149 157 161 0 122 249 247 221 33 107 249 74 212 187 84 103 219 103 104 31 145 110 76 3 78 205 150 216 128 102 193 21 3 98 21 126 92 13 91 125 120 84 199 76 15 27 180 234 131 28 9 20 138 85 23 216 34 174 177 162 20 114 183 24 213 205 150 49 218 241 174 82 70 118 159 85 145 83 64 20 111 73 40 250 159 64 210 193 238 131 100 2 246 27 26 203 232 176 252 194 162 170 21 232 32 180 61 178 7 125 198 118 199 239 112 102 47 67 39 29 198 139 31 188 167 
58 135 143 234 131 82 140 46 103 116 78 27 178 0 34 47 199 152 246 182 9 92 229 76 132 2 18 15 33 207 182 91 86 70 70 218 152 210 8 255 71 86 26 249 87 60 40 30 212 31 212 221 123 185 41 255 187 60 15 220 11 197 56 97 11 126 59 163 80 67 162 151 154 188 144 241 248 185 15 205 216 227 170 83 156 212 83 87 16 98 51 27 39 107 124 51 233 184 214 58 251 121 209 149 53 98 134 46 27 149 251 243 120 165 70 20 121 153 107 137 251 159 164 35 10 33 86 244 217 44 46 212 165 255 106 219 97 240 9 124 134 4 111 254 169 182 19 35 79 126 172 75 29 81 110 40 114 196 28 75 240 74 31 150 73 137 113 171 122 122 39 0 126 151 254 39 77 17 74 156 144 247 231 173 72 85 213 186 25 241 5 10 59 36 160 133 174 17 48 40 
139 87 40 9 238 38 48 59 56 123 216 200 114 191 117 186 21 75 116 46 60 121 56 120 157 216 253 75 233 45 115 116 132 155 125 115 194 174 174 250 41 134 194 155 70 55 85 91 130 201 137 191 66 194 55 223 154 52 43 132 97 158 248 229 58 118 88 252 36 7 246 77 141 184 232 211 239 61 46 114 6 184 49 72 122 104 39 20 156 82 152 253 241 145 226 43 7 59 39 43 66 29 120 207 213 96 163 196 157 209 54 163 137 103 235 3 207 18 24 107 101 176 104 86 65 75 129 72 134 168 115 200 197 235 151 154 75 58 94 232 12 149 139 149 252 118 153 204 137 177 55 238 97 160 68 163 235 197 235 113 109 95 57 50 74 208 204 150 11 42 126 23 191 10 172 188 128 69 136 9 246 191 247 88 95 59 251 74 0 230 187 109 69 244 159 144 197 107 38 208 
150 164 231 85 174 147 17 47 217 153 56 207 89 48 39 184 107 34 3 108 9 190 217 78 179 121 222 120 228 4 72 122 169 47 208 87 194 225 134 155 123 191 107 212 239 146 140 90 181 143 198 190 78 160 12 1 25 235 121 253 239 193 120 152 240 72 240 178 41 118 78 164 53 185 120 36 75 5 127 0 148 69 190 226 229 203 227 254 182 92 252 165 29 116 62 13 188 46 192 229 164 14 138 218 199 2 254 18 7 125 19 156 195 209 126 168 156 98 167 82 190 163 248 220 23 54 233 211 100 169 184 8 183 66 226 126 69 225 145 76 94 164 232 33 117 103 202 18 201 113 100 135 20 92 99 43 146 77 254 246 246 182 255 174 249 225 44 62 194 189 138 33 97 115 66 215 218 12 233 163 125 77 42 145 170 142 188 60 219 186 51 209 113 50 127 106 19 172 168 214 
105 50 247 203 165 57 162 127 70 139 34 195 216 77 85 130 219 17 191 182 204 242 135 61 36 7 167 55 179 79 13 28 129 4 231 39 62 137 166 132 20 201 71 237 22 156 111 241 174 46 167 122 32 46 183 68 53 94 124 232 173 137 5 46 142 236 85 204 118 252 80 138 197 151 119 219 52 231 204 226 21 115 92 54 161 19 122 215 113 246 191 30 128 196 76 14 177 162 218 39 158 42 177 99 193 41 62 245 16 10 215 37 125 51 91 30 70 214 245 183 204 181 213 76 121 34 90 42 196 52 81 98 94 3 197 32 44 3 21 60 13 237 97 138 32 189 168 103 147 158 30 95 83 244 172 204 22 6 247 218 59 72 60 153 75 1 185 119 4 207 179 17 188 21 155 220 210 67 67 101 225 98 196 52 86 112 1 108 119 248 70 178 64 130 75 140 131 5 3 135 
212 183 152 144 204 51 108 158 118 176 3 88 18 199 140 104 56 141 212 175 133 26 97 198 156 172 82 31 177 85 166 133 12 62 21 216 113 130 118 231 50 121 63 68 65 204 172 121 89 128 40 223 154 137 165 54 53 247 85 231 76 251 108 89 57 130 49 170 4 168 145 54 33 209 122 98 157 38 219 246 166 3 213 64 140 122 118 194 113 203 169 190 198 21 23 255 151 72 169 155 240 58 209 18 11 75 116 168 113 80 159 23 83 116 87 224 239 205 162 96 152 75 30 94 96 53 93 248 126 6 147 110 65 101 128 76 176 245 245 34 69 148 57 152 8 145 120 247 94 26 88 247 101 118 85 198 172 179 190 42 185 81 152 250 182 25 71 103 14 60 137 83 208 194 235 216 83 100 208 178 126 40 169 228 158 254 170 74 177 104 116 107 185 13 101 112 38 172 215 52 
232 96 135 184 34 114 145 118 214 97 40 85 137 209 57 39 207 227 114 129 75 230 236 4 243 81 116 25 254 75 77 230 171 212 159 206 71 48 68 29 145 108 114 26 61 171 65 12 142 179 141 217 154 121 222 141 203 82 167 201 158 244 175 73 201 78 23 16 126 91 45 15 199 160 41 4 75 107 17 218 30 158 179 184 24 145 70 227 228 237 172 130 225 91 203 170 170 227 186 40 62 232 56 6 136 97 10 211 204 27 173 235 186 97 163 210 242 233 181 214 214 97 88 184 188 36 98 102 7 29 143 69 5 199 75 141 40 86 96 245 113 14 224 43 111 131 253 97 109 178 56 67 19 144 251 208 180 94 54 187 123 197 1 128 140 76 13 181 162 109 170 20 123 138 63 234 13 61 76 122 239 132 190 3 20 185 211 201 23 9 132 146 207 133 18 91 210 31 16 116 
141 186 136 8 68 200 243 82 5 63 204 244 195 138 247 215 68 202 160 91 212 37 238 163 170 0 254 124 32 15 241 173 201 121 181 14 65 168 96 70 231 44 59 170 183 50 130 251 253 34 86 209 71 68 116 242 69 114 110 101 129 95 18 75 217 199 89 26 112 185 97 87 229 156 2 156 206 132 151 203 166 238 156 238 50 16 224 119 131 78 220 4 174 238 79 135 182 168 161 38 97 2 125 71 158 127 227 109 3 123 56 170 105 213 152 155 229 120 19 104 198 239 109 116 222 188 251 148 101 157 186 198 159 55 13 62 183 241 171 186 108 227 100 213 184 252 112 158 116 131 6 59 115 115 175 81 48 171 229 149 72 159 91 231 214 105 37 141 90 208 72 198 180 172 155 108 169 11 10 29 143 17 88 2 132 8 83 180 179 56 73 251 215 165 226 173 14 8 59 104 
216 131 46 140 47 201 249 216 212 3 246 99 20 78 101 153 86 184 77 9 240 151 4 199 60 231 117 74 239 176 178 199 51 224 84 98 169 77 59 125 80 49 225 101 127 70 254 214 255 75 223 239 226 228 183 30 203 44 104 186 220 26 129 15 250 213 113 163 34 172 33 115 221 2 216 93 72 214 51 71 33 18 55 4 246 238 34 193 26 139 123 246 165 253 5 160 210 118 67 245 35 100 104 0 102 64 93 175 22 144 246 55 163 45 59 153 27 94 91 53 233 214 43 142 211 48 46 166 167 114 155 202 214 3 202 61 67 40 236 89 184 226 144 91 16 204 245 43 42 80 97 19 38 140 161 250 189 208 160 100 66 59 46 24 62 248 85 129 32 65 218 217 36 106 52 52 54 41 95 96 121 192 115 160 77 21 154 10 229 58 110 39 117 156 63 179 148 149 52 181 
214 14 142 250 120 194 46 175 236 142 15 101 78 131 5 155 152 159 165 125 217 19 164 78 175 227 1 68 120 53 249 79 67 135 73 188 73 120 107 53 6 122 155 84 253 160 240 149 64 149 18 25 169 182 104 88 154 105 156 18 159 149 97 226 28 171 158 102 35 9 155 41 132 54 125 129 215 109 23 23 3 41 48 172 224 152 4 122 2 161 140 161 54 238 131 83 153 34 185 188 43 84 229 175 139 98 49 98 208 72 121 211 113 169 127 81 66 131 203 68 36 88 229 91 70 104 174 223 138 103 155 182 187 128 101 70 226 150 168 178 222 33 133 80 203 4 161 13 136 109 81 172 197 54 7 11 158 181 234 41 28 133 223 216 5 68 30 231 219 199 154 185 232 31 9 179 36 171 192 172 24 17 88 221 71 96 232 230 21 210 15 50 87 238 10 92 50 40 67 13 
239 221 199 216 253 208 139 33 123 76 205 147 93 37 112 165 133 88 139 155 42 154 205 129 136 215 221 186 255 33 200 239 254 143 199 251 95 82 28 219 158 233 110 252 15 223 161 148 55 44 47 98 198 252 227 78 211 193 8 211 226 208 194 224 95 137 220 191 219 248 154 122 226 8 118 241 231 23 133 31 67 181 129 9 177 100 87 133 37 95 88 7 48 26 232 143 163 196 78 126 188 232 248 158 241 110 143 216 133 21 247 200 202 120 209 123 221 40 0 2 136 88 10 184 114 242 71 21 182 150 148 114 126 140 17 111 251 160 72 128 181 63 73 127 184 26 251 149 67 251 151 203 84 161 131 198 147 202 220 73 96 112 188 223 252 205 78 247 109 150 120 35 214 193 162 142 219 157 35 30 153 186 233 237 92 108 179 239 55 143 57 151 255 245 118 252 194 197 243 47 
91 107 82 49 44 245 191 8 146 226 38 43 157 16 24 249 124 204 232 179 91 33 75 91 22 193 87 216 134 74 8 226 182 90 19 226 79 211 234 226 181 17 13 82 33 38 75 157 242 52 81 77 85 156 168 108 93 255 68 228 74 76 198 0 167 217 226 246 172 205 216 98 222 230 180 255 12 0 156 254 52 237 75 137 137 244 245 231 243 58 203 61 134 145 61 45 106 32 36 23 237 252 121 203 226 45 202 238 45 102 236 97 84 56 235 221 44 224 196 31 26 143 93 161 32 154 206 139 186 242 162 167 239 27 114 209 72 60 192 118 163 172 215 247 228 194 212 16 163 153 48 189 40 141 94 73 39 45 212 226 31 118 137 14 145 252 224 217 56 160 79 219 76 39 210 49 233 167 65 140 64 113 74 104 254 168 177 38 213 133 8 245 251 145 3 140 141 227 102 198 
131 181 161 208 220 116 1 198 27 66 82 91 180 156 195 178 69 117 216 26 250 224 15 246 114 19 130 255 246 232 197 122 158 103 74 122 219 75 64 246 141 147 81 65 47 20 244 116 137 204 143 132 173 158 122 31 177 252 30 168 229 228 34 131 75 108 253 38 183 62 28 68 209 109 134 0 129 122 117 11 70 4 143 243 162 9 18 84 5 49 252 234 21 30 109 96 138 107 134 65 169 162 133 122 15 11 122 144 133 239 155 204 243 42 191 150 51 210 234 57 3 230 35 24 4 145 120 142 252 254 207 165 160 84 31 175 96 153 63 229 137 219 177 124 5 113 18 57 67 252 114 70 226 149 94 230 38 214 116 34 212 67 199 116 152 230 35 248 128 98 221 9 61 143 133 67 0 152 124 67 148 238 137 119 131 231 93 170 189 210 204 145 21 148 5 173 122 40 165 250 
138 131 3 200 18 137 11 18 33 135 85 181 117 222 44 248 197 138 162 130 92 111 19 113 3 24 31 125 64 196 120 202 71 123 146 89 4 157 107 37 36 192 219 153 158 7 146 99 145 52 229 237 163 248 95 166 16 126 36 80 66 156 27 138 23 173 227 28 75 79 65 111 15 28 9 174 36 155 17 181 207 247 163 115 239 2 25 0 128 61 80 194 217 107 76 241 25 48 13 100 127 78 211 142 107 220 60 143 119 78 68 71 69 231 186 52 233 211 52 105 17 133 44 234 240 120 219 9 168 232 109 39 55 65 182 162 29 242 49 149 64 117 220 133 93 150 186 70 105 238 176 122 115 220 101 100 84 64 109 253 41 219 36 96 28 218 2 57 205 51 206 13 168 170 147 5 64 77 76 170 59 252 36 175 216 137 19 44 202 128 41 243 91 78 83 119 40 85 177 245 
136 127 3 48 42 150 54 106 227 130 20 30 126 57 205 86 194 224 130 140 97 172 127 188 250 210 52 34 39 229 24 175 100 27 224 142 177 22 249 148 152 13 178 22 70 128 108 9 96 238 149 193 154 21 126 148 231 178 183 15 151 207 190 251 234 158 138 155 180 131 47 76 144 225 98 215 97 206 224 194 189 117 131 87 138 1 236 114 179 163 129 74 114 63 70 92 222 208 247 146 83 38 223 227 7 65 186 105 16 154 43 205 16 174 36 154 176 16 12 99 179 141 174 37 205 244 129 171 196 120 61 23 158 28 250 166 94 181 15 110 79 58 59 95 232 95 250 152 112 6 252 35 148 170 73 97 158 202 12 98 67 73 121 225 102 115 135 196 40 150 50 120 208 109 215 185 204 209 81 60 216 77 96 108 247 169 205 149 115 217 247 182 34 112 152 136 228 31 76 12 
182 126 132 134 235 92 63 184 45 145 244 5 222 84 113 214 253 62 107 113 23 99 39 58 211 191 194 183 223 15 196 149 141 72 27 121 164 91 49 210 236 37 215 202 122 73 160 119 135 12 232 159 111 16 217 66 207 155 250 174 170 190 67 56 6 95 177 171 186 226 125 166 7 84 112 129 157 17 249 37 29 225 196 140 241 157 206 193 56 200 111 227 134 179 27 141 18 204 56 204 174 181 114 181 9 226 55 167 243 48 204 16 17 144 156 3 45 107 196 101 51 51 72 186 230 99 71 248 47 127 196 221 52 54 147 61 25 202 228 12 250 176 29 11 64 185 14 109 36 210 211 88 6 27 18 236 127 89 229 174 216 169 140 12 224 31 73 249 233 46 5 227 222 34 238 31 220 253 140 0 207 95 88 213 123 106 194 250 195 167 168 155 80 52 167 48 83 241 41 60 
31 47 31 253 81 14 28 45 11 169 46 218 8 134 176 131 241 114 125 180 25 38 80 105 90 247 154 174 232 195 234 7 242 10 5 68 24 33 113 35 202 159 253 211 38 173 86 23 31 212 203 56 250 27 162 84 19 60 2 251 255 237 3 242 247 8 54 15 41 167 50 244 71 47 199 109 221 29 132 252 241 79 53 235 107 215 64 126 19 66 121 18 47 124 4 38 132 58 53 174 226 103 162 41 151 105 150 116 134 26 112 120 105 165 99 212 124 163 82 143 230 204 162 21 72 166 60 205 225 113 123 195 217 29 236 112 134 130 228 12 156 84 132 5 250 232 218 118 139 44 6 113 248 168 135 65 78 195 14 47 52 137 242 13 166 222 125 44 96 97 56 252 182 189 2 176 165 220 38 48 8 44 162 1 212 41 66 35 236 80 82 32 217 69 46 127 35 171 171 132 
13 227 128 195 160 130 115 69 94 153 118 103 198 24 104 154 65 170 189 45 250 16 77 211 85 123 82 120 39 253 252 52 224 125 247 129 255 106 198 94 3 60 197 201 84 45 100 149 215 33 194 209 49 16 164 134 139 246 255 178 243 251 230 211 120 221 84 120 71 27 214 75 87 155 20 172 200 120 65 159 154 4 112 203 20 20 82 159 10 81 82 253 76 56 208 197 22 37 61 93 64 19 168 151 174 189 67 118 53 133 21 207 137 133 155 157 153 237 60 163 62 142 160 138 199 112 79 221 149 140 58 213 159 227 109 77 160 176 195 213 53 216 165 190 93 64 91 246 45 152 153 107 38 57 245 237 170 69 202 63 209 5 21 113 232 130 190 136 50 130 93 104 90 2 38 184 66 130 174 111 26 72 218 64 129 208 46 43 21 248 107 230 253 128 87 229 2 22 109 52 
152 203 156 242 205 195 170 16 69 89 127 95 161 90 159 34 42 205 78 63 198 185 37 195 57 125 169 59 147 22 111 43 225 12 29 175 207 200 191 20 33 62 115 194 152 18 228 194 224 50 1 166 235 39 105 36 164 18 95 55 41 207 98 10 219 127 185 170 71 120 190 104 183 49 42 79 67 15 18 35 65 19 201 45 58 51 81 222 69 177 21 110 128 119 121 91 247 50 5 62 171 195 167 98 244 209 177 55 224 195 91 34 215 36 79 17 87 160 240 157 81 5 11 209 125 132 44 116 183 49 178 98 244 89 196 232 43 117 32 11 57 123 45 16 159 124 33 247 29 17 148 110 23 159 64 148 36 108 8 219 158 186 61 146 20 1 123 63 118 155 74 175 22 120 191 181 244 225 172 17 242 64 128 9 224 192 157 4 44 165 223 202 96 28 93 116 29 216 179 147 
115 253 67 137 117 2 62 106 227 235 123 214 43 251 223 11 187 125 15 232 34 238 178 130 10 15 246 39 231 169 187 90 167 254 227 28 0 34 134 228 13 2 186 56 253 153 68 185 22 83 161 57 66 83 187 76 99 178 116 74 91 47 165 2 45 136 31 45 170 165 17 183 167 203 240 165 101 52 94 123 135 255 180 201 82 112 22 181 34 138 0 125 185 165 128 230 45 159 19 216 68 37 143 236 240 127 145 85 179 239 209 59 238 133 4 64 245 26 246 23 164 246 149 93 155 21 67 200 180 87 160 248 124 48 228 108 175 117 194 99 100 147 158 82 24 162 147 14 189 137 37 97 127 186 191 26 207 2 226 131 89 131 124 213 179 96 66 98 214 4 197 58 151 99 141 175 6 32 189 195 169 227 36 40 157 227 66 109 230 36 240 63 167 108 21 90 205 87 189 163 
91 130 221 242 230 106 161 236 138 95 175 51 66 211 91 223 183 157 76 157 194 61 220 105 169 241 196 118 72 129 25 163 3 247 149 233 97 55 213 236 150 132 31 216 88 123 183 15 24 4 172 218 65 136 68 234 122 8 97 194 137 122 102 140 113 251 118 211 50 75 191 200 208 222 160 40 89 88 55 114 92 227 76 157 107 144 135 229 152 232 168 33 99 14 174 212 9 36 167 60 111 102 4 63 69 165 103 158 253 158 16 89 129 93 246 237 237 125 210 134 102 122 167 201 136 85 157 146 121 69 206 233 171 210 40 240 119 144 143 116 46 159 205 176 252 195 157 234 65 111 112 167 234 23 112 114 109 13 4 230 82 210 207 254 165 248 238 28 136 125 145 182 29 94 102 25 34 3 3 99 115 115 10 93 139 122 207 248 135 212 222 218 166 174 216 75 166 198 104 46 
68 249 228 97 87 75 122 121 78 126 220 193 241 230 30 124 96 238 116 232 194 83 194 104 1 154 180 167 96 28 213 164 21 185 5 108 4 128 230 83 254 194 20 239 169 51 108 9 33 224 241 227 51 179 75 52 77 255 219 174 27 176 82 48 106 88 157 110 216 131 193 214 69 214 197 238 9 49 248 42 18 233 13 69 157 88 122 234 88 85 152 115 6 235 164 112 67 65 222 27 196 160 241 9 118 182 248 127 232 240 169 250 217 182 63 118 14 185 97 102 15 249 218 21 228 126 133 39 191 99 66 131 3 51 140 121 234 132 248 210 116 161 204 78 87 11 196 102 197 37 204 212 31 166 233 3 36 110 43 227 209 109 102 213 161 243 78 139 119 71 93 236 232 41 58 64 52 254 166 249 36 114 205 67 25 182 70 61 36 113 33 246 223 135 203 128 122 25 11 242 
96 104 222 73 145 24 137 197 22 47 191 58 161 140 125 186 67 196 248 103 53 25 93 20 160 40 148 27 66 159 13 162 7 235 235 152 3 116 94 25 163 29 84 69 169 209 255 236 149 247 84 203 16 177 223 177 218 116 204 28 19 217 190 27 196 170 179 199 30 17 224 194 46 52 7 216 6 6 196 155 254 24 102 14 202 70 191 164 186 139 192 205 100 126 232 40 40 156 239 71 173 208 9 220 4 16 180 10 22 120 166 20 145 12 35 91 82 226 255 12 110 191 218 210 61 194 251 102 94 234 173 12 186 182 232 191 198 156 201 220 20 111 241 165 124 20 0 206 246 255 219 100 190 181 55 252 119 50 98 214 28 15 226 215 197 202 150 139 102 95 103 122 207 88 32 75 108 32 25 99 32 244 199 222 169 254 218 33 48 60 247 77 75 217 36 16 163 186 155 9 
25 3 131 232 91 163 51 200 196 77 43 228 65 242 194 235 241 157 12 33 217 3 110 37 220 146 53 127 76 209 136 102 212 11 78 47 175 130 247 115 207 34 87 16 21 25 251 6 182 7 39 144 10 150 181 230 40 234 101 117 187 237 219 143 249 41 191 168 171 182 27 122 217 114 139 238 139 134 244 66 142 27 210 152 177 135 127 218 113 228 79 45 210 42 188 203 83 123 115 255 50 142 121 11 0 4 249 139 139 237 205 25 8 159 177 186 38 48 148 152 21 227 197 231 13 129 178 96 253 37 95 47 179 217 58 179 221 51 62 104 32 12 129 40 171 51 226 210 99 118 106 120 89 47 95 102 176 17 199 173 54 38 220 233 255 22 156 221 73 219 69 105 231 199 146 146 250 116 100 93 235 206 214 68 253 53 171 174 71 114 91 125 152 56 103 152 78 3 117 152 
222 186 1 197 129 147 88 123 8 188 217 243 139 175 55 136 228 226 54 43 84 146 169 237 202 16 133 24 19 250 176 242 180 178 183 54 69 15 177 77 204 138 64 87 57 120 223 30 90 22 73 175 168 242 156 114 2 33 138 22 27 59 8 207 237 191 5 50 207 183 128 155 65 192 242 123 56 209 153 147 231 226 66 143 213 222 1 215 255 140 237 26 199 245 233 180 181 239 230 132 166 102 31 231 39 17 98 95 226 251 242 202 222 52 89 179 18 91 138 17 231 120 43 174 109 21 98 34 4 72 166 170 175 197 145 214 214 244 53 185 239 40 131 205 92 220 128 111 55 11 128 30 131 172 204 240 193 46 19 197 119 185 111 38 127 0 252 85 244 49 14 228 89 145 177 182 110 50 37 165 61 165 196 192 81 144 176 18 191 195 215 54 125 70 92 252 71 88 81 59 
137 96 31 227 241 209 153 95 3 190 5 64 99 201 0 181 89 176 199 24 116 159 78 241 229 170 237 44 2 62 104 140 158 135 111 144 88 8 239 91 198 244 155 41 189 155 222 23 76 166 47 192 69 126 177 42 40 158 87 43 220 191 183 123 70 38 11 159 46 250 250 244 239 150 29 172 49 252 195 125 162 243 61 231 113 238 17 153 140 104 196 105 39 123 228 110 161 239 13 207 233 7 195 216 157 225 133 207 221 72 76 127 59 138 102 172 120 119 70 5 224 10 110 7 134 82 117 39 65 130 247 42 138 186 3 39 155 136 246 120 208 67 247 12 205 93 184 69 213 254 74 181 9 184 188 143 10 50 182 75 180 173 118 62 104 121 102 3 1 92 124 209 159 115 221 108 209 150 178 166 148 252 91 157 181 23 44 191 73 227 11 254 144 129 60 248 250 162 252 251 
255 120 204 158 235 170 11 188 64 189 98 212 185 189 114 110 213 158 46 30 129 57 28 18 186 89 10 180 251 6 175 250 126 123 153 106 37 164 38 101 97 137 58 26 70 172 137 27 74 183 58 204 240 86 222 170 175 232 94 171 239 13 165 109 136 62 215 174 226 254 19 67 135 77 94 205 249 231 233 68 158 35 16 142 121 238 56 41 214 150 212 197 163 121 51 43 184 10 217 154 8 237 222 143 58 60 93 52 35 70 120 193 105 136 79 226 118 135 11 76 29 223 18 192 89 69 235 17 79 197 171 88 178 137 231 236 197 68 32 232 138 152 169 243 32 248 214 150 127 225 227 156 193 245 92 26 58 72 43 137 13 214 225 191 96 201 171 37 13 204 14 152 100 183 139 133 176 97 27 47 67 254 204 4 243 40 30 45 112 73 183 125 31 152 60 127 97 232 165 111 
180 179 7 24 106 146 157 26 244 185 74 55 183 22 59 171 62 89 216 175 162 143 44 193 40 105 65 137 81 230 248 5 153 255 29 3 146 187 30 134 116 104 189 43 126 248 214 188 81 175 107 243 62 152 180 102 1 245 240 82 219 232 87 116 232 116 120 122 47 150 0 163 254 189 207 124 181 165 56 6 84 164 249 147 60 173 249 61 163 233 143 126 210 230 243 186 90 107 52 138 1 52 45 255 241 252 123 166 162 179 172 246 87 165 137 147 82 131 208 245 108 95 116 62 69 103 248 160 210 44 42 211 96 87 210 81 84 77 247 246 0 163 236 88 72 118 235 155 249 188 144 101 27 4 164 97 107 156 1 61 201 43 16 41 130 226 123 214 47 114 204 48 22 185 136 94 47 115 249 40 47 138 141 75 142 49 172 250 206 173 55 151 216 72 192 90 42 59 49 90 
