P3
 200 100
255
41 29 154 45 72 227 51 231 147 33 83 160 29 41 10 50 7 185 15 169 35 47 74 72 21 112 211 20 180 144 25 78 84 26 50 213 41 197 10 4 101 197 5 111 110 45 41 243 46 76 229 0 149 28 32 104 243 4 249 96 11 77 156 13 34 246 42 44 152 23 241 33 30 95 254 39 82 3 20 56 16 41 84 198 25 72 199 34 168 55 47 69 92 49 59 207 13 211 116 6 244 222 29 242 173 0 246 235 8 6 83 12 205 7 44 148 80 13 203 1 34 39 172 45 246 163 48 106 189 52 72 2 7 245 57 45 225 206 11 52 182 24 59 214 12 139 75 8 140 7 55 56 108 14 220 22 48 153 251 17 155 179 38 212 96 47 163 255 11 89 148 46 48 47 25 123 152 30 130 148 22 239 92 10 5 76 51 1 50 23 180 130 27 20 27 6 19 170 32 167 25 24 215 189 51 111 155 45 3 5 36 96 251 10 172 41 27 222 52 7 96 215 4 124 22 7 38 42 47 63 224 22 252 240 53 152 48 8 157 235 24 152 41 28 193 85 34 245 135 35 205 186 15 227 162 29 13 158 20 238 173 17 222 100 9 15 242 46 250 239 46 35 240 47 121 80 45 0 93 18 187 71 29 93 146 51 251 89 1 168 70 39 13 115 6 255 156 33 239 93 12 223 187 5 47 177 38 140 104 9 212 21 22 102 143 41 192 237 17 6 88 22 121 177 22 21 232 29 114 47 20 45 112 19 222 212 0 71 178 12 92 144 42 236 41 26 217 31 33 49 16 10 226 169 32 202 80 50 249 246 24 105 139 54 62 255 37 240 162 42 128 210 46 169 214 31 200 65 8 216 107 18 129 156 4 209 71 54 199 7 31 82 57 45 81 153 5 244 216 29 198 93 14 157 63 54 222 13 6 73 180 0 230 140 9 45 70 33 52 203 27 109 73 53 7 48 17 223 86 47 60 107 52 124 1 34 137 63 4 62 70 10 202 36 15 17 132 11 220 182 32 37 175 31 85 250 6 171 151 35 23 40 47 24 128 32 87 116 46 157 71 41 194 99 34 70 101 14 252 148 35 171 247 0 166 199 28 61 159 19 102 85 35 230 72 42 90 183 16 161 176 2 4 230 40 105 231 29 253 249 40 244 231 6 188 250 4 91 99 50 176 119 8 249 162 42 176 229 4 96 127 8 71 183 50 46 177 31 40 242 20 15 47 32 10 23 27 109 166 51 228 114 44 134 164 37 107 188 45 234 46 4 162 66 35 83 91 19 69 221 50 116 92 52 140 208 9 50 0 5 164 139 43 72 199 46 4 251 41 50 224 43 117 38 22 208 178 36 173 109 
24 9 80 28 218 67 54 218 63 34 102 169 2 45 246 6 40 202 33 9 8 14 47 49 30 225 252 27 79 27 52 159 127 14 226 87 41 34 188 15 203 82 44 193 141 4 139 15 45 148 150 12 197 79 38 194 125 45 221 123 20 92 38 15 179 218 9 111 105 12 194 210 53 79 161 41 94 157 29 244 193 34 67 239 52 192 75 9 59 137 37 97 22 33 60 67 8 165 82 18 119 131 1 24 127 24 181 60 36 118 133 32 101 98 48 177 5 4 58 105 21 81 171 41 148 72 22 230 153 29 105 90 21 232 220 42 36 174 9 170 222 38 12 2 31 17 106 10 123 147 3 38 247 31 110 188 37 8 190 30 98 100 46 62 130 26 236 183 52 202 162 1 205 3 42 55 201 21 202 65 27 193 243 2 126 246 2 60 141 36 160 10 10 34 240 23 218 190 41 124 176 30 127 77 22 72 246 8 137 176 18 124 230 48 114 65 52 255 11 52 9 221 47 249 17 33 183 132 21 104 227 20 181 12 52 171 3 54 91 49 2 65 41 53 131 227 28 142 27 46 108 143 23 125 164 47 1 219 31 228 236 12 241 121 47 244 133 50 37 217 4 78 183 31 50 18 45 77 223 49 221 171 7 129 129 0 92 81 37 72 216 30 193 199 10 70 107 55 31 186 29 215 100 39 233 80 45 200 191 42 115 189 11 245 38 39 70 13 7 30 246 32 229 195 6 80 129 21 10 51 36 110 10 21 191 47 29 126 135 17 59 44 30 98 174 36 111 177 10 101 16 55 40 183 39 169 31 9 220 205 55 230 154 30 22 63 45 157 204 32 201 34 26 119 235 34 40 169 55 56 173 0 239 207 49 14 214 30 219 45 52 117 142 18 180 93 39 129 236 16 163 249 7 142 65 7 55 236 23 228 6 38 179 133 36 137 45 23 182 127 37 68 173 25 161 193 26 141 236 37 134 179 35 200 68 18 180 75 38 186 123 17 63 226 10 109 57 40 236 157 20 153 221 30 90 146 43 70 251 34 250 230 50 62 115 30 137 143 24 4 225 31 231 24 36 32 1 0 189 116 25 154 156 36 44 9 34 40 23 20 14 178 34 129 212 28 16 190 8 242 92 55 10 180 47 11 76 53 127 80 7 28 65 20 37 202 28 60 174 18 238 217 51 195 253 28 129 96 30 222 76 16 146 60 11 222 20 43 47 11 23 112 192 28 58 16 0 233 140 38 194 48 49 191 226 27 31 21 41 107 89 3 168 143 42 188 207 25 199 27 33 136 230 27 152 205 52 36 217 30 84 33 54 54 87 53 75 81 17 165 204 9 52 37 13 4 16 4 31 218 
52 5 211 52 210 60 32 171 224 52 204 108 26 35 187 38 116 201 27 64 246 23 101 143 43 118 208 26 80 205 15 36 146 33 96 222 52 64 195 24 173 203 4 104 40 24 49 186 41 39 152 54 183 27 36 135 211 5 85 142 49 231 105 33 197 72 42 136 250 55 84 86 47 124 127 0 54 203 7 207 139 46 234 140 38 189 243 51 76 207 34 181 252 23 253 77 0 247 255 12 78 241 24 205 144 22 152 151 29 35 207 16 176 46 5 163 69 9 114 227 38 111 214 28 188 176 19 187 79 25 172 119 54 60 243 54 211 235 34 162 26 34 209 23 37 22 255 23 249 165 38 207 150 19 127 61 38 206 225 27 70 124 39 57 102 51 37 28 5 63 107 6 86 221 44 86 255 5 251 196 36 145 251 43 206 162 10 175 5 16 44 35 17 146 238 54 174 246 21 25 209 4 246 78 2 245 157 37 185 1 14 181 95 45 87 139 28 92 55 24 127 177 34 110 113 25 100 106 50 53 137 1 131 230 38 32 154 40 34 164 45 129 169 4 12 64 8 67 165 7 244 185 29 101 250 41 208 204 22 89 77 34 63 232 10 218 121 36 126 255 21 40 63 26 104 52 13 13 128 2 198 40 7 192 80 7 141 229 40 218 223 16 194 13 18 59 191 24 59 146 40 122 134 24 175 252 29 47 126 44 88 67 20 168 253 49 141 29 28 108 12 6 122 85 10 57 221 37 203 63 39 82 31 22 78 40 30 204 152 14 15 22 6 13 90 51 42 94 8 54 240 50 139 92 43 104 138 39 167 244 33 199 153 55 239 185 51 135 135 2 157 133 23 247 219 49 86 217 48 70 101 43 162 93 36 44 207 3 33 122 10 186 241 25 115 186 17 251 209 14 128 180 46 92 167 4 53 166 34 154 208 12 247 48 24 198 27 25 65 111 12 50 107 47 237 45 18 190 223 19 115 24 23 26 238 36 192 188 39 144 224 38 192 74 13 220 86 6 75 143 24 182 232 21 228 252 4 195 132 55 219 6 17 201 9 41 134 104 34 102 253 2 177 44 30 7 82 26 150 63 48 127 109 36 123 206 55 255 27 26 6 39 4 15 166 34 120 63 32 117 153 33 161 131 49 243 45 55 51 180 54 160 134 42 110 14 49 138 123 39 177 170 31 88 181 31 151 137 4 48 227 45 179 163 40 225 21 27 149 142 12 27 157 18 41 44 12 164 54 22 79 63 46 4 79 45 141 110 6 112 5 1 19 17 18 40 190 7 182 94 2 84 50 12 128 166 0 182 136 23 245 245 35 68 19 0 178 137 16 183 150 36 200 212 44 134 198 11 229 152 
55 23 0 39 189 130 29 69 46 18 58 127 47 77 30 17 214 194 17 109 242 33 65 147 40 7 71 37 160 35 20 160 182 1 34 157 14 81 4 1 208 33 22 238 52 37 176 139 50 163 148 11 54 85 43 125 223 51 160 239 19 87 228 13 244 240 6 249 185 14 26 199 29 78 16 45 217 167 32 110 20 6 195 238 3 162 9 52 145 44 35 117 239 7 101 82 8 30 216 51 230 174 25 246 85 35 157 234 25 177 47 28 159 24 7 169 54 0 213 210 30 197 14 43 23 161 42 239 40 24 158 169 6 243 68 36 221 45 37 12 240 5 36 33 30 91 22 3 45 173 16 59 213 16 220 115 15 4 119 5 173 153 0 241 161 29 31 159 50 15 59 14 49 137 9 71 118 22 244 12 9 201 119 13 61 168 42 180 240 47 77 39 9 238 253 32 141 197 55 201 107 32 82 29 47 200 243 35 212 37 53 75 131 2 243 29 38 227 146 3 11 12 33 8 52 6 205 77 31 56 133 1 85 204 33 73 69 45 110 4 25 241 184 44 14 53 24 161 239 43 173 93 51 225 24 8 46 193 9 179 247 6 128 247 55 197 72 37 201 98 47 129 79 21 182 136 14 165 181 12 2 197 5 26 224 44 219 3 47 211 243 55 202 28 44 18 155 46 116 98 23 196 152 30 76 191 51 1 244 30 198 203 48 166 79 12 169 180 39 157 72 33 185 144 51 84 87 24 183 228 28 79 58 0 14 17 26 2 159 32 205 211 31 28 9 16 209 89 53 25 133 7 169 132 51 1 77 2 229 41 49 31 121 31 48 141 50 208 237 23 163 79 44 172 120 5 5 71 46 139 191 48 15 213 17 93 164 30 134 199 45 255 162 13 140 203 21 121 3 48 201 61 28 65 68 34 136 104 21 71 93 44 28 108 9 192 36 23 136 221 54 42 123 42 245 56 28 248 37 13 53 227 22 122 67 6 226 80 45 64 98 42 172 255 26 208 171 50 173 181 4 40 68 34 96 211 42 133 237 40 104 129 34 172 222 12 252 124 52 94 162 40 93 16 0 8 154 45 189 228 21 2 183 29 213 179 11 194 165 43 68 144 47 34 176 35 159 74 41 65 198 14 81 131 39 235 235 28 208 36 46 135 9 19 58 23 46 224 132 42 112 119 44 32 211 19 106 218 13 48 222 14 179 63 10 159 254 50 195 197 33 204 73 43 227 208 19 104 43 27 223 73 11 178 171 45 141 48 30 107 83 1 170 184 16 168 111 43 109 17 32 183 131 27 135 124 3 178 175 11 252 195 37 167 70 26 215 234 29 43 247 16 227 53 0 82 39 6 99 183 
45 230 11 36 98 43 54 18 46 50 213 154 34 27 229 49 5 226 12 253 109 24 50 98 10 89 2 38 17 75 44 28 1 47 71 110 33 117 98 46 15 8 17 244 171 55 215 245 20 68 22 54 166 99 48 169 147 1 244 21 53 245 251 28 99 200 33 197 247 33 205 56 21 120 78 20 109 127 0 132 182 31 231 234 32 122 81 28 143 17 25 139 226 12 83 207 33 74 3 22 130 172 39 208 101 36 79 19 16 6 151 7 240 96 17 65 207 41 82 231 20 52 243 39 3 244 17 6 88 43 179 129 51 24 119 42 43 230 16 195 195 49 35 35 50 242 107 45 217 44 41 204 125 53 192 89 19 24 136 30 153 1 47 16 252 50 247 199 29 186 226 40 221 2 2 72 19 43 117 102 7 242 11 31 76 228 55 212 193 40 214 165 25 210 59 16 154 234 34 124 197 15 126 98 32 146 35 5 248 213 15 3 97 43 231 184 40 169 208 6 78 255 40 137 200 26 116 161 46 57 113 21 155 251 7 190 98 55 148 18 2 245 55 41 173 79 42 125 178 24 125 234 26 69 248 30 230 217 23 87 83 10 82 74 1 180 191 53 199 198 26 254 197 39 77 199 13 0 176 26 234 67 39 227 35 45 188 141 44 15 107 14 89 130 10 24 53 9 222 166 40 163 171 5 106 165 5 27 76 8 94 113 43 129 19 55 15 250 54 122 199 48 253 235 24 50 97 31 216 140 10 131 125 37 40 109 8 116 171 38 230 232 23 249 16 46 244 27 9 187 226 30 167 185 24 8 233 16 148 49 43 18 88 19 127 35 39 42 88 29 19 168 55 35 86 19 63 133 6 33 196 29 218 125 6 195 51 2 245 27 12 77 219 44 112 30 6 200 137 17 112 104 13 198 46 4 76 237 21 16 160 32 141 14 43 192 36 32 219 66 30 182 244 46 212 185 47 93 253 39 197 107 30 243 237 2 224 146 18 128 118 39 143 123 55 179 91 18 245 255 0 233 151 12 162 125 33 159 212 46 11 243 34 248 130 42 138 216 43 0 122 42 123 44 13 215 107 18 214 106 27 109 68 54 235 212 13 191 56 0 178 249 40 52 128 34 13 250 18 135 84 22 180 47 21 31 153 19 138 182 16 206 200 43 163 196 50 219 98 52 213 159 49 85 232 38 79 40 37 163 243 33 211 189 25 108 3 19 35 32 9 235 19 20 175 116 48 17 191 13 177 202 2 153 134 49 193 119 12 180 117 47 114 251 28 117 52 7 150 141 42 169 112 50 29 34 51 221 118 36 167 166 13 45 171 39 165 5 3 26 174 53 21 251 27 74 26 41 215 166 
42 72 85 24 106 240 13 224 58 44 135 149 41 50 162 14 56 71 9 230 174 22 225 202 16 252 87 0 162 90 48 248 243 42 232 54 18 34 150 49 183 211 20 89 183 44 161 200 42 79 127 12 25 80 32 113 54 42 203 103 34 191 111 50 245 191 28 139 121 4 94 19 53 21 53 22 221 137 6 92 21 47 172 135 32 227 219 44 74 43 35 185 30 48 120 8 11 241 219 17 4 207 54 57 123 11 194 129 24 215 39 44 95 29 55 58 45 41 102 173 42 132 249 50 140 4 35 103 4 32 55 143 41 178 120 4 51 118 43 91 82 18 120 138 53 165 110 11 83 54 31 76 71 19 81 18 27 85 84 10 229 136 52 93 192 16 212 49 43 38 101 3 176 113 9 30 219 52 84 128 32 156 139 1 174 26 47 2 54 36 138 185 17 74 115 13 124 223 35 225 127 35 82 122 2 46 238 30 174 7 50 58 115 16 84 43 51 138 53 5 67 148 8 182 216 44 150 121 5 21 239 16 144 138 54 126 214 44 133 64 54 248 254 3 35 89 5 88 97 17 236 108 47 196 2 37 62 226 43 45 62 35 183 123 17 141 11 38 205 201 38 204 54 33 37 220 26 134 215 46 243 93 19 245 38 17 215 165 54 21 187 21 144 230 43 156 161 48 101 218 12 155 152 9 120 78 32 79 39 43 172 89 8 210 120 31 120 91 28 51 124 4 25 202 16 186 207 6 148 98 41 44 195 9 122 239 25 161 65 5 251 25 24 115 228 32 206 164 35 74 59 36 20 231 22 227 35 42 70 252 22 9 58 8 248 19 9 57 101 36 82 6 47 54 83 5 218 115 23 21 11 3 252 214 7 32 186 5 28 88 30 86 138 54 105 232 0 206 192 26 212 58 17 40 174 11 155 150 49 167 75 21 125 75 53 56 94 9 144 85 31 27 146 49 3 216 15 196 23 52 254 143 52 172 89 7 66 90 38 142 54 36 217 39 36 55 20 44 141 34 23 31 75 3 248 203 7 15 180 45 158 107 9 247 247 20 82 171 34 136 251 35 175 241 26 195 101 55 229 17 39 49 78 39 252 165 38 176 0 36 27 31 27 19 60 45 190 6 29 185 18 12 171 172 16 16 31 37 34 201 38 112 1 26 21 88 18 22 167 46 53 5 49 114 1 31 120 244 33 138 58 4 54 7 20 85 132 6 30 196 30 31 233 20 119 64 18 30 146 31 35 149 33 36 179 33 25 228 35 83 211 33 90 124 46 222 208 13 162 53 20 140 187 4 204 178 34 94 190 6 243 224 26 166 55 35 138 1 22 94 66 1 218 14 39 171 15 26 224 102 
54 155 219 50 77 111 40 11 123 12 235 166 26 35 244 45 36 102 3 102 242 29 116 208 0 132 9 8 234 33 28 197 219 33 52 33 45 176 51 8 86 163 11 74 7 31 176 18 54 162 167 34 115 154 30 124 103 32 157 224 53 120 56 42 153 44 2 204 110 8 112 187 10 119 243 18 137 79 13 48 206 16 202 180 52 50 15 10 18 237 34 74 182 4 119 67 48 229 5 40 160 119 16 147 63 17 226 81 18 177 20 20 101 121 22 116 81 24 98 165 35 24 151 10 91 2 39 97 6 23 216 214 42 24 23 21 105 207 22 125 16 51 246 130 32 71 191 34 237 45 50 132 174 5 134 121 14 140 187 47 99 226 15 122 169 24 73 3 22 89 64 4 220 46 4 155 130 1 200 74 45 118 116 44 239 182 16 170 83 51 140 82 5 53 41 46 57 24 24 121 112 28 168 70 31 42 19 15 116 39 30 232 40 13 158 173 16 241 185 36 67 82 50 108 77 19 132 195 44 245 129 36 59 153 30 78 141 42 117 28 34 157 116 0 75 66 2 4 255 53 86 103 18 164 92 22 103 134 35 232 233 31 130 197 45 15 74 11 44 248 8 160 27 43 226 37 16 225 206 54 73 104 2 165 69 25 43 143 34 20 94 36 217 33 43 35 32 15 28 110 23 55 49 25 92 145 19 42 61 36 146 237 9 216 243 20 103 158 0 197 175 49 231 169 53 7 37 49 117 177 0 166 104 4 56 192 7 117 249 9 98 20 9 85 120 9 243 129 46 163 181 13 76 253 53 114 31 2 35 100 9 139 197 41 75 93 38 69 81 32 89 112 21 210 34 17 83 171 20 9 156 32 6 83 10 37 240 5 137 149 49 78 176 20 171 113 41 253 106 51 109 216 37 143 168 8 59 205 25 215 230 48 42 162 37 27 171 31 176 37 21 96 195 25 209 236 54 59 96 3 19 26 51 187 45 6 137 18 45 111 74 48 18 140 35 189 212 19 226 65 4 165 56 21 145 126 33 242 111 44 12 93 48 57 184 33 75 163 32 149 201 34 33 199 55 245 239 10 55 50 39 111 37 41 237 121 43 92 159 47 185 0 48 114 116 51 21 164 8 223 93 2 166 134 7 149 192 46 199 184 22 236 146 27 102 17 16 5 34 41 5 37 19 121 52 17 30 124 24 123 15 46 1 56 43 194 130 34 122 193 54 12 56 36 29 30 41 64 241 30 101 33 24 154 11 22 22 102 17 38 215 43 94 39 5 224 29 55 161 168 19 217 250 48 247 57 0 233 221 46 10 135 32 21 53 6 124 93 36 83 163 42 123 101 42 152 40 52 65 173 
21 59 172 13 116 183 54 82 223 48 217 72 22 14 22 34 108 126 45 15 252 8 116 161 9 156 163 34 73 134 5 245 10 18 172 103 36 140 188 5 212 250 51 234 67 55 104 161 55 100 123 51 5 168 32 169 81 1 47 146 39 57 20 11 160 209 7 93 3 11 87 135 13 154 228 45 59 80 26 182 39 23 95 14 32 176 106 15 66 98 32 86 163 9 39 218 54 43 190 13 178 45 32 151 113 19 231 158 10 14 52 33 29 46 41 135 45 27 233 214 41 140 173 16 103 190 11 37 111 22 82 125 5 195 226 28 98 226 18 150 30 31 196 16 14 241 97 31 199 98 36 117 165 43 51 62 16 162 254 50 31 234 14 1 136 32 228 189 22 2 217 10 18 3 3 115 75 51 213 25 8 122 209 35 184 21 53 182 192 4 160 144 53 40 178 9 229 152 3 190 224 13 194 190 32 13 96 53 38 244 23 247 79 7 12 31 38 204 34 38 92 199 47 15 139 52 167 80 27 136 250 13 70 165 2 167 99 48 155 147 0 234 153 4 9 24 9 43 80 37 242 62 4 125 204 4 205 131 12 199 32 10 109 123 33 208 152 28 99 194 6 252 18 39 21 90 10 101 175 52 163 208 1 111 77 47 243 218 46 19 14 43 142 202 35 38 204 55 232 118 43 250 186 24 85 233 29 4 32 40 212 131 0 33 215 19 251 169 30 9 72 12 211 174 50 160 130 18 22 37 4 208 44 25 185 48 53 218 72 41 93 198 27 52 230 38 221 118 40 37 249 11 212 143 19 86 179 41 123 253 18 168 47 11 216 92 5 32 221 50 230 99 15 205 188 28 67 55 50 61 174 30 204 46 36 128 129 31 125 117 15 173 126 47 9 88 48 230 236 6 73 89 19 6 36 15 61 35 52 235 255 48 25 1 0 155 215 54 16 3 43 142 171 44 231 250 50 211 34 4 44 106 2 80 152 39 115 148 19 115 211 44 116 79 15 76 151 23 79 96 6 250 166 53 245 153 8 23 149 12 129 119 37 25 163 48 173 213 19 128 69 16 207 160 52 103 20 51 199 36 54 109 67 11 6 241 34 155 134 3 18 238 36 182 131 26 139 104 2 208 192 42 112 140 41 133 204 24 169 88 5 236 51 11 222 9 30 100 212 0 83 182 46 214 25 34 62 150 26 254 192 27 138 106 40 86 228 49 174 197 21 226 109 19 235 130 8 192 157 11 118 83 25 144 28 55 38 154 53 230 164 24 80 127 38 53 202 37 250 154 55 104 19 18 234 120 10 136 188 33 219 100 17 247 95 39 146 48 29 54 63 29 181 76 10 127 228 45 25 211 
53 44 112 55 165 239 7 97 89 51 197 132 42 36 37 28 84 86 43 147 173 40 223 234 32 196 119 1 151 58 38 7 247 51 246 28 28 79 43 49 211 195 13 248 54 25 78 160 28 251 157 3 229 208 31 93 184 38 151 32 13 142 162 11 170 80 11 213 163 46 152 87 55 206 208 37 111 109 17 12 94 6 220 226 51 148 69 34 181 109 24 87 43 18 167 241 32 74 172 0 161 183 15 113 150 6 222 109 42 60 146 54 30 179 26 99 186 31 208 29 14 252 24 13 237 160 7 153 211 8 81 219 9 231 123 23 84 234 43 230 200 41 154 178 21 84 120 53 113 211 49 137 226 6 42 73 24 253 86 9 216 174 40 83 166 28 62 16 26 6 87 20 185 219 32 49 124 26 4 129 51 231 87 45 48 40 42 134 231 2 52 63 38 219 232 20 235 120 26 66 92 11 29 38 29 154 139 49 27 67 32 114 109 32 155 33 23 130 254 35 193 217 22 169 139 17 33 145 4 125 213 9 163 32 19 46 35 55 114 88 25 223 146 52 0 178 54 255 3 55 216 218 8 99 229 49 245 204 54 202 157 18 234 177 32 14 227 2 102 174 10 248 149 34 171 239 9 174 227 17 136 90 5 109 145 34 57 114 28 215 115 55 136 242 37 107 20 3 26 100 20 175 39 15 158 201 21 130 107 21 220 13 18 109 134 20 223 99 3 83 53 27 69 210 15 89 89 1 189 238 40 228 233 31 173 221 25 25 124 45 38 201 18 172 158 26 16 225 45 69 93 2 23 176 11 112 139 48 94 210 5 72 51 26 37 68 51 162 243 17 107 36 38 10 49 6 235 171 51 72 5 35 248 178 51 131 164 10 86 239 42 137 248 23 205 229 41 192 127 13 228 51 31 21 12 26 193 146 18 198 40 10 121 4 13 29 247 43 13 90 13 5 28 50 234 38 3 105 86 31 156 39 13 169 100 38 59 171 44 100 221 21 104 87 43 95 201 8 185 191 29 214 10 31 252 223 24 82 130 5 122 229 30 222 44 25 138 137 13 103 167 13 191 140 4 136 233 22 71 100 4 82 236 32 49 121 35 179 240 21 152 209 3 197 78 29 78 116 37 246 213 44 130 155 20 107 200 20 208 85 14 188 155 15 54 183 19 38 207 51 247 58 48 69 31 7 185 227 5 143 48 31 42 229 34 242 89 18 71 86 31 226 154 45 153 48 19 105 247 51 163 114 0 195 134 26 166 94 9 214 133 51 188 162 21 21 65 37 107 76 23 5 38 9 53 189 26 45 138 53 159 126 8 37 105 22 132 153 53 9 131 25 172 252 22 237 159 10 57 53 
47 96 18 53 29 209 42 168 42 1 38 236 55 143 82 51 40 122 12 172 73 8 168 238 30 72 79 39 125 197 55 143 167 53 96 143 21 139 172 19 119 246 42 201 223 34 68 238 46 141 129 7 123 30 31 202 102 12 143 156 19 55 12 43 198 219 54 114 200 6 104 93 47 71 24 19 54 98 40 183 213 51 213 243 21 60 186 13 216 201 20 228 85 50 192 112 44 136 236 12 230 242 11 254 112 25 97 184 9 54 67 54 41 92 2 228 239 51 173 77 15 3 58 47 115 94 32 95 72 46 82 164 36 194 104 45 122 115 35 190 181 53 26 174 33 9 124 6 86 135 9 144 106 37 238 49 44 54 185 30 218 201 1 66 191 27 182 179 33 107 9 11 25 148 45 149 73 35 28 226 12 134 41 50 184 114 33 113 47 27 58 76 6 249 186 20 172 235 39 181 151 40 74 0 53 147 132 34 118 17 8 159 244 32 17 104 9 65 203 3 141 100 28 71 215 41 51 141 38 202 249 32 202 208 44 78 192 10 95 70 33 84 232 26 188 16 35 135 241 8 235 66 16 195 206 43 80 82 5 74 131 15 26 106 46 219 154 13 33 94 49 9 152 14 25 113 53 10 92 33 77 135 20 27 64 36 109 64 30 241 115 41 91 112 36 245 55 53 84 77 14 236 195 39 94 140 34 186 18 7 65 32 42 129 25 15 193 213 8 52 225 3 164 56 1 220 169 5 41 245 9 236 98 47 121 216 33 139 103 43 171 1 28 196 232 22 153 234 34 123 90 55 179 186 19 92 118 36 81 39 25 179 44 18 139 29 29 242 109 41 244 118 13 220 193 23 199 142 50 33 28 53 219 222 17 81 69 34 120 136 13 164 245 24 194 78 50 47 32 54 165 125 27 103 134 10 245 84 19 17 187 46 239 157 24 53 50 8 189 35 45 178 101 47 0 90 30 32 218 27 158 76 10 36 179 23 120 246 16 51 0 48 208 43 5 2 49 34 37 137 13 138 90 37 228 207 14 190 6 12 11 108 16 190 119 25 180 234 4 180 81 5 223 202 7 16 50 45 154 207 7 244 41 20 195 54 50 201 68 5 53 114 51 172 62 31 150 46 27 232 151 10 178 52 19 228 161 29 179 16 9 220 165 44 19 197 13 87 201 26 201 139 54 7 89 53 53 228 13 205 36 23 1 23 3 162 234 14 178 205 2 88 74 37 29 187 4 230 239 13 113 236 4 202 30 10 175 252 23 211 113 48 234 206 18 212 221 36 161 208 36 235 118 25 166 249 7 149 142 17 129 123 19 159 48 50 156 237 45 13 223 0 220 158 36 185 94 46 138 192 
1 0 212 48 249 65 5 136 202 55 3 58 22 51 27 34 32 198 16 255 33 20 157 78 29 251 102 47 187 83 0 144 225 1 209 90 49 155 122 20 213 48 24 240 103 48 183 61 8 216 176 21 38 48 9 141 140 28 224 161 4 193 65 29 27 225 1 150 122 38 198 156 15 45 192 6 106 24 6 26 145 44 74 9 9 214 30 17 120 47 2 185 252 46 154 88 44 20 134 42 176 79 23 113 237 25 137 124 52 26 194 6 35 224 37 66 37 45 113 246 6 109 168 16 198 26 36 76 168 5 155 204 22 136 182 39 5 205 10 199 79 21 168 235 55 205 209 33 195 142 38 107 195 4 134 177 0 46 57 43 251 214 12 177 35 49 127 225 16 206 40 48 185 138 29 138 16 1 25 215 44 220 16 50 142 183 9 199 35 20 157 220 53 192 47 20 161 11 2 202 236 19 84 149 22 100 229 31 60 3 51 76 228 41 3 48 17 39 3 30 3 4 55 50 0 16 62 173 34 42 218 47 191 212 35 165 136 39 168 198 20 140 29 31 188 80 6 191 18 1 195 155 44 195 193 34 113 168 20 75 49 4 31 131 33 167 42 9 109 54 45 138 125 1 219 17 1 237 169 20 136 103 24 73 41 41 242 29 4 35 79 11 166 171 43 209 199 32 7 136 11 132 241 30 150 230 43 63 152 27 166 9 36 207 61 30 236 53 9 59 158 48 231 82 25 174 38 16 55 161 4 40 137 34 15 252 41 167 74 32 176 133 47 237 72 36 35 85 15 193 83 6 20 117 53 58 61 36 219 214 44 100 118 11 97 154 10 171 85 26 49 78 48 121 238 3 206 94 28 34 186 0 151 81 2 212 208 29 170 253 34 32 97 11 186 237 46 15 137 55 94 203 49 76 190 39 170 158 9 100 161 0 182 101 28 134 62 6 131 80 22 228 62 49 209 144 8 90 67 38 38 161 3 228 49 5 130 58 50 35 17 40 136 11 22 198 155 49 23 0 29 85 14 6 229 61 17 40 38 15 201 30 43 250 117 45 52 24 40 70 101 40 81 23 31 236 127 30 236 109 51 251 222 0 56 51 16 94 90 33 124 219 4 241 130 48 9 13 38 111 26 7 134 74 28 6 2 0 115 129 43 82 23 51 133 2 33 223 210 22 186 202 15 60 140 1 73 72 24 99 56 22 173 111 20 176 246 8 49 106 34 73 203 31 75 38 31 30 186 33 232 171 14 116 25 39 188 121 3 245 226 40 100 186 8 90 24 34 197 125 51 144 85 22 182 127 44 112 46 37 28 189 17 53 7 14 174 141 51 144 92 7 74 143 1 99 112 38 224 0 
30 53 194 21 180 205 21 226 36 49 160 152 39 167 245 21 52 199 38 144 85 0 32 216 27 144 191 11 144 0 32 83 7 36 32 157 55 68 234 7 221 168 6 210 129 26 153 144 34 238 78 18 198 156 18 133 52 43 134 48 54 141 11 30 42 28 51 21 224 48 189 135 42 62 206 36 207 188 2 29 222 17 185 145 30 237 99 44 29 198 9 41 185 12 69 255 33 37 101 46 173 16 20 123 152 3 56 243 48 22 231 33 167 201 31 11 114 12 209 161 53 138 85 50 137 151 24 238 3 13 255 132 24 151 194 8 138 62 31 113 138 54 59 242 41 173 20 50 78 35 52 164 79 45 59 165 44 62 63 3 194 255 50 132 108 21 194 85 46 76 117 1 63 172 15 83 139 5 118 116 17 197 47 44 106 115 42 170 65 12 169 253 32 22 184 35 107 10 7 224 231 14 141 54 1 24 191 15 140 246 53 187 124 39 47 165 25 112 10 51 109 172 41 37 17 20 47 249 52 23 164 1 77 156 33 12 210 46 3 92 33 127 91 32 36 32 0 46 80 13 219 41 26 236 172 50 229 69 33 138 73 22 38 46 2 248 159 13 84 41 20 176 63 9 208 16 23 32 17 50 74 129 14 246 95 4 60 97 38 133 147 28 179 220 28 83 114 9 124 21 17 187 186 17 203 223 34 220 40 36 94 159 2 189 242 14 30 48 36 178 84 47 142 2 10 1 214 22 22 163 49 208 196 5 175 149 9 215 54 31 119 248 44 105 4 43 153 7 21 238 69 27 240 9 52 199 129 42 106 75 51 46 146 42 195 147 26 249 96 49 242 10 50 246 17 11 253 214 25 67 185 42 76 78 33 205 113 11 25 150 1 171 208 4 62 219 37 159 150 47 169 40 54 186 49 19 144 163 54 73 174 11 151 168 48 9 146 49 159 67 52 111 94 19 75 167 10 225 179 35 9 184 53 58 176 54 221 158 23 139 137 23 51 184 8 197 51 47 8 123 22 102 221 1 13 233 26 192 52 35 121 30 37 41 177 50 199 255 30 80 221 1 8 4 31 59 195 39 183 139 22 148 242 35 125 201 12 178 234 5 208 237 30 130 248 29 129 62 5 94 96 30 98 14 41 38 240 32 177 151 36 164 70 50 109 92 36 87 128 28 68 100 6 61 193 23 123 71 21 219 148 48 234 49 30 218 215 55 113 185 19 183 81 40 20 126 48 148 40 36 248 132 17 185 176 52 0 95 40 148 142 10 197 28 44 157 12 21 86 34 4 167 233 0 37 85 44 77 45 20 209 93 45 130 210 37 225 131 49 111 176 47 139 184 28 151 170 10 185 118 
49 163 179 31 248 167 28 37 176 38 131 76 40 85 225 17 216 46 48 136 124 52 64 93 51 234 4 29 96 72 0 19 226 40 187 36 21 107 139 16 183 63 5 152 197 22 199 205 46 67 182 47 160 15 33 165 243 50 237 110 45 208 163 8 244 123 51 127 75 35 190 65 19 132 185 50 81 135 21 8 45 54 23 91 51 10 202 40 120 36 48 28 222 36 151 171 51 227 52 34 36 39 38 221 210 55 100 22 39 145 32 46 237 110 16 183 92 41 219 239 53 185 111 20 101 192 55 153 4 35 192 200 49 147 74 13 169 80 7 201 167 4 55 7 51 147 125 15 130 254 8 242 247 37 178 12 38 182 184 47 126 72 2 200 251 3 24 140 4 192 130 52 199 9 47 68 125 10 66 168 36 57 175 6 69 112 12 254 149 35 70 84 51 65 211 28 206 229 4 80 160 35 89 36 23 214 224 42 126 48 3 46 2 33 158 198 7 51 60 37 135 104 6 90 19 44 63 135 52 223 19 5 4 95 19 228 114 34 20 201 8 22 99 30 220 55 25 24 80 33 129 103 11 148 196 35 27 98 34 46 207 54 141 139 35 255 161 7 201 140 22 44 246 2 99 142 51 179 196 12 26 46 16 222 31 4 65 106 42 16 245 48 155 96 15 60 206 8 201 33 53 191 137 24 78 7 12 18 97 6 64 212 5 95 200 38 202 81 54 191 245 33 31 199 22 238 39 39 15 135 46 152 175 12 159 4 31 1 189 15 213 41 55 158 175 33 239 20 24 228 186 24 171 112 14 211 194 13 90 80 30 9 167 29 14 189 38 203 34 28 244 153 18 163 80 1 184 103 5 114 72 32 227 233 3 165 169 45 245 87 39 156 20 53 89 106 24 123 96 36 20 86 39 101 34 7 204 140 34 21 229 5 254 34 50 167 11 7 254 198 27 18 220 12 125 251 48 221 40 36 51 32 33 86 12 54 226 155 43 200 227 41 234 157 40 245 58 54 188 124 24 152 179 37 147 134 50 187 178 6 219 90 12 231 23 46 130 56 22 101 38 1 2 41 54 60 42 34 184 210 26 107 120 37 241 49 24 164 102 35 254 121 10 21 191 29 78 91 26 116 217 37 158 32 49 200 81 18 155 119 5 19 90 7 68 212 51 171 226 41 36 170 31 227 78 21 62 216 9 23 229 23 55 88 8 136 205 43 0 126 38 90 232 19 46 190 6 16 133 50 187 240 45 9 89 43 225 216 34 199 165 42 31 231 18 236 198 34 106 110 12 83 177 19 17 8 35 150 163 54 134 233 55 223 83 9 184 160 8 93 43 55 68 205 11 11 167 13 121 10 
8 43 108 41 51 41 47 214 20 5 191 15 29 18 198 45 178 133 34 221 38 47 170 142 34 82 21 19 92 136 14 200 102 41 241 150 7 5 216 30 21 175 16 219 13 50 96 74 23 135 63 50 21 145 20 43 40 32 179 202 8 25 230 18 176 44 47 136 166 36 55 245 7 68 4 32 142 36 47 205 247 44 95 166 23 135 0 11 82 172 28 56 180 20 100 133 36 10 71 52 0 14 48 4 235 7 40 162 44 31 186 11 198 89 11 198 14 21 115 237 29 39 128 25 172 45 44 243 137 28 2 110 16 237 138 24 143 234 32 74 217 6 163 150 52 177 177 47 159 84 23 31 73 43 76 118 39 214 8 33 68 164 14 206 64 21 184 224 15 146 168 27 40 144 4 217 62 51 46 179 27 119 154 39 238 169 13 246 101 49 154 20 7 218 197 32 186 99 2 98 144 42 243 8 11 49 35 1 228 239 33 127 91 7 40 230 45 141 189 23 161 107 9 102 92 35 201 28 37 90 148 8 98 158 50 133 208 46 116 219 29 207 21 22 181 198 19 115 101 37 222 250 35 58 41 13 86 50 47 234 245 25 136 26 6 88 51 2 52 125 42 73 171 47 15 89 34 116 47 24 110 146 27 151 151 9 201 3 12 190 56 12 216 199 21 11 184 49 136 46 2 52 24 49 141 210 29 188 66 11 78 36 18 230 229 3 233 224 41 33 49 1 232 109 45 160 50 13 206 79 49 230 160 30 185 58 42 251 227 9 31 0 23 4 139 48 228 173 25 22 152 41 131 65 25 181 194 7 4 79 5 164 101 46 222 174 9 193 133 9 193 23 13 76 248 50 249 191 0 145 111 3 210 64 25 149 249 45 228 82 42 73 121 32 248 135 18 125 77 43 148 15 48 141 240 33 76 213 3 188 159 37 252 127 26 246 227 39 72 252 8 194 25 8 73 219 53 150 124 34 165 222 55 149 1 27 107 113 39 10 219 4 138 214 2 109 163 42 105 6 20 130 77 53 94 221 20 218 102 25 184 107 23 185 5 50 43 44 4 6 160 54 220 207 3 127 251 4 133 29 15 210 136 37 176 180 15 22 42 39 129 54 40 135 231 19 179 46 1 83 224 13 35 157 37 30 227 42 60 151 53 196 179 5 120 82 19 162 79 36 216 38 19 192 181 39 238 254 50 207 113 37 108 235 44 79 64 16 230 21 20 154 112 36 236 157 31 60 122 39 98 109 31 24 225 14 22 221 21 135 140 17 114 142 0 179 180 55 200 248 33 56 120 5 213 188 33 79 120 36 188 215 52 158 15 34 123 6 17 7 236 44 149 161 15 73 194 23 65 51 
40 185 138 29 117 123 29 238 88 9 197 114 7 212 238 42 219 130 9 199 44 55 105 93 8 43 1 50 94 88 11 232 120 9 99 208 39 188 253 44 46 122 49 28 180 44 158 139 11 202 222 28 39 55 16 41 38 54 129 95 15 249 217 18 201 12 38 199 181 52 65 76 24 245 169 46 129 218 40 95 230 8 150 185 9 189 246 42 28 94 20 245 36 5 1 211 4 183 230 14 3 180 27 172 177 52 134 201 3 108 128 26 38 0 39 28 168 19 122 121 16 158 204 9 114 24 40 88 45 44 12 10 40 189 40 31 135 59 35 7 208 17 7 195 37 176 77 39 41 148 46 245 247 32 13 79 16 59 169 4 69 185 26 109 205 17 168 142 40 120 213 47 60 136 7 137 98 25 30 87 30 21 199 44 101 213 39 14 85 36 199 45 33 149 17 1 35 179 18 248 220 30 128 12 7 226 68 29 58 43 43 1 60 8 214 67 30 43 87 5 88 166 10 105 58 13 29 59 29 249 228 22 6 6 8 74 100 42 117 76 35 178 81 17 245 108 36 76 236 20 242 122 46 44 208 11 103 186 28 75 200 42 82 205 52 182 83 42 2 188 44 84 94 9 192 2 21 173 123 7 39 32 43 247 28 50 178 130 29 122 5 39 71 130 14 155 4 0 87 209 12 181 19 53 183 7 42 51 240 49 83 37 41 111 76 11 242 159 29 247 89 12 121 94 47 126 182 6 79 196 28 98 212 35 105 57 14 89 94 1 126 48 41 202 41 43 105 26 26 194 189 20 32 218 26 214 63 9 154 62 51 111 149 44 168 161 37 6 100 51 54 91 37 95 164 22 122 93 40 55 8 32 18 171 15 81 199 25 143 97 48 36 74 0 197 149 30 42 73 36 133 86 44 41 225 46 135 54 13 143 244 15 58 116 8 1 20 24 98 139 28 172 157 34 65 29 4 138 70 25 224 116 50 193 217 25 247 157 33 235 219 27 95 80 13 116 216 15 255 176 28 156 24 29 186 165 8 0 247 24 116 115 50 77 116 49 234 158 13 197 80 12 22 145 32 238 12 48 158 137 12 183 105 30 92 245 14 83 194 11 198 26 24 58 83 3 216 77 16 40 62 22 185 27 20 198 88 3 79 8 50 184 184 22 173 5 49 112 11 23 138 18 9 221 141 1 42 85 10 105 8 27 132 129 9 220 15 9 229 140 41 157 167 39 162 121 55 174 167 41 192 40 23 77 111 17 162 240 34 171 73 15 44 203 51 59 7 24 199 8 22 110 89 0 231 99 30 142 26 14 182 65 43 37 242 6 21 129 25 95 59 37 42 93 32 49 4 48 58 136 
54 147 240 22 246 246 36 16 159 11 81 245 48 68 12 46 197 111 45 0 117 39 94 38 1 98 3 35 234 28 22 219 252 21 209 74 37 112 128 15 102 69 11 114 192 32 225 96 25 87 22 23 125 43 25 129 107 12 157 220 7 153 135 32 227 197 1 100 250 55 169 64 25 105 215 10 201 178 1 224 82 23 11 243 40 118 242 13 82 84 46 217 160 9 159 199 37 153 191 22 217 40 7 176 247 9 98 56 33 181 91 52 168 212 19 155 203 5 239 67 15 143 88 30 86 6 55 21 152 41 62 141 1 53 44 36 110 51 17 201 4 25 157 181 28 105 114 35 172 165 42 5 42 0 11 137 54 163 135 20 49 31 25 93 144 7 144 177 32 149 53 6 74 110 31 188 80 11 97 204 24 140 56 36 21 50 55 157 131 16 188 233 29 76 141 30 253 102 11 51 174 5 161 190 50 241 108 51 190 131 15 246 71 37 40 15 10 171 227 14 148 91 34 33 3 55 136 9 42 54 159 28 244 202 21 97 63 51 228 113 25 43 5 42 59 36 29 30 89 26 121 43 11 125 185 35 134 147 49 37 107 30 239 117 23 46 33 3 160 191 23 165 26 50 201 108 8 35 230 34 78 11 47 8 197 5 155 161 34 6 4 33 124 158 31 157 44 39 92 27 20 119 238 30 227 237 25 201 39 23 212 128 15 154 82 43 59 161 25 63 118 29 221 112 27 9 89 7 36 112 38 19 40 41 0 132 18 40 170 55 168 243 33 250 139 20 155 42 11 17 101 41 129 167 10 218 100 55 74 191 50 114 119 42 247 165 42 161 183 42 149 145 44 32 64 15 74 137 40 176 13 1 87 209 27 187 114 38 123 28 0 242 235 47 151 205 9 78 176 38 224 186 30 32 109 24 170 25 24 183 97 55 136 185 3 250 147 46 23 70 0 2 68 7 208 181 30 128 28 14 58 37 14 167 195 32 193 129 32 34 138 24 219 66 19 110 82 2 181 29 52 249 99 52 174 155 28 203 106 23 240 136 6 180 134 23 53 165 17 191 109 29 2 237 27 84 246 0 113 249 50 212 19 24 111 47 11 217 28 20 98 136 16 232 47 29 141 126 13 251 141 7 232 191 19 222 204 12 215 71 32 234 120 47 26 162 24 54 122 34 190 30 51 238 178 0 108 250 27 249 119 52 184 180 50 132 243 18 204 134 36 68 138 6 230 98 44 96 169 27 126 202 17 48 76 45 42 183 38 162 176 15 86 163 43 74 127 39 208 58 43 91 204 33 189 72 34 103 223 16 49 171 41 125 54 11 53 175 53 229 148 12 136 115 6 8 10 38 66 37 
49 14 13 15 86 56 38 53 74 15 225 188 20 23 172 9 199 205 22 91 25 15 206 6 23 216 74 1 254 216 7 11 55 21 67 240 19 141 103 4 73 69 3 246 84 34 195 225 54 220 162 4 227 73 13 45 120 35 6 175 14 61 40 1 45 175 47 149 140 0 218 159 46 47 147 18 16 159 46 178 113 49 251 159 7 115 156 53 34 113 42 74 68 7 249 34 20 134 67 7 37 242 22 185 235 30 88 217 24 201 139 12 105 26 47 5 139 42 118 42 52 186 207 14 220 177 4 31 193 9 18 101 34 253 228 26 214 146 4 98 80 21 124 193 10 7 45 40 50 12 2 1 14 38 179 91 5 116 161 7 217 109 28 190 94 19 80 9 37 161 11 1 98 215 16 143 12 34 155 70 36 170 246 47 5 96 19 166 166 12 19 12 18 113 131 19 122 248 28 134 67 54 93 240 53 106 25 0 176 73 10 167 172 47 7 16 45 174 39 32 186 178 2 61 22 28 53 57 42 120 172 0 104 192 10 129 54 10 203 59 25 119 219 1 135 38 15 174 117 17 96 107 54 118 115 44 175 237 44 91 226 21 27 92 14 81 52 41 140 118 24 104 105 39 142 2 21 3 163 45 110 242 36 226 251 11 207 66 47 177 190 26 14 178 20 66 15 8 185 238 32 34 151 30 36 184 10 200 95 40 186 181 42 182 106 2 248 150 3 182 114 17 104 169 44 120 251 37 102 159 47 253 208 3 181 104 27 21 143 38 202 185 12 52 81 28 203 204 34 61 22 2 230 17 34 225 27 8 129 103 14 81 108 51 185 147 32 72 222 2 1 242 7 83 192 10 31 68 23 53 192 37 70 242 46 97 140 15 200 159 8 52 23 26 199 141 18 166 185 20 152 249 15 88 4 30 156 67 11 92 77 1 78 148 3 218 193 43 121 207 8 145 95 39 30 63 13 215 217 13 209 188 5 213 160 1 24 215 53 101 45 43 249 184 54 186 137 23 137 188 40 232 184 23 40 232 6 1 223 7 189 125 44 93 178 20 52 64 17 97 105 2 25 239 36 163 194 14 95 112 14 23 152 22 255 80 32 223 39 5 92 214 3 14 85 39 78 170 17 184 22 42 167 232 45 105 178 13 218 55 44 114 69 36 194 59 27 234 90 55 192 122 37 21 87 36 191 146 4 214 2 27 190 211 4 112 189 46 167 75 8 236 56 11 40 60 37 130 64 5 252 35 50 83 98 2 230 176 24 232 76 46 187 160 14 120 155 22 195 255 50 251 62 2 56 238 28 120 97 16 156 190 12 254 219 18 174 14 34 250 0 29 154 200 45 53 78 17 53 68 
20 115 226 36 97 109 53 195 31 1 129 84 31 93 132 30 107 8 40 107 114 3 51 196 8 129 209 5 197 87 0 168 160 26 21 228 53 52 97 46 136 86 11 13 231 38 21 118 17 136 180 12 76 237 29 30 192 11 117 200 3 21 6 16 249 182 36 90 200 21 176 157 2 151 244 15 14 167 23 194 198 4 175 79 26 111 12 7 56 73 20 62 76 13 244 247 24 189 183 16 90 172 24 78 41 46 246 179 40 188 82 8 11 122 31 23 238 7 97 128 37 173 135 10 165 163 31 92 184 1 8 40 48 49 73 14 228 1 34 55 199 53 177 79 45 159 135 22 31 47 35 166 14 16 73 44 53 1 62 37 42 13 31 115 54 51 116 174 26 59 28 35 138 70 10 18 124 33 65 201 23 79 119 16 123 210 10 185 211 12 198 48 23 253 149 27 171 44 38 200 168 0 14 90 34 138 190 43 83 192 19 202 226 30 157 169 16 112 186 46 160 204 11 53 8 15 98 183 55 10 218 21 100 56 0 34 32 3 227 27 38 197 86 27 110 225 43 40 232 11 244 168 8 252 46 26 179 178 44 141 225 17 197 216 51 230 221 14 1 109 35 87 81 2 57 255 50 33 74 39 201 5 35 247 96 31 169 240 12 138 227 18 98 223 16 64 64 1 173 196 40 254 42 1 253 86 26 71 240 3 76 178 3 172 105 52 157 29 55 128 132 17 95 120 49 160 50 7 100 210 5 142 115 11 228 108 10 212 157 31 135 240 27 240 11 48 13 30 40 145 219 40 10 34 40 60 203 4 15 181 26 130 76 7 238 225 27 140 116 10 124 79 11 135 118 32 166 73 10 129 186 52 163 170 48 110 250 15 35 234 34 111 62 48 81 33 44 197 232 48 20 131 48 138 166 46 212 185 23 142 217 34 56 139 40 51 71 20 29 64 19 92 71 28 125 209 42 101 74 14 232 78 17 142 207 5 71 215 27 33 133 35 172 180 46 244 134 12 52 198 48 123 42 53 77 254 50 151 34 34 229 12 33 180 11 0 139 148 49 16 241 22 196 220 10 74 255 22 17 86 25 59 202 54 57 154 21 92 231 35 104 153 7 115 51 43 7 92 43 248 205 48 212 94 18 212 156 11 42 206 55 244 52 16 142 22 4 117 68 21 14 10 8 65 181 40 158 20 8 107 255 21 201 251 1 102 187 35 52 197 39 105 225 45 127 56 18 195 200 24 205 181 41 130 10 31 151 210 34 150 162 44 145 107 10 76 8 14 18 121 47 243 20 6 43 163 18 243 192 15 168 82 34 178 242 41 133 211 7 39 83 17 146 61 21 154 241 23 19 11 
34 39 90 37 202 17 33 138 72 25 220 66 20 206 9 41 162 83 0 245 52 43 50 172 37 36 181 25 47 10 8 137 114 3 155 204 37 227 82 42 37 203 16 46 236 10 130 192 15 182 25 50 98 154 30 23 173 37 34 90 15 148 27 50 96 4 21 178 183 34 125 244 40 106 14 10 42 247 49 68 129 27 222 1 3 139 179 37 229 137 41 1 142 9 5 29 20 188 71 49 176 84 35 191 134 30 182 231 42 55 201 0 56 98 35 235 94 24 116 113 9 3 166 38 32 111 2 104 152 19 188 116 50 67 206 8 42 145 47 243 127 24 86 177 3 180 193 16 37 92 27 203 221 35 58 94 19 210 229 16 71 39 11 21 26 21 166 204 8 38 52 54 215 212 26 153 172 15 245 111 10 210 167 28 49 226 31 22 62 14 61 1 51 88 129 9 36 68 15 89 49 39 45 18 24 217 72 45 72 51 16 240 66 1 210 29 39 16 49 44 18 24 36 147 70 25 216 137 2 9 115 39 27 130 24 100 105 24 151 233 48 217 95 19 246 167 27 40 32 37 64 175 49 135 123 17 16 160 42 131 233 22 6 139 50 111 90 1 89 2 26 184 242 41 95 211 1 127 134 33 46 73 40 169 31 33 73 136 4 50 201 26 189 19 10 23 121 51 25 67 35 12 164 10 223 223 1 101 16 31 174 105 48 205 2 2 85 35 28 30 84 18 50 8 49 171 195 35 239 237 39 147 112 14 114 171 43 130 69 41 235 94 31 238 165 4 17 149 19 101 207 45 109 60 48 48 102 23 29 167 51 141 2 5 56 105 40 125 175 11 219 90 9 128 180 18 22 219 55 229 87 53 33 242 13 135 191 11 47 56 0 49 159 1 155 154 22 74 8 50 165 248 42 89 211 8 52 157 30 139 119 7 126 183 15 61 100 30 117 65 31 21 60 42 175 197 21 183 134 50 175 196 3 131 222 7 32 121 10 151 41 32 78 191 6 178 119 35 244 182 16 48 36 24 245 195 39 123 254 15 64 131 34 30 173 50 151 48 9 193 231 8 128 41 42 247 234 14 173 232 15 209 91 44 149 228 32 147 28 16 22 11 14 195 170 54 243 204 47 218 14 47 3 232 23 237 16 52 213 234 14 49 185 19 21 184 54 49 172 28 60 28 55 231 204 42 179 155 36 194 1 15 170 40 29 186 207 26 164 110 27 93 187 48 21 217 41 194 140 30 222 210 5 171 46 24 70 77 42 71 95 36 111 75 14 62 58 19 173 23 32 104 202 54 65 173 32 205 166 22 159 207 41 205 53 47 26 130 6 121 131 37 196 69 20 254 178 1 22 216 
33 224 163 42 141 204 23 51 10 38 3 10 19 56 232 45 187 114 6 62 65 18 131 88 0 53 221 6 14 161 46 177 18 12 125 235 15 135 5 26 145 236 35 122 114 30 236 197 36 45 50 7 133 24 53 99 194 3 4 107 12 23 41 2 2 200 25 8 244 3 244 83 53 103 182 33 44 81 22 95 167 36 119 59 15 58 82 35 165 159 10 206 250 29 150 7 21 138 145 49 222 162 40 148 69 37 229 98 4 140 107 11 199 162 53 25 94 42 185 125 25 179 160 7 186 219 26 75 24 0 238 93 20 51 150 25 150 55 29 1 4 52 163 48 5 1 211 22 126 177 50 31 51 44 250 132 48 18 108 30 111 222 33 5 46 55 60 18 17 64 219 36 112 48 6 68 76 12 245 129 19 40 112 37 173 18 23 25 110 38 247 22 52 37 172 0 55 118 9 18 213 33 66 54 45 142 59 10 15 65 43 127 197 8 145 105 1 0 6 16 22 182 13 195 212 36 57 248 38 14 89 8 69 250 22 128 11 13 193 97 37 134 171 22 239 30 46 246 62 13 172 119 32 128 167 1 121 252 39 210 136 44 204 38 4 215 6 37 56 116 4 228 242 3 2 239 33 65 125 29 184 12 30 96 177 15 92 25 1 229 186 21 11 105 12 18 94 5 134 210 9 120 8 51 103 196 28 229 111 37 241 17 37 162 94 25 187 44 22 117 115 26 222 140 12 60 113 2 15 46 11 23 35 2 219 252 39 74 215 0 91 244 10 186 201 29 230 254 2 90 143 9 230 6 21 88 136 4 134 28 19 169 54 14 165 201 49 124 196 28 112 163 38 57 116 5 55 230 31 199 20 13 205 182 5 85 55 3 113 245 12 167 193 41 113 165 14 53 99 30 216 108 40 76 209 39 51 239 6 71 244 51 253 83 24 53 153 41 42 54 1 235 90 42 144 38 23 244 152 55 96 134 36 49 228 47 33 124 46 21 76 35 105 226 32 2 70 50 56 254 30 146 40 38 185 249 42 81 59 51 215 178 20 187 1 45 56 157 19 132 108 52 102 130 46 172 150 6 171 222 49 211 81 18 204 175 19 7 157 10 185 128 37 186 195 53 88 55 25 196 205 32 71 120 52 221 140 55 187 162 50 12 240 54 187 209 37 89 107 6 217 86 33 156 24 49 211 150 21 160 75 36 24 133 41 164 37 29 70 113 33 55 105 13 8 51 6 116 202 39 202 103 35 227 190 14 121 207 7 196 56 31 73 101 52 110 218 18 224 43 33 73 56 18 124 82 6 70 39 40 174 85 19 108 92 36 59 255 41 115 117 34 216 140 17 178 188 1 222 144 
26 22 170 54 104 252 5 143 86 35 228 36 55 64 188 10 63 56 21 181 44 53 65 229 0 253 232 30 141 89 44 56 170 5 52 68 36 138 90 17 174 183 41 106 194 33 162 57 6 207 235 47 180 16 21 156 14 34 245 190 50 159 76 14 227 240 32 62 253 6 245 154 9 184 27 27 241 220 2 221 221 55 237 147 51 251 139 25 185 128 16 5 2 20 246 189 10 243 171 55 141 36 39 168 74 25 133 219 54 98 15 3 246 17 39 129 200 32 1 28 46 3 101 20 192 77 47 108 25 5 144 35 37 218 35 2 182 218 45 197 131 3 214 9 4 159 125 13 187 236 8 32 20 25 109 66 21 135 102 13 170 126 7 205 35 53 168 112 10 43 67 17 53 120 32 178 163 35 158 79 51 178 252 8 245 172 15 91 29 34 217 250 23 252 103 7 109 175 11 176 172 32 40 111 26 203 8 48 26 64 2 22 51 31 194 70 3 224 198 44 218 206 9 66 128 14 241 255 38 157 39 54 12 122 33 20 2 11 84 60 41 135 20 3 205 158 51 148 30 22 98 249 0 226 173 17 225 94 14 8 124 3 130 74 39 132 64 44 192 1 11 212 220 17 115 205 13 145 129 15 138 20 41 55 130 42 150 50 43 18 211 21 93 18 26 157 93 50 159 188 31 123 112 10 73 172 35 202 181 21 222 82 12 97 81 42 147 50 29 103 244 10 121 191 7 214 13 14 146 223 26 3 113 11 175 216 45 100 178 11 182 29 12 7 18 8 57 63 39 45 1 8 237 214 30 250 8 0 217 216 35 74 70 18 35 48 46 213 99 36 243 96 43 5 60 12 68 120 10 70 72 39 28 127 49 37 47 50 253 181 20 67 206 47 116 233 13 215 180 8 56 226 37 116 199 18 236 178 16 53 215 20 180 41 9 228 104 6 153 161 50 103 179 54 81 15 13 5 143 29 231 228 41 174 44 6 97 121 43 56 11 7 97 227 19 201 216 37 106 241 20 29 8 45 44 98 2 187 48 50 159 213 40 203 179 1 69 4 17 80 66 10 52 181 3 12 221 5 253 232 18 5 141 39 103 154 26 151 247 50 109 90 29 32 164 2 36 156 3 103 246 55 28 135 27 249 122 8 226 53 38 111 91 37 9 157 5 1 12 34 91 55 2 255 1 6 155 150 5 145 113 18 25 156 35 147 251 45 200 102 45 35 206 38 193 60 55 205 18 42 4 127 33 5 89 53 156 83 46 13 113 31 169 247 2 164 153 19 10 52 14 216 178 47 21 159 5 39 149 49 166 141 7 255 223 19 82 49 16 195 30 1 186 156 53 83 52 31 136 94 
55 58 81 52 217 104 27 110 63 17 251 228 8 219 142 34 12 61 54 42 136 48 198 224 20 250 225 4 89 134 30 170 53 47 18 188 21 82 89 33 54 28 44 196 134 40 1 238 2 137 169 8 105 39 43 74 95 12 208 235 30 5 255 1 194 77 27 27 116 25 55 10 6 189 155 15 172 7 1 85 127 10 124 33 53 219 137 45 199 236 3 198 168 21 20 15 0 136 136 47 146 83 29 45 84 33 52 26 38 179 226 42 212 51 21 94 237 52 74 242 27 243 200 15 2 163 23 138 64 26 221 248 55 49 231 4 76 148 47 46 237 4 97 155 10 78 197 20 65 203 47 9 151 49 172 42 11 236 209 16 228 1 34 203 195 54 96 178 36 77 214 5 233 174 27 174 90 44 121 100 5 17 184 33 59 0 29 13 73 41 14 29 53 209 205 45 131 175 10 90 221 27 8 57 26 98 246 11 198 2 52 126 78 48 126 164 13 200 165 11 229 147 52 178 100 23 98 1 25 63 254 33 121 73 51 111 124 17 113 94 40 192 186 22 100 38 54 9 206 51 156 131 14 1 70 32 2 218 31 1 242 8 74 99 48 198 221 49 37 184 17 223 90 37 5 122 31 212 24 27 87 127 52 158 202 31 120 200 24 106 40 50 206 200 40 171 224 5 99 104 52 189 98 10 55 27 54 80 57 13 207 96 11 153 35 4 98 232 22 138 175 52 82 119 39 51 137 35 155 97 0 253 95 0 25 59 40 82 29 39 178 211 0 213 225 10 189 140 13 108 176 55 227 63 18 108 155 46 206 163 35 45 14 44 104 54 22 134 150 0 89 70 30 58 197 11 199 222 16 119 88 51 182 93 0 82 181 14 245 63 27 3 101 3 57 137 25 208 197 19 22 84 21 220 148 20 186 170 44 18 126 2 112 190 44 37 225 41 100 113 44 202 207 22 83 90 14 24 78 20 108 199 48 1 154 42 171 168 53 41 124 21 231 200 2 201 203 54 58 31 40 10 105 35 100 181 44 178 59 16 122 145 17 20 254 53 188 70 6 57 73 30 1 94 23 204 227 9 236 141 3 85 155 0 10 116 18 70 159 12 215 227 1 213 148 29 28 69 38 101 162 40 195 41 36 166 151 0 51 206 29 206 63 40 66 187 38 226 155 53 197 45 19 89 58 55 159 91 4 65 56 47 106 79 45 1 103 16 207 75 14 15 28 33 202 65 27 101 113 8 146 231 50 204 53 17 39 88 42 96 151 21 175 59 38 22 162 46 97 175 37 125 239 55 191 253 28 48 78 6 24 129 27 77 122 18 165 204 26 60 189 1 119 239 55 25 140 25 200 43 
38 183 153 21 180 22 30 3 93 30 132 9 43 254 71 8 202 82 44 135 133 19 119 23 4 3 89 28 46 176 11 199 105 7 221 160 18 58 149 31 67 187 21 139 249 40 221 132 31 98 180 54 122 32 26 211 3 16 131 255 0 237 195 37 141 62 16 34 110 19 222 160 22 215 87 12 92 13 46 16 141 8 49 148 27 52 19 31 52 149 4 247 69 49 54 189 35 164 19 9 68 163 9 156 118 53 169 213 5 54 17 6 202 175 19 221 200 47 114 179 46 184 34 44 117 126 16 136 103 37 43 115 25 162 92 26 119 29 24 136 58 10 55 104 48 255 198 50 179 89 10 213 32 48 84 223 48 187 211 52 46 108 38 139 73 13 168 194 29 227 228 36 75 60 12 17 94 39 107 94 36 139 209 8 106 251 28 62 155 18 170 196 5 243 24 22 181 14 9 153 123 12 213 112 37 51 156 32 146 200 4 99 167 54 94 92 28 250 100 54 190 40 41 214 27 30 228 152 55 95 190 44 207 199 8 107 27 18 52 129 53 219 81 43 55 173 45 156 116 51 196 120 1 223 39 5 120 200 28 54 31 3 254 14 7 25 211 19 154 203 54 236 85 6 153 66 50 13 141 46 134 211 38 173 214 6 117 176 36 148 109 42 163 138 44 118 117 54 65 204 18 150 87 12 216 190 41 101 92 39 56 150 44 15 148 26 191 114 30 44 200 9 182 85 39 44 223 0 248 131 30 80 194 6 14 236 36 106 176 52 0 130 35 148 217 2 7 222 39 207 88 45 36 102 41 4 24 2 135 63 2 73 168 24 54 166 34 230 125 34 104 185 46 66 45 21 32 177 5 120 243 49 222 98 13 246 136 53 54 217 38 222 35 28 132 189 51 1 101 19 186 119 13 232 137 5 153 48 53 140 221 28 239 90 10 119 252 40 80 161 30 116 206 27 49 69 20 151 241 31 14 132 55 152 128 16 200 189 12 165 27 51 0 240 26 252 164 19 157 79 15 108 47 0 177 238 15 162 49 46 39 117 46 167 116 30 100 91 19 127 219 43 112 232 55 20 227 13 99 86 9 147 25 10 129 80 4 178 184 27 39 184 26 156 198 55 247 108 38 211 218 38 187 237 27 158 1 30 244 16 17 13 189 42 93 214 36 22 160 4 206 13 16 148 160 55 0 219 42 218 122 13 199 152 4 200 39 0 217 202 46 150 208 27 109 106 1 13 132 23 26 81 43 187 69 35 150 213 29 16 92 13 168 183 45 207 204 54 153 128 37 106 41 18 212 223 31 88 242 42 169 28 5 238 19 3 195 159 3 32 42 3 215 144 11 163 189 12 36 178 
6 77 129 26 44 230 43 30 184 20 58 151 51 78 145 46 237 70 6 23 145 45 167 236 33 100 240 29 23 195 50 152 47 54 126 6 52 54 176 7 205 179 37 95 96 18 165 251 41 55 89 49 35 216 13 19 45 4 214 38 36 6 67 18 12 173 8 188 67 38 112 248 37 208 231 50 203 36 25 36 78 21 252 143 40 42 120 39 80 198 53 148 42 9 65 39 13 133 161 53 125 82 21 100 208 24 136 173 37 214 47 49 101 233 51 222 198 20 164 182 24 206 125 1 245 74 6 151 35 3 233 185 31 185 190 55 102 148 37 149 52 43 126 249 41 68 187 13 251 166 19 120 226 41 195 178 24 230 196 33 159 90 34 94 110 8 242 229 45 38 229 4 32 186 0 219 245 19 129 14 44 100 203 55 22 87 21 218 216 21 53 240 11 163 241 53 136 171 43 109 203 43 40 128 22 29 180 40 44 45 20 247 160 42 78 140 37 38 59 10 22 209 45 7 6 37 178 153 11 125 30 43 254 201 24 178 149 36 223 59 20 128 99 26 12 239 49 72 146 15 25 15 39 31 193 41 184 22 15 214 243 5 159 62 55 52 177 55 112 66 47 211 254 35 195 178 19 85 181 4 100 222 51 37 29 43 59 100 49 46 94 25 109 213 13 30 74 37 96 113 49 95 120 28 17 255 17 198 147 37 164 110 26 194 99 29 38 118 27 132 66 16 89 227 23 163 36 55 21 154 22 141 127 16 141 56 46 32 180 19 142 133 21 241 186 3 104 20 8 170 169 49 141 109 21 178 157 18 76 236 39 203 156 44 4 170 28 184 202 51 62 177 20 248 60 52 13 137 54 182 252 28 35 244 46 193 70 2 173 59 21 73 69 49 244 220 18 190 1 40 111 69 8 171 24 5 52 221 4 49 9 31 37 224 16 107 68 54 166 90 55 235 188 3 200 233 10 201 27 9 14 5 5 39 45 17 4 77 18 13 123 32 237 95 35 49 102 50 139 47 37 71 165 37 49 100 22 76 24 21 81 138 12 126 107 32 203 248 29 70 186 35 165 172 28 12 196 16 59 72 55 224 114 24 68 135 44 92 101 5 230 11 3 82 192 47 74 156 13 4 124 19 177 106 23 117 69 10 189 81 10 47 233 46 183 201 27 28 217 41 39 54 43 232 227 38 132 15 26 1 6 11 107 67 9 176 38 38 1 21 38 235 63 29 180 73 9 141 152 24 195 67 40 167 212 29 182 184 30 188 230 49 255 24 33 38 252 10 59 85 53 123 107 33 196 177 31 92 174 2 159 199 25 116 8 31 44 48 11 18 221 19 42 139 17 38 164 28 123 109 
47 231 56 12 152 237 24 71 87 0 14 78 44 22 8 8 71 106 50 36 129 44 176 85 27 84 40 46 194 33 45 250 85 30 231 5 29 62 121 51 140 73 50 149 185 9 255 157 13 128 173 5 213 207 10 253 28 28 30 143 14 116 125 21 121 83 52 242 193 24 59 118 37 245 57 4 146 19 53 64 52 10 15 122 8 43 111 6 186 185 18 56 197 19 139 203 21 76 185 33 194 229 54 251 157 16 15 235 8 67 55 40 189 4 11 45 167 46 230 71 38 172 5 1 119 56 21 48 227 39 21 129 10 179 90 25 158 40 37 213 136 2 218 41 23 129 217 54 200 180 50 205 74 9 5 24 10 233 113 31 106 22 42 196 125 32 236 224 38 116 81 24 157 6 17 118 121 9 43 24 46 117 158 52 142 208 13 255 122 47 22 84 51 147 67 31 115 230 35 197 38 41 203 60 15 68 44 26 93 157 8 251 214 38 204 221 21 70 233 43 154 222 31 221 61 50 195 96 55 234 111 27 38 242 23 83 19 52 240 171 40 199 109 36 164 165 50 141 107 4 107 49 17 168 12 29 8 123 31 119 94 5 105 5 40 125 120 1 40 48 48 149 68 44 59 84 25 166 48 4 215 82 28 228 14 4 95 168 35 189 5 28 195 76 9 59 185 49 107 122 47 176 43 10 4 163 48 53 191 24 135 104 52 150 124 35 62 56 9 67 252 12 143 55 31 72 219 3 194 253 51 237 70 31 144 37 36 79 63 4 183 0 34 51 152 32 107 20 11 103 239 2 158 136 10 122 228 5 119 124 42 189 127 43 227 50 18 34 233 26 34 214 37 186 74 9 206 84 16 190 156 7 70 39 9 43 65 32 167 163 21 38 200 40 88 219 43 65 126 29 23 112 0 97 26 30 181 248 20 81 65 27 120 241 38 185 64 37 93 9 43 37 73 35 0 71 44 126 39 20 239 42 37 9 80 3 1 48 44 66 222 45 52 75 22 116 254 27 126 220 25 199 97 41 14 12 32 54 15 47 96 83 24 176 175 42 224 109 28 191 224 8 10 164 5 8 225 11 228 216 2 69 43 1 81 164 31 96 30 23 179 22 48 99 253 32 208 237 23 176 223 25 84 20 9 54 124 53 14 89 10 57 180 11 222 215 3 252 8 31 18 111 18 15 54 10 252 174 26 220 7 38 240 30 20 108 64 50 198 105 4 122 119 42 81 201 38 89 109 8 200 112 55 255 39 19 173 65 23 180 43 15 211 197 12 19 180 18 124 216 4 243 11 54 189 119 31 42 193 32 154 7 39 194 95 28 3 198 1 47 41 52 244 105 55 168 152 27 129 52 
39 140 150 28 3 115 46 196 161 24 203 40 50 42 120 30 240 199 13 25 196 25 130 117 18 27 249 27 79 144 47 230 163 50 89 170 6 250 110 41 34 92 3 155 229 35 98 47 12 38 125 15 155 250 26 148 108 17 36 134 31 200 33 16 114 72 26 225 114 21 61 96 32 34 25 26 82 252 49 207 207 52 202 187 49 54 42 37 188 180 13 221 142 32 37 77 49 151 102 38 247 120 25 16 173 43 12 125 26 219 176 28 150 9 2 193 253 22 117 134 3 3 52 48 81 169 7 183 145 14 47 90 6 221 97 18 90 138 13 10 5 4 19 79 29 17 100 18 151 174 14 203 181 47 117 152 22 6 161 21 97 64 50 194 215 13 76 125 47 81 48 19 160 189 36 4 225 35 179 198 23 104 33 44 0 127 26 161 46 51 226 148 53 185 41 1 54 156 10 102 105 19 36 64 39 5 43 18 204 39 34 237 187 35 108 26 36 154 238 22 46 200 31 87 4 14 243 1 44 92 75 8 157 229 38 200 32 34 240 96 39 171 82 27 197 173 29 179 8 51 123 4 42 127 227 14 129 122 2 204 72 55 177 125 40 210 213 16 50 51 35 132 93 32 49 116 11 57 247 22 62 20 46 33 95 39 155 2 27 228 152 36 97 138 38 54 26 32 106 114 21 199 186 38 60 173 48 51 101 46 72 208 39 167 182 42 169 28 30 65 3 15 204 182 6 230 27 40 88 81 7 18 186 19 191 167 31 36 197 15 244 29 6 170 179 48 199 106 41 202 189 13 129 243 35 156 139 19 237 89 37 167 145 36 78 144 8 20 204 4 49 59 31 229 242 6 79 80 8 12 88 41 0 162 21 139 183 19 228 179 18 117 6 17 5 108 5 209 144 6 12 217 35 254 21 19 79 252 39 167 170 15 73 35 42 1 28 14 180 178 11 186 53 1 38 95 26 183 216 7 144 101 53 165 36 44 162 199 28 76 186 13 111 186 30 140 185 42 62 68 53 115 178 27 210 150 18 171 127 34 16 57 48 52 0 34 252 198 54 182 218 46 112 150 18 42 156 24 110 162 51 32 93 45 182 210 24 53 109 49 111 192 53 111 162 1 53 42 24 16 84 32 166 203 2 66 177 40 229 35 25 66 211 47 20 246 53 129 235 12 65 140 27 228 61 41 14 34 9 99 4 31 46 156 50 223 164 23 2 215 49 213 119 53 203 56 6 182 176 40 66 93 44 127 121 50 162 4 53 166 197 35 66 150 26 230 14 44 189 200 41 53 103 12 109 72 43 29 61 5 122 179 5 243 107 7 248 7 13 189 178 31 84 191 37 98 251 19 42 21 
16 145 50 37 217 35 3 22 224 37 201 83 9 53 8 17 60 61 30 238 20 42 174 145 28 169 80 38 190 246 23 240 89 32 20 241 6 244 246 8 71 25 45 79 183 9 141 72 32 161 209 14 51 23 47 131 178 29 121 174 46 210 213 26 195 140 38 186 29 37 211 195 28 138 51 33 210 216 11 163 186 30 187 138 49 109 8 51 27 47 37 240 20 9 125 234 19 154 212 38 93 178 9 145 215 35 105 76 23 35 77 2 173 240 39 181 198 34 228 32 43 249 243 32 227 152 42 184 1 39 106 36 16 66 27 2 142 156 5 219 239 43 204 230 32 146 152 45 178 183 14 165 242 25 62 29 33 63 197 20 100 7 6 127 166 20 27 215 39 10 113 3 241 46 22 137 153 48 65 186 22 51 191 44 80 189 43 21 158 7 28 56 46 194 60 25 153 130 12 10 86 53 57 5 38 210 129 47 140 143 2 75 79 42 8 181 31 167 89 35 223 61 14 27 132 47 157 75 10 243 44 35 248 24 5 121 245 42 8 92 5 88 3 6 13 222 13 103 8 44 164 72 7 40 163 28 115 193 47 160 121 31 184 59 9 174 54 17 10 3 33 13 93 7 235 3 38 244 177 2 60 6 26 223 58 46 161 137 46 26 117 46 85 84 20 139 43 46 142 124 44 236 214 55 239 135 11 160 70 23 166 108 47 224 54 8 105 41 34 222 143 55 50 149 2 93 83 24 218 192 4 176 54 35 55 186 11 126 42 25 234 141 25 33 45 2 74 172 40 217 204 2 110 6 32 193 149 50 129 175 34 184 87 25 114 236 7 156 111 42 42 147 19 87 92 5 3 6 46 207 24 4 213 9 21 106 43 23 25 171 23 112 5 25 92 15 38 204 81 48 95 16 31 187 186 50 193 133 1 218 154 54 227 136 0 14 228 49 186 2 41 191 161 54 207 248 50 32 193 41 48 39 20 235 183 14 112 158 24 11 136 35 147 65 49 120 207 27 122 199 19 27 216 2 19 90 26 212 56 2 252 226 13 179 235 6 82 175 41 218 53 12 28 149 44 235 216 46 179 42 25 139 53 20 229 0 25 29 154 21 255 84 40 234 63 2 154 20 53 207 90 41 101 171 28 61 144 47 103 236 43 157 195 32 157 180 54 56 185 45 140 146 32 203 103 2 224 239 41 58 202 6 230 127 12 118 80 11 98 12 16 37 124 46 218 119 46 147 87 10 37 85 14 140 83 38 123 59 48 69 189 54 196 14 12 20 197 7 33 185 28 157 20 30 20 13 17 107 163 14 193 113 26 20 203 38 79 241 19 12 247 40 26 56 52 223 94 45 152 251 
34 173 250 22 186 30 26 93 29 3 206 174 7 153 101 30 139 167 2 130 101 20 186 105 36 25 49 12 20 13 33 14 11 3 44 165 48 73 84 46 248 110 8 93 73 3 4 56 53 106 118 0 211 192 17 4 36 5 17 104 27 28 69 39 194 206 1 22 18 41 132 178 46 205 33 2 5 41 28 123 188 47 59 209 11 95 161 29 200 138 17 13 135 11 219 146 33 237 202 37 160 75 10 193 196 31 234 154 26 166 116 45 119 185 5 25 208 13 163 236 10 43 25 13 189 98 43 135 110 19 210 143 52 150 53 30 48 167 4 165 31 3 94 17 12 46 63 32 26 204 11 51 33 16 150 131 48 4 192 18 147 235 41 200 182 33 112 66 54 143 184 44 160 212 27 223 104 21 171 20 1 204 100 39 79 223 51 16 24 22 251 216 7 178 106 15 244 147 6 173 237 6 129 235 30 233 72 25 254 211 6 98 120 21 66 81 29 90 192 41 50 51 35 156 58 47 48 9 36 29 72 22 8 22 31 80 132 21 35 210 0 156 204 26 237 146 52 174 167 38 225 205 2 27 238 26 36 193 47 108 136 32 130 253 24 7 243 36 217 210 16 165 176 21 55 240 51 223 114 53 172 78 48 154 92 5 91 6 33 227 225 12 224 216 43 211 216 44 166 41 42 86 157 41 70 173 48 184 170 20 6 86 54 98 227 17 104 139 53 73 88 13 34 146 33 250 78 15 35 17 21 192 173 51 109 239 19 24 105 17 110 193 11 81 198 19 220 100 37 53 94 15 199 59 41 21 248 53 38 137 29 211 192 3 195 77 19 44 32 33 237 171 10 179 60 54 24 47 3 118 139 26 177 48 39 169 247 53 51 184 1 243 157 36 65 67 16 97 86 29 13 129 25 73 26 17 121 4 47 4 202 32 52 198 49 43 136 52 227 96 40 129 93 1 196 46 2 26 194 47 155 130 25 181 48 18 185 145 14 131 10 50 73 249 45 210 153 24 50 226 25 143 95 21 190 207 39 128 128 18 3 146 15 51 178 24 196 27 28 206 253 45 199 227 15 96 253 33 66 66 9 161 106 55 112 20 39 240 129 42 131 9 53 53 43 25 80 3 55 77 147 54 48 167 6 45 5 33 111 52 18 217 150 27 237 135 19 111 54 38 120 101 43 163 152 19 166 253 24 58 39 0 225 30 53 230 221 28 27 251 38 177 92 3 56 95 2 110 210 18 211 53 14 107 28 12 105 55 54 144 163 40 174 91 14 139 68 49 135 89 34 227 222 34 66 60 48 20 135 44 74 66 47 102 116 0 157 74 24 64 199 23 156 125 2 224 21 1 57 148 
21 23 45 7 83 120 4 219 250 54 29 235 44 145 175 41 220 222 26 163 119 22 32 159 38 54 118 47 202 217 31 247 194 2 111 143 29 106 159 18 85 195 28 4 49 16 226 5 19 89 118 51 249 40 25 111 118 11 72 164 3 11 12 2 154 139 4 57 93 25 252 11 13 45 213 40 50 49 9 169 105 26 209 68 2 72 64 10 236 113 21 248 109 40 131 96 33 225 194 46 236 143 43 193 176 14 243 214 15 92 222 40 161 63 32 225 154 37 82 100 45 191 118 49 31 148 34 226 76 54 113 61 15 33 43 2 247 71 15 213 149 40 21 140 33 175 84 19 19 101 51 137 98 2 29 87 44 105 208 53 167 42 39 210 112 14 25 120 4 174 114 1 58 201 48 143 193 3 244 154 44 86 198 10 173 177 51 126 187 50 168 168 21 25 5 46 145 132 29 3 251 23 205 71 14 142 168 18 41 184 0 239 219 22 160 135 4 91 81 36 3 133 29 9 95 30 141 12 10 136 211 39 207 72 29 119 247 30 47 54 45 10 104 13 146 241 33 227 39 12 104 219 13 200 55 51 212 173 51 167 179 3 239 189 18 231 148 34 29 250 20 133 136 38 118 6 10 157 35 2 120 156 50 176 25 47 93 158 22 16 177 6 206 77 29 98 184 10 92 154 47 229 172 30 235 201 35 14 119 52 171 9 44 196 4 1 98 198 9 20 93 31 97 156 26 25 202 6 179 223 43 96 17 14 41 200 45 160 246 0 170 194 44 174 6 6 116 250 50 210 75 3 110 172 20 56 220 32 23 110 16 40 92 49 240 48 1 231 238 19 169 187 49 175 51 46 169 111 24 244 14 22 160 192 14 124 212 45 234 0 53 71 224 13 119 32 52 101 137 37 33 147 4 84 70 37 196 168 41 210 126 50 146 38 38 102 60 33 103 138 40 71 239 15 104 124 28 241 249 29 132 94 42 203 107 38 115 40 40 241 141 10 23 231 25 83 225 16 221 87 15 204 184 39 72 96 9 65 127 37 159 4 16 11 169 51 51 163 44 192 97 19 167 241 54 136 20 35 224 157 7 152 141 7 249 196 49 120 100 0 124 245 27 38 10 6 201 235 15 43 62 22 28 131 7 48 222 23 205 141 55 90 24 8 31 112 17 131 15 13 120 240 11 130 113 37 109 252 16 172 187 28 47 58 29 13 96 10 154 15 5 179 158 52 35 198 39 50 230 15 35 127 17 148 149 47 144 208 43 75 213 50 133 5 55 230 82 2 245 207 37 148 25 24 90 190 42 64 130 53 192 201 17 85 136 42 37 202 37 251 121 3 0 212 1 82 94 22 33 245 
50 59 39 12 249 12 13 124 20 13 69 79 50 206 172 7 152 158 10 17 32 43 229 237 21 67 64 15 56 121 10 96 168 19 108 106 39 129 135 53 208 228 19 124 1 19 26 115 20 58 10 49 40 157 28 104 48 52 226 21 12 138 28 41 244 94 50 123 154 10 95 81 30 96 78 1 211 25 19 222 124 51 123 240 44 171 73 22 192 229 8 221 186 12 59 238 16 213 143 47 39 177 48 117 163 35 143 18 49 11 155 52 252 94 31 69 74 8 43 158 37 229 212 0 211 148 14 99 72 5 20 120 26 184 8 25 202 248 5 101 187 25 195 93 22 13 121 25 171 65 54 127 201 10 19 46 45 92 206 41 212 68 49 220 225 43 212 244 48 144 149 4 237 66 41 102 235 37 167 218 36 112 243 48 158 242 12 109 196 40 177 249 13 147 66 17 135 68 49 28 15 54 95 64 45 74 52 52 36 53 53 24 226 43 10 15 8 206 79 18 199 235 21 9 91 44 77 168 0 93 202 31 157 123 50 209 26 22 6 31 46 233 203 0 248 232 38 71 164 21 50 204 31 141 166 4 54 19 41 0 7 46 123 24 55 149 135 22 180 65 39 128 32 31 104 22 30 12 23 16 217 229 45 127 123 3 147 26 19 154 6 39 178 80 52 58 54 17 123 238 25 155 172 33 178 83 54 201 242 39 174 216 22 41 240 9 67 149 28 74 113 54 154 76 0 208 163 4 190 144 55 106 49 17 189 82 18 175 219 25 135 113 42 119 224 30 13 207 32 126 80 50 202 108 42 110 59 49 254 67 35 47 199 25 129 231 48 92 184 8 206 83 15 174 156 20 125 14 10 206 196 5 58 196 27 117 94 1 185 201 16 128 242 9 103 133 53 32 214 51 115 215 50 15 95 31 29 94 45 226 107 48 166 245 37 5 74 14 206 13 23 192 206 30 69 190 14 28 47 49 243 253 32 82 152 46 176 226 48 27 170 30 17 63 11 91 15 49 105 85 49 55 83 31 246 210 51 37 185 54 34 191 8 187 57 24 157 193 12 71 103 37 135 239 16 150 30 49 235 81 9 63 83 7 17 20 12 202 27 47 138 62 10 195 84 31 132 188 31 236 213 54 219 9 36 249 78 0 75 238 31 158 248 48 178 57 43 206 112 13 12 204 24 97 75 4 29 133 0 242 93 4 251 124 45 73 34 48 56 94 22 48 134 41 105 237 39 217 102 51 165 169 4 241 118 18 118 6 4 211 26 48 79 27 41 113 247 1 208 204 17 86 237 2 68 171 27 170 28 9 83 91 18 201 167 8 207 83 52 233 29 11 4 218 37 251 146 53 200 147 
19 181 205 31 96 54 1 125 9 52 216 180 13 127 5 52 211 71 54 240 0 10 202 140 46 92 103 54 240 180 51 189 209 19 243 69 24 252 252 49 177 94 0 182 18 11 254 144 28 254 220 38 138 18 35 241 77 3 166 131 24 119 129 19 188 52 16 185 71 41 23 216 31 41 65 5 185 41 27 150 229 5 168 145 39 245 7 5 120 218 12 249 157 41 45 29 18 117 145 17 77 1 18 142 34 20 183 249 2 156 207 50 45 162 16 53 0 0 15 79 42 173 68 39 202 176 52 91 217 17 92 187 55 126 180 39 120 215 35 71 179 1 233 37 14 233 63 13 56 79 42 124 216 53 45 90 8 6 9 21 194 46 3 118 159 3 77 159 50 0 86 20 37 169 53 101 42 38 180 224 42 140 166 55 230 24 14 240 85 8 30 238 22 189 227 36 92 86 52 178 66 2 92 116 47 134 144 19 103 150 16 13 212 22 37 142 22 123 118 52 105 100 18 76 20 30 162 58 41 228 174 5 89 35 3 233 189 34 127 188 31 83 111 45 226 175 32 88 214 41 188 236 21 208 33 31 10 19 44 185 97 29 220 98 30 153 191 46 85 163 41 196 237 3 116 69 43 74 194 31 54 186 31 87 27 10 106 200 27 204 23 55 46 75 24 238 216 21 145 79 49 126 69 13 195 142 15 133 186 22 63 61 13 90 125 8 34 140 20 58 166 18 133 121 24 94 40 9 173 112 24 242 13 27 128 111 33 58 68 48 120 100 43 245 186 5 129 103 23 40 127 29 161 99 35 202 118 16 58 118 42 72 8 42 183 24 21 251 235 45 95 68 50 25 221 35 129 208 27 0 229 37 100 53 47 218 10 41 80 61 41 88 29 24 112 239 44 92 65 3 160 206 53 125 211 6 77 205 54 51 73 34 104 236 4 114 49 5 175 64 45 204 138 38 187 27 18 252 100 50 203 168 16 158 75 21 108 8 16 181 70 8 161 133 42 211 39 49 19 164 5 157 113 48 185 150 37 29 44 8 197 30 46 16 177 18 25 193 15 95 30 33 228 175 12 12 167 39 176 18 45 33 43 14 183 17 35 228 177 16 2 78 40 179 182 49 116 189 49 147 47 37 66 87 17 233 32 49 251 188 26 39 107 10 56 184 6 233 190 32 56 225 28 238 201 8 171 194 3 219 211 5 50 68 47 82 154 42 14 251 41 121 13 33 50 63 51 240 41 19 210 247 1 155 200 45 93 76 40 49 68 42 117 208 28 15 157 10 11 84 27 24 7 53 87 224 30 129 242 8 120 237 43 64 32 33 140 65 26 209 14 15 161 182 7 62 144 34 147 188 
2 154 246 49 122 170 18 108 143 11 89 101 43 121 13 16 187 81 33 201 242 2 128 196 8 16 11 3 205 98 53 195 196 32 109 62 44 253 16 54 98 98 23 112 45 26 193 57 20 179 209 44 119 58 12 130 68 9 229 140 13 169 104 50 232 221 47 248 205 18 90 42 42 136 224 35 193 15 30 146 250 37 204 174 55 16 226 36 156 38 14 4 56 46 226 13 38 175 79 8 217 143 40 185 49 49 201 67 19 195 22 55 113 156 15 83 153 36 121 24 32 177 125 2 190 139 50 14 129 3 157 111 45 206 183 54 17 136 1 39 25 18 195 61 21 92 44 38 116 44 48 241 200 6 124 104 4 253 235 1 108 29 47 36 40 24 172 237 55 197 123 42 2 204 46 47 142 27 91 163 20 35 50 9 139 114 38 118 112 19 147 125 31 188 38 27 169 158 16 37 38 3 241 214 26 128 72 5 35 23 0 85 90 43 199 142 10 56 63 21 181 238 49 219 9 43 121 72 8 160 51 33 118 227 33 190 150 5 213 120 10 47 181 2 190 21 10 253 1 55 235 99 50 244 88 44 60 10 4 111 101 26 83 229 8 233 86 30 98 72 29 23 93 43 45 199 33 46 249 52 145 99 9 233 130 53 243 125 37 88 241 40 61 5 9 148 143 27 220 215 27 57 245 24 0 67 14 250 78 23 93 87 0 224 76 36 93 53 44 78 90 50 83 239 54 226 215 34 185 169 19 175 220 51 242 39 45 64 159 11 152 69 43 228 124 40 25 157 46 115 177 33 99 29 27 58 199 36 227 5 19 192 31 5 231 114 6 135 198 54 204 19 34 73 190 11 230 73 6 151 49 1 180 103 36 124 240 15 129 91 39 161 128 7 19 83 38 217 25 50 237 31 35 171 189 49 245 63 0 38 218 45 142 232 33 126 90 18 218 6 19 90 149 55 173 229 48 198 28 45 229 218 41 162 100 22 225 56 28 187 241 34 164 66 1 254 71 27 4 200 37 153 202 34 126 110 25 154 37 38 116 181 1 217 51 34 17 92 46 2 122 18 68 190 32 139 145 12 83 226 13 30 13 36 140 146 14 177 196 43 102 189 44 153 156 13 245 29 23 111 127 52 46 157 55 191 95 11 161 31 33 174 227 45 64 65 14 4 29 44 194 147 14 94 126 19 123 66 27 250 23 33 152 239 32 247 11 33 23 178 55 250 173 47 59 198 43 88 107 13 236 193 35 106 126 38 173 212 1 196 31 25 179 218 40 190 195 39 113 107 2 30 180 53 229 171 6 80 226 26 18 30 28 144 27 17 100 119 46 131 77 9 94 30 16 33 135 33 141 232 
55 65 95 4 237 209 21 207 127 7 237 133 47 9 119 27 128 211 38 205 221 20 236 171 38 115 44 35 91 108 28 187 29 33 140 237 49 11 161 22 144 166 7 7 189 23 219 100 37 184 111 9 99 254 44 143 234 16 252 248 19 25 147 23 6 112 43 168 57 11 78 210 35 12 89 46 112 232 46 224 248 25 222 213 48 200 158 20 193 218 38 84 114 20 196 197 36 254 165 27 208 144 23 41 11 15 18 142 15 10 236 45 223 2 14 125 123 15 87 132 11 202 136 32 143 166 38 52 203 22 196 151 8 208 178 26 94 217 4 75 113 35 77 232 40 201 62 7 77 92 9 213 59 33 124 110 5 71 102 50 222 92 42 145 35 24 106 19 3 219 21 9 196 33 26 2 12 55 94 116 52 153 51 8 7 189 55 110 214 6 202 35 55 237 53 9 0 23 29 21 88 25 54 227 43 66 188 41 182 94 2 234 77 49 167 18 47 125 82 18 160 218 7 214 64 0 237 55 45 69 152 20 41 213 30 229 214 45 68 217 39 145 58 22 163 52 27 246 54 27 208 165 33 16 223 55 71 7 20 223 47 29 181 108 19 139 224 31 101 151 32 159 4 36 212 91 2 10 89 18 175 212 2 143 239 9 150 225 48 197 192 5 49 228 33 18 50 14 169 101 5 173 220 33 8 228 51 97 144 51 53 50 2 36 164 0 5 38 29 197 239 46 170 152 48 220 245 33 65 222 46 29 44 54 1 26 55 146 219 28 196 167 1 105 34 6 143 44 44 127 204 6 23 49 2 12 199 27 235 112 24 23 193 25 49 192 35 13 198 16 180 46 41 214 202 24 2 139 31 206 82 38 255 222 11 198 20 6 54 38 21 248 121 23 184 233 44 126 90 48 172 94 6 119 38 40 2 87 54 84 23 37 50 87 43 70 173 42 108 16 18 229 94 18 206 196 40 41 91 53 135 255 44 173 87 38 4 133 43 27 181 45 114 179 20 32 176 40 48 115 46 143 109 20 83 95 29 174 9 36 173 50 41 4 7 45 137 83 41 62 161 3 241 68 27 161 26 36 20 54 19 130 190 14 225 44 44 235 105 25 29 206 5 36 187 14 119 84 52 24 242 5 93 171 46 119 214 50 173 34 4 107 158 22 152 169 49 1 7 14 207 19 10 138 204 41 223 137 1 209 207 6 124 83 13 82 200 2 116 222 54 18 8 14 187 181 47 194 67 38 213 188 25 161 82 48 42 12 25 249 61 13 76 134 55 20 45 52 242 74 38 251 21 2 176 75 44 243 25 26 175 232 11 1 134 46 13 175 47 74 183 52 208 144 48 253 229 11 72 141 
6 93 169 6 168 215 33 193 193 8 169 110 1 47 240 6 223 19 32 150 97 0 39 169 38 12 61 46 153 229 3 66 128 27 26 22 36 219 92 21 73 149 4 57 125 51 77 102 42 174 92 1 87 156 5 148 173 31 122 187 25 250 17 27 17 196 55 109 31 8 3 59 42 128 0 39 231 244 45 67 200 37 224 50 9 141 195 35 72 96 30 89 151 23 29 17 20 60 164 55 119 19 8 119 204 47 107 190 50 51 253 10 101 234 47 40 47 47 137 9 24 32 92 53 49 170 17 214 9 8 233 214 7 181 165 43 115 245 30 112 44 36 91 167 4 138 1 37 147 233 14 240 24 39 154 161 45 164 70 55 122 40 36 31 128 16 21 80 32 65 139 43 232 249 46 234 205 49 211 202 41 235 79 12 140 245 40 211 205 2 251 122 9 123 17 14 203 94 32 86 30 16 80 78 18 29 218 45 231 240 41 55 153 21 44 51 32 249 103 51 116 63 15 133 145 26 227 2 33 1 137 17 80 81 46 42 1 22 26 156 37 179 9 9 230 98 3 77 72 7 140 0 36 29 180 24 32 227 17 169 221 1 250 46 51 251 207 13 151 142 49 161 52 15 3 17 53 75 26 1 76 29 15 0 148 7 227 145 32 192 113 18 239 82 29 190 132 37 76 223 30 128 85 49 145 126 45 172 141 49 201 234 1 94 212 52 239 219 20 96 2 51 178 210 2 54 156 46 22 97 39 107 190 40 233 188 20 118 190 22 97 11 12 53 164 51 16 61 35 18 185 53 228 245 20 128 33 2 225 11 37 160 65 46 92 248 20 26 65 21 37 53 10 201 243 26 6 15 52 191 26 16 181 133 8 214 163 42 225 247 26 34 97 30 27 54 49 92 244 14 145 40 16 133 190 54 148 136 54 175 99 51 52 79 49 215 32 26 206 112 12 47 162 15 101 116 51 89 163 13 130 236 18 64 90 38 200 146 37 43 209 34 123 207 41 155 130 8 11 11 47 174 117 53 34 1 30 197 169 40 177 172 32 12 65 17 158 91 20 111 10 7 62 103 34 192 249 14 203 99 52 64 155 6 66 2 36 235 207 29 151 246 33 217 158 8 52 135 31 62 56 22 166 20 22 159 108 18 2 94 42 157 92 52 160 8 23 111 215 15 101 107 0 4 176 52 139 2 11 195 242 9 215 81 40 67 239 3 162 78 48 254 120 40 7 226 0 222 143 13 73 38 25 249 85 20 251 93 31 237 154 39 63 21 2 46 54 28 124 246 19 244 185 50 215 26 32 102 26 41 140 138 34 226 96 6 63 57 43 217 158 42 238 197 33 36 196 13 27 7 
10 212 235 9 238 206 23 9 184 43 147 128 29 243 145 21 45 156 46 203 162 53 144 149 25 85 200 28 92 41 49 71 6 55 22 216 40 206 129 20 79 144 47 224 44 20 124 169 15 30 102 48 180 253 45 124 130 9 165 43 32 171 240 54 132 137 21 5 16 36 150 161 12 194 197 9 107 220 47 210 33 27 207 48 47 81 208 28 124 197 24 108 22 28 245 175 33 6 93 7 167 218 33 108 166 53 72 83 47 105 124 46 154 195 31 106 191 43 48 54 24 70 83 37 245 27 51 83 103 50 45 184 38 212 160 7 39 73 0 163 94 34 102 69 45 37 251 21 92 2 11 175 134 33 202 118 44 49 91 49 233 71 29 137 217 52 211 216 39 49 31 14 119 207 11 114 26 39 117 207 54 251 180 40 113 223 9 204 0 19 19 116 36 237 22 23 197 139 17 228 40 48 179 103 50 205 13 39 156 217 2 80 0 3 48 215 40 48 119 19 165 73 8 187 4 29 70 72 33 110 96 5 214 169 34 227 105 39 188 155 55 189 67 23 148 229 16 11 249 5 84 217 0 88 204 14 161 173 45 1 82 19 170 220 30 19 25 51 174 35 16 241 202 12 215 194 47 208 233 4 169 65 28 117 62 29 34 246 14 117 245 16 81 98 51 106 165 18 141 203 51 88 174 26 26 78 42 3 130 27 69 194 41 131 86 35 122 66 40 111 208 1 209 94 51 118 151 9 65 226 41 240 220 35 62 200 54 193 138 3 131 29 39 217 88 33 27 9 0 235 221 41 74 37 31 225 191 0 195 194 16 160 83 47 104 60 8 242 63 43 15 70 28 104 145 7 113 96 51 78 169 5 116 97 38 51 234 33 245 233 25 73 42 33 133 90 28 197 201 35 11 249 11 156 172 37 253 56 51 166 224 7 8 115 18 242 80 8 220 14 25 6 143 14 96 177 35 42 58 30 35 182 43 208 66 16 8 53 22 232 154 30 91 78 41 171 117 53 185 208 27 73 32 3 250 185 29 52 215 1 235 187 1 45 169 17 98 52 26 253 188 37 75 235 9 192 33 10 144 74 27 176 79 5 105 90 2 65 198 45 252 91 18 165 20 12 218 157 9 150 47 4 129 169 45 163 126 21 237 255 54 61 58 39 151 189 32 93 59 12 185 237 10 205 138 36 107 84 50 154 128 20 67 170 15 193 30 36 193 83 49 251 25 41 184 143 38 243 110 47 224 143 37 106 171 48 190 109 18 63 9 37 233 60 46 7 240 39 91 71 26 116 139 19 3 13 38 113 38 55 0 156 1 172 204 8 25 201 31 35 49 48 95 51 23 79 120 26 150 126 
38 33 70 41 46 8 43 84 131 35 241 242 15 189 65 33 134 250 28 183 114 3 234 41 10 98 201 32 224 113 49 38 115 0 47 234 44 178 99 29 164 78 26 229 58 32 224 209 7 82 130 41 124 86 43 69 137 44 182 11 42 42 35 49 20 93 28 119 197 40 198 129 46 0 47 14 209 153 8 84 138 4 170 49 34 52 195 24 63 182 26 99 138 38 192 133 46 133 174 4 6 138 4 53 11 21 207 113 41 89 183 52 138 79 0 77 100 7 4 190 18 142 206 42 19 9 23 194 87 14 76 29 19 87 169 50 200 53 27 127 147 38 207 68 27 51 160 39 241 48 14 191 0 25 200 50 35 32 37 32 61 156 23 231 26 16 28 206 47 175 80 14 244 44 33 148 146 10 197 69 10 197 253 42 247 67 50 28 156 32 185 184 23 211 32 51 161 223 27 242 103 31 30 111 3 176 69 0 245 79 13 242 73 45 53 3 41 210 134 34 138 40 54 170 8 7 137 207 1 241 179 31 96 70 23 165 205 5 244 232 15 62 201 53 65 110 15 199 11 9 240 197 51 248 55 36 200 125 21 123 101 13 193 62 51 142 54 55 118 221 53 63 122 23 174 10 6 185 207 38 126 102 39 182 135 55 51 82 42 152 166 51 215 236 41 13 145 15 234 220 15 101 28 53 111 153 30 62 88 21 164 223 11 43 85 14 125 196 23 35 251 54 15 173 51 161 32 37 125 33 18 153 153 49 51 80 15 139 181 11 106 211 6 192 112 19 132 195 31 128 74 22 45 105 15 78 95 5 111 98 46 8 79 25 88 162 21 13 99 7 225 99 39 81 6 44 21 213 44 95 32 41 200 143 31 39 14 7 137 45 31 216 202 16 122 1 29 222 106 30 65 95 40 71 191 21 28 222 20 61 130 28 204 166 3 218 248 20 8 151 20 210 166 23 211 190 45 62 46 46 157 171 21 92 10 34 59 186 31 189 127 43 100 163 22 92 143 22 243 162 48 154 62 36 88 178 10 134 161 15 49 110 20 59 124 7 245 210 44 116 68 40 23 243 4 166 110 24 72 196 50 134 34 2 57 83 48 218 87 33 73 153 21 197 120 18 151 180 47 219 43 14 206 96 45 61 248 29 1 237 44 36 213 37 119 87 47 206 49 16 103 145 6 223 34 5 148 239 33 191 178 23 31 233 44 24 55 46 5 44 50 218 106 49 49 46 23 98 43 6 243 2 29 21 35 41 5 9 33 183 134 48 160 223 16 215 7 21 4 107 47 110 209 16 156 91 2 199 92 5 201 43 19 236 97 8 245 119 15 124 32 31 91 137 14 98 18 34 206 178 
24 159 88 52 251 215 43 87 136 45 131 154 1 228 160 15 91 187 3 124 219 30 5 178 33 23 41 39 202 119 22 34 202 49 249 138 41 129 231 44 28 10 40 188 247 12 119 209 16 82 160 53 4 235 37 45 145 47 164 154 25 110 113 42 249 232 4 224 89 8 234 34 20 226 110 43 179 159 13 83 43 41 62 51 22 207 64 34 106 101 1 219 84 18 195 101 50 29 112 44 63 252 14 174 164 33 77 8 28 120 227 42 171 16 26 235 65 20 81 159 7 165 161 51 11 18 32 123 124 15 119 198 21 27 251 42 35 17 34 6 219 13 22 247 17 87 82 26 246 124 31 151 16 42 170 127 29 38 178 52 237 2 7 232 146 10 249 207 48 212 90 46 204 92 5 30 10 43 154 163 11 170 141 5 41 28 19 220 183 16 222 204 24 112 89 2 64 0 38 154 203 18 246 155 40 0 130 18 163 191 12 48 243 14 77 190 18 4 51 8 208 206 33 41 87 25 42 199 27 245 49 17 144 112 34 18 122 53 210 163 30 197 101 35 131 210 55 182 104 47 132 218 9 219 42 43 163 235 8 212 236 48 68 135 27 191 25 21 98 171 42 199 224 45 153 70 51 1 249 47 219 176 35 6 56 22 241 233 42 222 196 31 101 148 22 126 244 40 41 103 7 10 172 33 80 182 2 74 67 46 250 134 4 50 78 21 27 241 35 223 55 49 115 81 47 104 176 25 207 206 3 124 78 27 50 150 45 118 119 32 252 89 2 74 23 38 59 219 37 114 145 25 196 36 33 116 29 16 67 149 52 145 54 39 39 225 37 158 220 25 248 34 36 15 98 31 235 212 50 124 98 46 160 208 50 190 177 13 83 250 47 137 18 14 106 167 21 70 110 21 104 171 36 202 228 15 159 104 3 1 40 36 209 90 50 130 80 37 124 186 46 143 104 24 54 167 38 164 13 23 79 18 9 51 15 0 156 28 2 196 19 51 30 135 22 110 155 26 40 109 25 144 146 15 55 64 3 69 88 26 87 182 38 103 125 42 131 15 30 150 63 52 29 113 10 184 117 26 37 251 27 183 253 34 247 143 15 79 86 47 6 194 38 131 124 25 146 106 7 210 244 45 67 66 45 184 174 3 179 136 10 177 139 42 64 30 49 150 232 15 88 248 35 213 95 45 63 45 47 52 126 11 118 101 27 37 106 39 173 40 24 56 11 8 86 165 22 63 55 15 55 25 36 150 0 11 195 107 23 65 105 46 166 56 3 17 75 16 57 23 9 68 150 55 233 198 14 33 54 45 58 60 35 58 155 38 166 207 47 15 67 14 71 234 23 147 8 48 170 75 
20 64 60 21 6 101 6 60 228 8 120 163 43 20 152 49 227 36 16 38 114 55 17 2 42 25 56 28 101 127 52 161 255 10 6 195 6 234 112 7 141 63 27 38 71 14 74 138 37 188 115 30 190 107 15 246 171 20 117 125 45 116 250 19 55 182 46 168 121 19 231 119 49 46 238 3 185 121 32 44 232 38 152 125 53 67 35 10 192 226 15 186 7 30 113 204 6 234 152 45 97 78 4 80 145 5 201 251 17 177 174 9 46 30 52 81 77 21 52 114 39 59 12 32 7 27 10 159 98 4 237 80 20 127 38 29 122 42 31 40 231 45 71 208 47 148 82 19 6 22 14 18 155 45 46 219 21 144 139 42 224 38 41 6 34 51 48 110 36 23 131 35 232 74 47 58 64 53 80 135 47 236 2 29 199 184 29 82 117 38 120 210 44 154 29 37 8 230 4 140 42 36 214 150 14 22 73 31 157 144 51 159 221 2 87 60 52 205 202 45 159 231 39 188 229 40 163 234 36 205 31 26 99 107 17 172 160 22 60 14 22 25 205 53 85 120 10 31 234 26 7 175 14 236 236 1 214 195 54 245 163 9 97 15 29 1 82 33 15 171 34 221 161 8 85 55 23 64 37 38 239 223 51 219 57 33 158 80 7 66 9 32 81 144 33 163 121 8 78 15 29 240 224 51 39 203 27 76 11 42 44 106 53 101 209 43 181 36 13 191 77 23 79 108 42 200 236 33 215 109 1 184 254 24 131 107 29 142 46 25 248 49 6 201 35 44 237 240 27 59 92 50 167 9 50 148 8 42 1 171 2 255 156 21 107 125 35 153 133 11 203 218 13 238 91 34 223 66 53 59 222 21 68 57 49 77 227 18 248 85 2 148 159 5 17 161 30 150 38 9 113 57 8 204 69 55 14 26 34 236 220 46 37 218 11 8 127 43 94 184 47 253 242 24 159 44 39 197 209 24 255 16 28 68 25 3 94 17 47 58 232 5 20 250 53 147 81 43 75 244 33 62 144 8 106 191 29 60 0 20 76 215 48 101 31 38 119 51 25 95 86 21 90 102 17 171 155 4 159 216 42 47 116 53 239 13 49 239 69 5 198 66 42 229 63 41 24 127 1 111 30 51 213 247 54 112 228 53 72 101 45 188 50 52 201 60 27 14 177 49 81 98 30 144 95 54 15 194 37 45 155 42 36 212 18 9 103 3 110 165 23 160 131 1 221 144 55 142 140 0 241 119 40 80 40 40 18 190 21 174 108 50 130 138 51 234 124 49 143 223 10 18 138 15 162 241 5 46 34 54 165 98 55 205 242 33 139 19 31 248 67 34 130 160 20 254 34 27 221 173 
54 103 167 16 89 65 23 123 184 28 221 189 42 208 180 21 227 251 45 38 84 55 198 92 22 233 230 35 150 90 51 61 93 12 126 115 15 54 44 45 244 19 29 168 159 24 163 249 54 247 223 52 83 188 45 57 28 36 147 122 33 241 181 32 100 88 22 144 84 18 163 204 34 67 33 53 60 70 53 27 78 48 216 124 34 244 112 53 110 78 22 35 194 35 124 115 19 208 163 15 156 10 50 189 100 22 3 103 10 81 12 18 205 169 14 62 154 36 140 196 7 78 129 3 193 48 36 101 67 24 111 230 22 211 45 17 58 183 35 71 126 0 240 96 6 138 26 2 78 200 32 208 228 50 0 35 39 67 223 38 41 107 49 87 147 36 14 121 11 140 99 51 236 158 54 6 166 20 206 237 20 178 191 4 214 224 47 181 194 1 32 9 48 179 191 54 45 72 27 144 12 31 46 23 14 212 19 44 193 153 47 129 109 53 97 18 26 35 182 42 44 158 37 235 175 50 51 23 42 64 141 16 87 144 5 106 128 22 3 118 47 113 58 24 131 177 43 57 254 47 215 0 2 134 34 54 157 248 30 43 250 21 187 141 40 59 77 51 177 226 20 236 57 39 157 16 1 156 73 32 156 164 55 191 44 28 183 158 39 177 68 27 62 42 22 140 104 40 110 16 28 167 187 1 184 216 13 1 119 34 165 80 49 209 1 24 112 56 49 180 12 0 223 12 4 71 199 50 87 189 34 18 101 18 234 249 51 98 43 8 178 248 50 179 98 34 235 139 30 248 107 53 4 253 52 203 205 11 136 41 46 238 243 40 231 101 2 18 143 5 11 186 48 109 139 20 249 45 44 100 63 48 97 5 43 46 171 19 87 151 33 75 219 41 176 49 27 64 113 46 250 20 36 133 105 13 178 113 17 241 101 11 247 81 9 162 65 1 57 252 4 20 64 28 69 113 20 183 138 15 203 182 4 52 236 55 165 144 16 11 45 31 92 47 25 158 146 11 154 35 39 218 12 29 76 64 4 214 37 39 140 73 11 121 104 8 9 13 11 55 100 48 102 172 38 248 236 8 27 205 51 40 232 55 104 24 21 141 141 34 215 185 51 63 176 52 76 219 51 176 171 33 93 135 49 73 191 53 22 149 45 255 5 53 23 80 27 164 231 50 93 85 25 13 79 30 232 194 14 147 62 27 26 242 28 217 11 27 110 29 50 116 74 33 196 159 37 172 92 18 1 167 31 80 201 55 18 43 42 80 217 5 66 55 46 78 243 45 107 247 41 181 18 37 84 44 33 176 93 10 88 50 26 33 100 36 76 163 5 37 202 15 93 133 37 80 90 40 71 8 
45 90 37 1 134 182 2 228 12 2 22 13 51 123 16 8 30 98 53 233 199 34 110 124 34 200 115 10 208 185 44 246 105 18 172 207 46 184 136 13 198 242 16 214 180 30 56 152 39 255 200 29 123 29 29 239 208 6 168 210 12 17 28 48 224 192 9 105 235 55 91 249 53 16 30 13 168 190 45 112 125 24 141 36 7 93 58 47 48 23 41 76 197 49 13 105 2 248 186 54 241 195 38 16 146 14 206 55 6 75 20 35 112 241 41 170 74 25 193 145 37 135 129 26 240 130 50 170 99 28 109 174 44 255 84 26 54 10 22 75 104 54 60 54 24 134 145 17 24 74 24 153 51 41 27 105 3 126 171 33 44 230 40 128 18 39 138 78 10 242 88 54 40 174 45 186 116 13 4 228 22 56 22 41 161 206 23 76 119 12 50 203 44 68 140 7 146 76 9 235 67 42 153 133 12 14 4 32 242 9 0 8 38 33 215 220 46 78 173 32 25 252 5 165 120 7 242 117 50 53 252 44 187 117 42 191 23 52 200 115 53 238 212 36 202 108 2 119 166 52 115 44 49 236 228 3 97 225 25 93 113 52 210 235 51 234 255 43 93 33 49 49 54 35 158 83 2 68 71 13 112 137 49 84 229 2 54 231 47 167 218 10 146 3 44 146 231 49 179 138 43 233 245 25 60 78 53 131 113 21 13 11 41 242 25 23 217 18 14 180 109 33 183 36 11 159 174 30 41 34 16 31 244 4 109 247 48 223 152 21 234 125 15 3 210 25 22 123 37 131 91 20 167 225 11 86 250 5 120 165 28 108 4 17 99 76 32 251 208 35 120 216 6 74 237 52 198 245 7 33 214 15 2 107 13 253 183 5 162 163 10 166 184 13 242 236 41 195 141 1 155 14 12 137 121 34 126 231 3 84 108 45 191 115 26 118 34 53 25 39 43 209 165 22 189 143 41 75 220 4 89 37 29 210 231 35 185 243 31 37 197 38 153 184 21 187 173 6 227 160 24 136 53 45 23 112 32 243 158 1 25 143 27 0 28 5 243 49 26 184 197 27 112 172 23 29 83 10 189 112 18 242 166 17 99 174 20 1 116 37 145 132 53 173 238 0 222 41 32 163 30 0 80 57 6 163 236 3 19 91 30 185 173 17 104 135 2 220 120 35 96 93 8 78 90 23 120 88 26 150 72 34 207 241 29 188 9 0 23 63 42 197 51 2 76 25 54 197 98 6 34 172 13 124 136 29 212 16 19 29 119 35 14 130 47 23 220 6 87 218 35 138 234 8 163 180 29 5 230 15 177 244 19 57 99 24 74 32 53 193 85 3 67 32 10 32 187 9 250 18 
19 228 129 38 153 180 27 127 52 45 116 121 54 215 224 48 247 196 50 76 124 45 108 81 21 40 52 7 58 46 20 187 128 13 112 91 44 164 218 0 30 93 39 254 146 6 194 1 42 62 185 39 143 51 15 195 241 33 242 206 13 114 166 45 205 98 25 167 183 23 5 139 38 151 212 48 152 243 31 82 10 54 133 108 50 118 59 28 69 50 54 235 100 19 77 81 3 4 174 32 143 175 23 99 207 32 87 237 34 97 205 23 205 236 30 9 155 19 59 13 38 159 113 51 240 71 15 158 234 14 78 53 50 29 133 33 10 109 42 215 237 31 196 191 0 95 22 4 108 228 19 221 247 28 36 245 18 14 64 16 68 143 29 201 110 23 54 176 31 35 73 43 226 67 10 249 10 14 221 219 51 213 231 23 202 146 45 11 46 9 154 105 11 8 241 49 184 151 29 1 70 39 68 205 48 79 24 14 42 194 11 17 216 5 163 203 48 210 226 43 59 8 43 44 113 4 195 164 53 10 14 10 215 155 41 240 10 51 178 115 28 139 185 31 86 212 33 57 185 20 65 170 41 178 53 20 87 200 54 101 20 46 0 98 38 10 244 40 125 213 19 54 224 2 10 252 35 196 187 52 110 77 22 163 25 21 107 18 34 128 207 42 226 149 45 214 51 18 171 193 17 139 2 51 135 205 55 66 239 21 143 74 16 169 230 44 187 53 52 138 218 38 32 229 36 83 239 31 21 4 2 23 151 49 228 96 35 212 51 19 30 203 36 5 208 39 58 121 50 20 141 50 249 33 29 233 151 10 237 227 49 132 218 22 228 92 26 24 101 40 227 176 5 179 139 39 44 15 36 185 79 29 218 25 6 113 3 20 84 64 48 46 147 13 138 252 29 239 74 16 160 108 35 43 173 16 59 242 33 138 114 52 163 6 53 166 147 2 230 10 8 121 110 51 118 86 34 192 35 10 45 8 38 218 208 25 204 76 51 62 244 14 68 85 44 216 145 2 226 63 52 80 65 18 166 113 2 202 44 47 210 215 49 163 33 14 239 151 36 227 72 41 56 131 25 202 97 27 9 229 19 74 80 25 187 52 27 232 142 54 191 168 49 224 240 48 120 17 11 192 255 35 68 44 37 165 157 22 139 230 8 219 17 28 15 140 36 157 173 35 69 153 11 53 87 11 71 184 20 70 8 16 114 59 53 15 166 24 245 220 43 6 26 18 146 163 23 64 231 5 217 19 50 48 254 25 232 201 0 240 13 50 43 17 34 209 89 47 173 70 30 200 191 16 107 18 16 82 117 41 101 116 49 99 185 17 44 52 33 57 245 52 74 253 54 163 120 3 234 2 
35 169 129 30 187 7 16 48 32 29 165 120 16 94 170 45 146 11 30 136 85 17 133 142 20 253 243 22 255 41 47 129 12 11 136 184 27 168 206 24 33 55 15 203 4 41 214 53 25 43 146 39 186 40 44 173 9 36 214 142 29 226 252 53 154 20 54 105 231 47 160 234 18 164 147 16 217 154 44 107 51 6 148 85 11 157 252 1 43 160 19 40 68 14 60 105 15 35 23 39 13 109 43 160 228 45 58 38 40 110 62 36 195 130 18 191 128 45 95 43 13 164 172 9 13 16 44 36 14 34 145 117 2 117 124 29 155 39 19 218 172 38 92 157 21 221 33 44 8 67 0 181 145 54 197 6 50 211 184 28 72 140 33 196 110 13 235 241 55 152 174 19 53 217 48 86 199 17 154 116 46 43 128 19 49 49 46 233 239 14 118 209 18 228 69 45 213 47 29 131 180 50 92 19 33 35 206 35 151 103 46 24 8 7 73 94 25 56 121 15 9 103 43 79 157 9 126 151 12 50 124 17 69 250 28 19 172 28 122 181 44 130 88 5 224 38 5 89 38 14 192 15 13 93 110 51 244 177 13 113 202 26 107 103 38 23 96 24 205 124 3 37 48 19 76 252 37 114 17 13 129 94 35 239 181 15 160 90 16 107 126 27 210 211 51 50 110 8 174 28 45 223 68 41 219 239 43 237 123 44 75 96 35 0 5 28 91 8 31 217 0 41 172 104 19 26 60 49 54 39 16 123 223 20 106 188 49 229 230 52 69 129 45 75 158 24 83 169 41 83 85 37 188 108 40 248 85 14 31 112 41 254 58 36 186 226 49 160 102 15 34 215 34 192 148 53 105 81 17 191 105 13 43 90 37 129 247 44 241 175 50 43 158 20 14 7 37 116 219 15 76 149 39 224 148 8 49 222 15 154 123 35 244 108 28 235 25 21 155 190 41 57 130 55 64 68 27 28 193 47 177 222 55 69 29 40 35 28 10 158 132 6 11 172 10 36 255 29 227 211 54 101 152 22 170 137 2 107 136 11 73 252 8 102 187 27 130 91 34 6 43 21 178 150 25 177 244 12 132 62 2 29 35 52 166 65 47 47 160 48 43 26 30 230 70 16 65 182 54 109 74 33 3 124 42 247 185 55 54 26 20 89 95 18 155 9 9 59 93 44 85 28 3 155 36 52 82 146 9 156 130 20 24 120 12 209 33 2 235 124 35 74 91 38 83 87 49 176 249 39 204 203 18 240 199 36 130 170 48 4 207 32 125 96 49 158 245 13 26 129 31 117 67 11 204 94 11 198 21 40 145 6 16 88 77 43 3 48 31 210 100 36 50 53 19 39 29 21 168 215 
27 235 124 39 74 107 21 95 174 22 101 162 31 179 98 34 227 18 44 71 69 38 124 125 38 154 49 14 113 132 34 237 242 20 88 213 27 7 132 0 169 250 11 11 0 30 29 95 54 99 193 2 224 245 44 17 92 21 150 234 26 136 32 51 93 66 34 225 174 27 219 121 54 220 170 51 59 141 14 253 84 30 242 98 8 78 236 38 56 17 14 89 166 3 155 41 44 74 4 32 195 230 44 109 113 55 251 7 28 79 186 7 177 209 53 157 199 38 174 207 31 85 109 50 126 147 20 130 22 8 104 123 37 217 187 40 224 215 15 154 46 32 107 131 6 51 202 36 2 95 33 112 45 47 3 84 33 26 23 9 149 35 42 80 243 34 39 49 5 85 105 8 216 241 19 162 41 30 2 255 6 47 132 49 132 93 3 155 181 24 190 142 16 178 208 39 227 234 21 76 229 29 61 122 16 103 122 18 102 174 41 234 228 37 72 138 24 253 51 23 139 247 25 91 79 28 70 248 40 43 199 22 165 236 21 31 234 27 205 138 6 177 44 6 59 253 43 111 83 38 102 67 2 181 242 32 173 83 35 117 151 0 97 40 47 75 246 13 213 43 38 1 198 42 255 76 33 82 26 39 149 229 28 136 60 18 219 238 15 115 230 0 155 9 44 145 209 17 188 184 11 130 109 34 207 212 28 233 118 1 207 135 33 11 254 21 249 42 48 223 4 27 232 83 36 185 4 0 113 0 10 223 209 49 179 164 51 41 118 26 176 154 29 174 84 30 216 149 21 221 178 5 48 66 22 52 109 23 52 41 6 6 161 49 170 156 10 33 101 50 187 24 24 15 154 41 165 39 6 87 173 46 154 18 51 7 95 31 49 101 5 210 221 40 110 51 1 212 61 52 236 111 44 135 82 33 174 226 0 92 75 18 110 145 18 206 8 3 51 179 45 16 146 12 68 120 24 129 8 44 240 185 43 66 37 34 37 161 30 112 194 52 2 59 50 10 77 54 189 103 6 79 178 34 199 208 35 207 92 44 136 188 14 174 8 11 79 220 4 18 94 38 77 60 8 154 136 45 2 163 12 180 241 44 132 79 19 224 242 28 156 21 34 165 41 9 129 128 3 223 251 40 27 231 3 163 213 29 70 205 9 55 130 6 135 135 54 121 83 11 142 238 32 184 18 9 56 228 40 51 6 19 27 57 38 240 186 5 190 213 4 64 242 11 199 195 4 26 25 19 9 80 27 27 35 3 0 155 38 6 148 41 63 108 18 249 95 32 206 245 0 192 210 8 132 231 10 157 130 27 237 151 31 16 58 39 171 149 45 63 40 12 171 238 6 10 208 44 0 162 
29 210 50 9 185 2 30 60 154 36 211 77 20 13 8 16 162 223 15 202 182 3 184 147 53 136 176 21 42 198 8 92 170 1 95 79 29 249 120 8 70 63 29 79 243 7 46 183 9 229 39 50 120 215 26 40 50 29 238 151 1 153 253 0 232 53 50 97 38 16 160 84 39 147 84 38 74 98 35 114 17 43 73 139 20 123 189 26 18 119 51 15 92 52 68 158 21 107 62 45 191 216 32 19 185 2 117 232 52 135 70 5 18 137 0 207 69 35 70 41 18 163 251 39 65 103 42 127 187 1 88 112 20 17 197 2 249 173 25 64 223 27 201 132 2 14 113 16 55 218 43 51 85 12 154 223 20 85 174 4 197 232 5 138 225 22 55 238 38 22 112 16 154 121 38 12 148 54 230 126 9 59 174 35 26 130 0 201 150 53 177 42 39 147 22 46 129 19 20 241 10 39 106 64 51 254 64 17 124 79 36 42 149 30 172 14 23 67 33 41 109 137 44 132 182 5 151 109 54 161 91 48 226 95 54 34 254 34 113 169 44 6 58 33 20 6 36 53 237 33 190 156 13 116 253 21 225 241 22 60 102 0 156 204 11 154 156 20 68 106 27 126 180 55 133 41 21 114 74 27 14 174 8 12 127 49 253 213 38 100 194 10 48 80 44 205 193 24 55 84 47 236 88 36 21 99 6 95 131 52 13 216 32 140 235 46 97 115 10 35 221 50 116 131 31 53 197 7 137 161 11 225 194 0 69 97 23 200 133 28 160 27 24 139 191 50 255 112 13 220 30 49 95 48 6 36 114 31 197 130 17 135 201 22 232 252 14 109 68 54 136 235 17 72 159 8 184 223 44 214 129 27 6 71 7 120 128 13 250 239 12 195 230 53 191 191 10 3 221 35 238 195 51 141 73 35 109 91 17 238 107 47 53 88 7 182 163 2 165 19 5 139 72 29 75 4 0 40 169 55 236 188 20 53 87 9 144 58 24 252 213 5 84 70 35 247 189 32 10 172 52 82 150 31 87 68 15 0 177 35 188 33 41 19 128 25 77 109 21 34 198 17 104 14 41 37 140 27 210 191 30 104 152 45 172 252 29 93 171 34 127 130 37 255 70 35 108 63 45 51 200 30 65 78 19 205 39 45 141 248 30 37 212 42 33 2 0 204 135 15 78 12 54 148 78 43 211 164 14 156 71 47 234 12 37 17 58 42 10 142 39 222 179 24 224 65 12 103 124 34 115 20 39 194 43 50 102 65 14 173 196 32 185 122 42 244 114 36 130 55 2 53 137 10 119 0 49 243 152 20 7 252 14 50 174 52 115 245 17 56 16 19 178 198 7 36 103 25 91 25 
6 228 213 37 228 111 16 124 233 15 120 202 33 39 30 13 28 53 53 44 177 39 243 219 36 90 190 31 115 149 44 72 238 8 183 124 37 160 130 53 106 122 52 136 122 41 189 171 29 111 80 16 74 45 34 8 189 53 157 113 37 139 128 4 7 116 4 137 77 30 4 162 47 126 111 36 41 100 11 122 117 29 167 178 37 100 227 2 213 109 45 86 107 5 202 176 30 23 173 10 185 73 16 41 80 26 141 223 52 2 43 19 180 231 8 151 236 13 5 250 35 112 164 6 32 218 45 205 23 23 23 221 32 103 168 53 70 240 31 113 98 19 88 78 35 69 226 40 63 218 32 227 167 16 189 203 54 212 185 53 178 190 28 90 125 26 74 101 51 173 218 20 251 81 41 221 125 24 183 64 43 95 8 1 42 64 37 227 152 31 161 190 17 31 251 28 132 159 17 95 137 20 176 229 2 45 153 25 109 146 16 117 202 26 181 229 45 78 190 47 12 108 14 8 203 18 167 133 41 49 137 18 22 58 31 175 230 21 65 112 26 11 178 8 240 82 22 175 29 10 27 202 10 230 25 10 107 135 43 244 122 25 46 203 0 21 205 33 133 253 12 55 154 20 138 172 27 167 116 14 113 138 13 139 173 24 18 215 37 140 169 51 88 172 16 37 197 30 34 141 5 188 150 55 105 170 38 221 175 0 104 98 27 21 49 21 236 230 2 150 6 10 66 27 47 8 95 2 149 183 38 44 149 39 214 171 13 133 74 53 232 145 26 25 73 54 255 140 20 5 225 7 33 195 55 128 253 36 55 93 24 205 223 31 120 29 4 194 197 28 83 74 45 156 55 20 40 57 10 10 39 35 205 172 35 203 115 10 40 66 31 7 166 47 36 55 2 233 158 53 51 138 10 106 95 50 163 76 28 203 57 42 119 43 45 234 62 29 44 209 36 210 155 32 9 51 18 167 66 29 50 20 24 145 58 11 221 252 30 22 230 13 65 219 39 127 157 51 80 42 30 236 223 23 31 155 47 97 123 25 118 69 26 176 67 7 172 171 6 146 182 55 109 141 55 10 218 7 52 18 19 19 117 26 174 171 4 42 235 10 111 210 26 178 235 22 93 149 32 20 28 14 161 186 8 123 154 45 141 249 24 3 168 55 174 68 25 153 254 24 107 26 51 86 172 48 235 238 52 8 220 37 194 93 1 92 75 14 85 67 25 254 112 40 66 177 33 64 160 53 91 185 43 7 65 23 246 124 31 210 21 41 47 193 54 122 15 51 190 216 25 46 46 51 223 136 44 127 144 47 56 49 54 122 62 36 246 162 31 11 241 22 205 72 25 220 97 47 180 215 
45 226 163 5 106 108 4 250 120 29 44 196 15 106 107 13 12 25 1 253 190 14 69 53 18 167 219 30 126 252 32 33 219 11 142 233 29 6 214 49 202 66 12 53 231 16 78 6 54 12 28 3 65 61 2 29 43 33 25 245 2 245 115 24 222 211 46 180 158 32 246 100 37 222 85 20 228 177 0 0 26 50 61 128 23 104 43 40 93 126 53 208 79 19 164 65 55 66 194 14 166 72 20 252 153 16 173 30 33 199 242 54 71 211 23 115 245 12 241 52 13 64 140 25 129 218 19 67 5 50 140 229 54 37 187 11 67 111 51 54 7 2 9 160 21 254 119 54 50 182 6 190 82 48 152 191 19 158 208 23 131 36 20 62 30 32 173 20 22 180 183 31 85 34 53 204 213 55 130 250 5 212 17 14 148 103 28 100 63 15 136 91 21 166 2 34 186 207 30 114 223 11 148 37 31 105 116 1 100 193 30 117 64 18 220 125 46 28 83 23 119 199 21 121 190 16 72 243 42 39 213 38 76 108 8 192 87 28 129 15 49 193 72 37 63 86 25 146 248 32 90 255 50 24 142 2 12 195 2 225 179 14 77 21 15 165 12 24 180 108 18 252 48 25 83 105 3 75 126 37 74 176 14 216 88 10 156 122 19 79 229 25 101 119 38 113 85 34 221 244 54 13 21 41 118 247 45 244 24 23 164 203 16 253 217 12 119 255 43 92 49 24 211 68 33 41 165 38 29 171 51 50 101 9 41 28 6 65 37 34 13 122 47 230 26 47 229 146 35 22 166 15 90 9 0 0 210 29 171 11 16 17 34 49 45 69 35 82 223 8 205 109 30 231 159 3 121 207 33 31 118 27 40 121 11 250 80 47 6 80 32 40 110 45 109 190 55 76 55 12 185 242 51 89 186 4 40 104 35 158 251 20 23 164 38 104 168 36 184 171 12 38 90 18 228 26 46 28 7 32 14 71 25 201 83 41 49 71 31 45 179 54 209 63 46 121 243 15 37 161 5 127 86 18 154 50 46 161 124 52 232 19 29 60 99 39 131 12 52 54 221 5 117 76 23 104 210 44 10 193 19 96 104 21 146 53 23 15 231 7 34 181 3 133 146 46 145 55 29 110 14 10 186 18 27 140 232 45 77 55 45 181 171 39 235 158 30 210 44 32 136 91 53 26 114 14 81 198 12 96 156 22 114 169 43 90 44 32 145 23 22 60 12 41 219 97 51 7 72 27 98 63 21 212 87 7 154 245 47 55 35 25 224 192 20 12 22 21 35 249 2 47 42 13 144 16 28 217 225 46 24 132 42 111 176 37 100 245 4 136 140 28 72 131 33 94 237 20 88 177 
44 130 6 12 146 152 5 115 5 21 247 121 37 167 79 49 157 250 1 41 63 1 173 187 32 154 23 8 75 128 34 81 13 28 234 201 47 239 21 14 105 59 14 184 120 51 178 37 4 241 55 33 172 208 51 196 178 46 68 242 40 81 138 34 26 164 9 48 80 50 107 111 51 227 133 21 9 67 55 64 158 43 16 35 55 194 84 28 180 32 45 62 54 40 226 158 0 50 240 51 161 50 6 39 220 15 106 63 39 9 85 0 44 92 18 128 15 7 160 135 37 215 67 48 117 80 50 102 120 20 152 208 43 116 147 5 180 58 54 9 233 26 101 217 11 116 217 43 251 155 2 62 18 40 143 200 22 7 96 38 216 42 2 107 150 46 165 41 7 143 39 52 104 45 41 65 96 28 220 19 43 239 102 42 183 145 25 23 49 17 65 55 13 216 213 34 1 231 9 40 174 49 86 125 10 182 178 39 201 91 54 47 255 53 192 226 12 241 84 53 40 206 53 253 31 31 229 220 15 147 63 45 16 48 51 194 138 12 29 36 12 29 155 52 255 1 46 84 30 54 34 82 4 65 200 49 30 21 36 93 100 44 141 220 55 23 169 4 60 45 9 215 121 1 217 245 29 247 50 39 74 96 32 18 182 46 39 10 3 140 67 41 104 15 24 17 236 4 62 139 20 184 71 53 173 33 28 223 250 30 63 39 8 246 118 32 0 6 4 68 181 36 83 192 5 63 89 20 202 10 20 18 246 1 51 186 33 45 87 16 84 236 6 202 202 47 208 187 3 133 211 6 70 119 22 159 131 0 169 160 34 160 252 29 90 16 2 178 210 38 158 115 8 104 83 9 35 42 6 246 1 44 109 28 36 240 138 21 145 56 13 141 177 8 158 59 42 112 249 16 227 227 32 54 34 12 96 42 42 97 3 32 125 98 40 8 6 33 64 74 31 241 56 21 45 197 21 38 173 32 9 71 14 43 127 31 86 32 40 89 228 30 187 158 38 194 198 38 12 223 48 68 136 29 10 191 11 183 148 52 255 217 8 126 1 54 158 96 15 130 31 27 33 63 5 231 221 41 198 131 30 79 106 40 14 66 7 163 71 30 124 114 13 126 166 11 222 6 38 253 188 23 60 204 38 26 151 37 157 36 28 7 189 50 73 155 29 144 131 10 2 35 40 169 193 30 175 222 27 108 154 55 56 216 49 207 55 55 243 125 54 176 138 40 76 230 40 207 81 35 242 94 36 180 232 35 146 240 31 44 214 23 4 185 54 59 217 41 185 18 42 67 233 54 42 200 5 123 240 0 217 168 12 194 99 22 178 199 3 137 219 31 66 90 3 27 18 12 46 152 
39 23 18 41 223 60 52 207 178 46 120 247 32 219 47 34 163 27 27 126 154 38 216 69 9 234 244 15 131 223 55 149 131 14 209 107 30 131 124 46 122 9 25 170 111 4 197 151 2 95 113 11 164 213 21 153 123 48 120 60 5 252 44 46 103 51 1 227 25 44 236 207 6 91 253 35 242 7 3 100 179 47 57 222 48 180 225 33 240 206 13 28 63 44 79 68 23 105 27 44 56 116 39 54 72 26 61 198 22 240 10 15 206 173 27 175 244 11 126 213 8 189 46 15 1 131 16 28 63 17 145 222 15 217 106 12 160 82 52 170 44 11 87 106 26 75 225 32 32 12 21 78 39 39 209 95 3 16 231 44 239 215 22 89 0 38 171 95 0 215 251 39 65 136 2 34 227 51 46 237 33 86 118 3 181 187 19 156 2 34 116 102 4 116 90 55 212 40 15 207 150 0 87 174 27 58 29 25 40 216 31 158 179 13 89 220 25 92 215 13 194 227 34 28 221 22 69 49 53 219 49 45 138 8 31 167 32 39 127 91 5 50 197 55 15 132 35 230 249 29 201 11 9 167 144 14 216 138 50 9 88 4 17 246 27 50 235 51 141 26 53 82 114 12 215 103 27 208 182 44 219 97 27 108 206 52 246 88 45 79 38 7 69 208 49 48 4 54 74 224 25 188 59 32 36 200 16 218 101 44 60 232 32 10 52 22 98 40 13 137 244 26 89 201 34 94 176 53 62 201 41 121 112 13 65 105 40 166 57 28 142 217 6 195 85 9 235 61 50 223 28 51 168 73 17 89 188 31 34 94 0 146 75 50 251 245 24 52 194 15 14 106 26 99 78 29 161 61 44 189 142 20 6 104 21 194 155 8 33 45 34 108 252 14 97 69 18 36 207 48 142 255 52 221 190 29 26 64 2 168 173 40 16 249 27 171 238 36 216 59 24 213 171 18 26 174 30 233 172 12 232 222 49 167 31 35 231 195 19 149 8 35 142 10 23 124 18 39 184 221 20 99 201 6 17 34 47 189 220 40 156 186 39 187 38 46 126 112 43 134 211 50 144 223 14 162 250 54 128 193 50 73 97 35 107 213 33 71 100 37 1 219 8 40 59 54 152 66 36 107 49 52 74 180 30 69 198 22 6 85 8 103 155 11 61 69 51 161 1 28 124 122 52 184 143 44 250 95 0 43 173 18 224 129 39 166 229 54 251 235 5 151 114 50 220 66 43 221 125 16 87 0 48 230 133 10 69 49 46 242 118 30 115 38 28 88 32 24 68 96 55 182 166 3 248 83 17 117 62 40 118 201 15 251 209 44 44 145 15 162 76 18 200 50 19 233 248 7 73 100 
5 239 204 45 66 203 10 128 167 24 74 96 43 27 112 32 173 103 34 249 164 35 43 211 52 35 117 13 135 112 12 84 175 38 31 164 47 198 145 9 38 244 36 151 204 9 254 160 18 162 160 53 117 66 16 235 173 8 91 1 36 11 158 11 175 42 26 65 249 48 53 72 55 1 225 14 161 149 0 65 247 14 132 81 1 49 215 20 51 127 39 209 175 47 252 51 16 245 215 53 61 65 30 30 209 48 179 249 33 170 31 37 252 231 39 211 37 2 82 78 51 2 211 15 53 98 4 12 161 33 77 33 31 31 214 3 24 141 29 55 229 25 30 126 4 68 156 23 146 235 33 101 109 54 200 192 43 105 16 8 139 84 55 97 214 55 238 117 22 211 200 53 82 198 33 238 191 19 217 140 1 70 171 33 6 204 34 22 34 5 107 133 55 65 54 45 182 5 9 127 237 19 69 11 17 4 72 50 144 201 40 59 221 6 7 86 5 42 151 40 175 65 33 229 119 55 235 14 54 216 147 43 227 236 48 44 151 0 245 48 20 210 162 11 40 90 13 191 25 29 1 238 34 120 46 29 134 175 13 25 230 9 6 157 37 157 152 34 206 152 5 112 41 5 203 245 13 228 200 6 210 198 30 0 115 44 175 5 5 149 131 51 50 216 17 203 17 55 99 118 23 140 209 26 129 254 30 74 83 24 16 104 16 131 126 39 136 12 37 11 32 15 228 78 18 245 129 38 108 82 2 61 241 12 59 1 38 142 219 6 247 154 17 117 42 33 130 187 29 162 250 1 240 207 54 114 215 34 196 169 39 182 223 34 183 162 25 146 230 8 44 116 45 87 18 55 18 51 10 12 220 42 220 145 4 179 42 9 92 185 15 60 179 30 222 235 40 196 93 29 56 94 52 74 86 54 125 196 18 89 179 6 235 69 33 21 200 22 206 188 34 130 117 48 109 228 28 202 10 44 41 195 14 127 168 11 67 228 52 247 50 15 60 140 37 4 195 3 193 172 45 54 242 18 27 116 29 37 212 54 232 248 5 144 84 9 116 250 8 166 29 12 51 154 9 246 1 10 162 126 0 149 202 19 9 151 1 222 210 9 214 215 34 43 5 54 37 178 13 67 163 40 221 139 38 222 176 16 93 217 37 39 195 47 190 227 13 144 31 43 103 128 14 108 201 36 31 163 47 194 242 4 78 231 42 254 15 7 215 45 38 154 237 37 125 67 53 156 162 13 28 223 25 230 242 40 137 49 35 123 149 33 98 60 55 113 192 30 158 34 8 140 226 13 207 200 26 113 109 30 80 163 36 66 64 46 115 73 17 8 114 4 68 93 45 4 150 12 39 205 
16 9 219 39 209 131 16 63 168 24 226 106 26 34 73 6 107 13 54 221 91 35 58 37 47 208 81 38 157 238 55 120 42 9 251 242 32 164 137 26 14 145 12 87 233 47 101 132 29 192 146 7 229 168 40 54 3 13 37 99 14 79 233 33 66 121 29 203 218 12 93 122 27 70 252 40 202 160 25 92 175 38 5 156 45 8 196 42 107 188 17 85 81 27 206 95 39 168 105 12 34 22 10 30 210 21 190 230 17 109 94 54 10 151 39 206 182 18 138 11 47 219 133 53 59 78 13 164 90 47 186 49 53 141 101 27 115 223 17 209 36 35 105 198 49 31 108 11 42 27 46 175 54 1 253 165 45 87 227 16 136 200 21 237 208 32 205 245 17 241 217 42 183 42 33 36 133 19 63 174 42 117 97 8 27 239 39 254 185 48 198 38 29 150 78 10 140 3 52 101 43 43 143 37 7 20 135 55 194 9 20 35 180 7 18 15 53 203 103 20 242 22 34 64 78 54 68 116 35 111 102 34 148 74 30 28 230 0 37 165 27 217 164 14 232 25 17 79 168 27 102 54 4 180 138 24 40 116 31 143 235 4 217 198 8 191 49 21 101 175 46 9 240 15 34 83 46 203 201 36 1 11 33 139 62 49 255 178 40 234 106 42 177 146 1 226 78 46 145 38 24 129 35 34 213 249 29 158 184 6 169 199 9 232 59 17 154 100 43 5 182 20 151 150 14 229 80 24 11 202 49 46 168 46 39 144 13 224 155 22 167 112 46 226 71 33 71 168 46 253 9 45 147 85 34 228 81 5 174 48 35 86 160 42 231 145 26 130 88 17 242 189 12 57 203 11 226 194 48 235 83 35 64 233 15 146 22 29 194 40 12 98 69 11 243 144 5 75 2 23 8 85 41 212 78 11 150 42 22 233 77 31 210 109 1 232 33 43 16 184 45 85 254 24 229 154 12 231 29 20 60 34 0 139 25 22 181 74 39 3 93 9 112 92 33 145 155 33 74 108 30 72 255 27 226 244 11 255 220 47 33 16 42 58 77 48 133 93 19 226 4 27 62 147 13 217 245 55 69 62 47 68 152 25 56 70 0 21 218 49 37 85 35 114 12 32 208 79 19 212 71 1 103 66 27 92 173 8 155 170 29 51 241 37 121 128 2 83 241 32 168 97 18 181 242 34 4 190 14 75 14 54 141 65 34 58 179 13 229 254 0 214 142 34 87 99 45 72 113 46 170 147 51 156 219 23 90 150 34 105 32 47 170 127 49 93 69 22 91 103 21 234 37 20 77 21 28 190 127 46 82 61 51 45 163 5 195 190 14 228 221 25 99 71 6 168 62 18 15 111 
20 52 134 1 74 115 0 201 183 2 6 67 7 169 122 51 103 77 39 68 122 42 139 17 42 201 82 17 57 240 22 191 234 0 50 206 41 233 0 8 44 240 41 166 50 1 243 161 29 110 212 9 127 235 10 209 101 43 193 135 2 172 185 4 122 31 13 122 207 26 106 72 32 156 200 28 62 242 42 18 131 49 254 88 2 99 185 19 235 228 31 164 71 2 195 106 44 146 190 7 218 252 51 163 102 9 149 118 36 24 122 34 112 236 29 42 221 8 14 159 28 85 35 39 191 82 17 126 252 12 122 33 47 224 176 36 86 219 36 209 69 28 189 193 38 155 59 4 58 24 26 93 225 33 176 77 47 172 125 33 205 62 49 125 218 24 89 25 41 158 237 46 95 217 41 154 54 4 178 188 49 147 81 49 225 59 22 94 228 51 156 12 33 119 173 18 144 47 40 126 7 23 87 176 1 141 22 19 74 24 55 155 84 24 214 237 6 186 55 18 198 45 17 116 240 34 163 49 48 170 203 39 90 3 21 112 154 15 136 203 26 220 175 48 202 38 18 1 126 9 46 52 13 30 134 48 80 80 10 27 170 52 31 130 52 185 177 37 133 110 25 52 117 19 90 23 28 216 143 42 12 194 33 146 187 1 226 40 20 140 56 3 14 242 29 192 6 26 46 138 30 164 151 8 187 129 0 75 52 52 13 233 14 200 203 1 240 204 29 40 29 36 26 138 44 32 21 18 170 90 54 66 36 10 195 34 5 247 122 26 224 170 42 172 230 34 120 181 10 150 102 4 32 163 12 53 239 30 144 251 40 180 54 35 215 20 51 81 174 43 252 147 23 226 133 0 151 63 22 253 233 30 161 187 11 144 167 19 140 179 40 194 106 31 214 98 0 133 30 44 24 209 7 158 100 22 221 164 12 199 92 29 130 170 53 42 24 17 221 187 35 71 239 34 170 215 23 200 150 7 153 166 37 253 179 43 161 162 42 253 40 44 167 172 54 191 209 12 123 135 3 106 200 37 65 204 13 215 166 6 125 5 44 48 124 53 210 146 35 251 133 18 167 63 26 121 123 21 0 226 23 200 38 0 148 177 23 58 231 36 63 228 37 188 123 7 78 15 50 211 68 10 18 119 27 141 82 27 111 236 27 149 1 8 71 128 42 46 64 42 18 215 14 141 235 20 156 48 47 225 72 25 88 90 54 170 20 46 150 71 27 151 122 2 23 118 32 87 6 35 46 208 40 26 218 21 74 160 6 146 180 54 237 155 1 1 148 39 73 27 39 195 17 30 57 156 30 63 111 4 16 111 30 234 130 33 139 35 3 63 96 32 219 126 2 111 244 51 138 21 
22 155 205 0 56 28 47 167 130 23 22 64 26 153 45 53 188 51 52 28 132 31 154 104 39 142 56 17 164 10 13 113 37 21 141 4 4 15 28 50 80 115 51 125 219 7 176 45 35 53 10 29 157 38 12 213 30 0 224 133 17 5 118 30 9 3 13 37 200 37 153 52 50 116 183 27 161 210 40 171 170 37 209 157 34 239 43 18 116 71 0 235 7 41 238 56 47 183 246 32 235 195 20 162 225 37 117 123 32 31 198 33 188 70 25 231 99 21 46 86 8 53 40 39 109 0 22 99 226 17 39 233 4 8 137 33 131 157 0 74 82 36 144 178 4 244 227 50 74 4 24 114 154 37 115 26 33 85 137 0 62 175 40 199 193 51 100 117 29 182 158 46 104 230 34 75 234 44 80 214 6 234 241 9 4 65 6 142 254 44 61 31 43 254 103 23 115 183 5 17 139 21 247 168 33 226 86 9 184 248 11 169 228 47 234 67 29 233 20 35 8 59 9 112 159 53 39 203 6 178 90 6 91 160 16 177 77 40 170 70 18 142 143 52 209 194 13 230 250 30 33 191 6 192 194 45 139 196 48 230 57 27 134 191 28 211 61 14 26 157 53 169 182 14 108 120 28 102 36 21 37 186 46 232 88 9 172 102 15 229 155 13 164 131 25 226 198 11 127 187 36 53 89 24 173 134 22 210 133 44 140 105 28 228 111 48 74 53 45 229 134 41 105 190 11 47 123 27 234 12 0 68 183 6 202 12 8 79 204 20 185 243 0 40 63 10 93 115 23 227 83 32 161 24 48 29 129 2 41 205 46 225 152 9 237 152 16 185 70 25 172 198 41 235 210 54 94 194 18 177 252 43 201 28 0 75 164 2 24 92 43 176 255 32 72 229 49 143 150 30 85 151 33 40 80 32 234 50 41 231 112 51 3 146 46 167 86 38 4 54 38 3 64 46 232 43 37 127 3 19 22 149 51 102 211 37 152 252 12 9 132 55 155 190 15 241 193 51 40 15 54 104 117 38 148 139 13 151 233 11 44 215 10 255 26 50 252 133 35 128 218 7 62 23 8 255 86 40 14 61 33 131 40 13 14 22 12 248 237 25 207 66 48 233 174 20 110 128 13 72 234 11 95 94 35 182 109 33 243 109 45 28 150 19 50 39 19 31 76 10 98 8 35 16 241 49 144 218 18 122 190 49 216 35 15 69 199 3 179 106 31 73 27 41 112 80 17 188 148 11 196 207 19 182 218 51 144 205 45 78 47 22 114 217 43 57 226 6 163 162 7 190 85 47 15 36 3 163 37 24 114 70 38 76 201 6 26 92 20 73 127 22 34 29 23 4 147 2 166 78 
49 251 189 8 31 116 43 69 156 13 139 127 42 85 39 52 177 133 37 49 115 31 78 176 35 225 94 42 47 70 37 236 208 21 97 25 10 253 113 29 124 108 50 164 218 36 41 148 21 157 104 51 77 133 20 171 196 11 241 7 32 194 241 1 219 215 38 77 220 34 185 38 38 147 251 32 39 38 21 143 2 50 20 15 29 216 106 39 224 166 33 209 17 36 168 105 41 132 34 19 170 216 22 166 11 22 204 225 29 206 225 10 221 126 34 71 104 26 237 254 12 254 133 44 104 206 1 138 242 19 99 100 41 110 143 5 79 77 19 49 51 16 175 169 7 24 51 36 22 149 19 155 216 11 105 236 13 91 168 24 191 233 46 78 213 6 156 102 31 207 196 14 120 239 6 171 248 52 65 71 31 25 132 48 5 191 12 173 98 19 151 143 34 108 32 46 210 30 21 150 108 46 134 235 41 126 26 2 197 96 19 73 189 24 8 180 30 106 21 53 250 209 9 26 76 51 56 22 18 165 124 40 144 178 6 170 96 19 11 185 5 200 84 37 124 7 0 145 192 2 98 38 12 175 35 4 197 140 25 66 199 50 244 153 20 84 241 15 13 199 39 97 99 28 105 72 53 41 53 32 79 141 23 114 223 44 254 75 30 197 240 2 95 57 46 80 19 36 24 152 53 123 39 6 195 127 31 248 83 46 134 184 32 101 128 38 177 247 44 161 52 27 218 178 11 238 37 43 134 235 30 173 191 1 44 245 26 127 147 0 56 91 13 184 113 6 176 250 47 228 128 26 150 204 16 187 119 38 167 115 35 102 134 8 91 21 47 239 102 31 74 176 0 187 128 32 181 182 4 54 156 42 2 36 38 122 134 37 237 214 3 115 172 47 136 47 30 239 223 16 159 15 35 32 118 49 214 150 23 114 102 17 150 26 27 28 101 8 242 107 44 158 24 52 206 43 19 173 154 27 188 248 3 51 160 17 201 4 3 48 29 10 74 108 46 175 189 1 26 137 23 50 65 21 94 109 27 248 34 7 241 197 18 145 8 44 149 107 4 178 164 54 30 80 14 220 146 16 101 240 11 166 65 17 20 49 9 54 238 2 251 89 28 4 129 33 111 219 12 20 255 26 100 83 54 246 242 35 230 64 2 40 168 30 89 67 12 71 60 39 161 46 51 34 16 51 253 132 39 253 142 3 80 74 49 66 36 55 130 219 23 43 246 0 110 184 40 171 142 25 217 154 19 233 162 24 110 173 29 252 40 38 70 183 16 106 170 51 69 147 14 60 99 28 244 90 55 131 171 32 29 67 18 191 124 0 109 215 20 149 47 50 77 133 4 247 43 18 139 19 
30 238 126 26 72 20 21 243 25 11 54 200 50 178 81 7 137 195 29 185 163 42 62 127 17 105 161 36 124 45 34 251 255 11 15 13 46 40 16 29 241 149 7 66 56 41 5 155 2 168 106 32 39 207 25 200 129 37 245 43 8 245 95 8 2 130 16 18 237 33 168 75 19 224 224 8 123 40 24 230 249 31 181 131 7 55 75 13 98 124 50 193 41 52 67 210 55 48 138 39 124 106 15 92 60 3 132 79 25 125 104 54 0 40 29 75 16 55 199 191 41 241 100 4 195 254 53 77 155 25 183 74 5 243 161 10 67 216 55 171 139 16 211 36 19 227 115 35 163 248 12 7 224 47 6 137 20 161 117 11 235 146 31 140 43 50 100 33 53 240 155 32 20 146 20 135 138 7 128 206 46 96 217 36 233 213 13 94 148 32 241 160 44 28 99 41 61 26 33 216 20 21 107 185 29 245 50 29 195 142 37 156 141 6 113 147 52 5 160 45 165 77 26 9 230 23 35 10 48 56 147 43 241 12 24 35 154 36 177 175 40 62 68 10 210 57 31 114 23 13 191 83 46 165 129 9 176 203 33 67 82 35 80 178 54 234 125 32 153 62 14 221 194 32 22 226 10 45 116 34 128 12 47 1 73 39 204 143 35 31 248 11 209 154 45 79 45 22 141 227 27 79 75 41 49 242 54 166 106 46 178 85 24 251 255 12 138 78 43 130 78 53 28 145 4 73 36 41 45 161 32 120 183 33 106 170 23 213 179 33 42 233 20 41 159 30 119 87 1 197 220 5 86 127 39 122 244 28 27 184 4 210 9 7 124 169 28 47 123 30 24 242 23 184 28 6 15 64 4 235 239 10 107 32 5 95 109 48 24 4 3 33 200 39 203 5 55 70 172 47 56 40 31 84 206 47 149 157 34 132 227 21 164 239 21 17 82 5 22 47 14 222 39 9 227 242 55 143 58 0 183 177 36 133 64 25 34 136 53 6 223 9 245 33 11 71 207 9 118 220 47 158 1 19 144 71 10 202 89 50 123 176 39 188 64 18 68 37 0 35 158 45 68 156 13 19 61 27 239 240 41 240 185 42 56 97 28 145 236 24 65 6 36 130 216 24 167 48 19 69 170 55 225 42 3 31 159 2 15 92 35 201 144 11 42 97 12 22 195 5 28 240 7 245 152 22 37 252 20 207 164 53 249 111 44 152 126 36 245 161 5 133 180 55 230 183 37 170 242 1 154 190 22 50 203 43 46 91 10 210 145 19 65 13 20 191 107 49 97 231 22 21 115 36 204 200 22 190 71 48 124 220 26 71 142 48 162 52 26 52 0 3 65 154 11 172 46 4 148 90 
41 7 123 45 208 33 11 23 173 7 244 228 6 130 180 17 182 183 5 182 231 30 81 234 19 127 45 15 217 48 38 84 148 54 117 13 46 34 82 34 6 85 20 187 212 10 114 155 33 89 4 2 67 161 33 113 127 34 161 10 22 54 41 35 67 80 21 150 70 44 235 84 23 192 86 41 91 218 18 95 21 38 0 6 15 127 72 32 138 9 6 179 163 34 3 145 48 74 244 43 158 121 11 245 5 30 207 76 45 228 5 5 234 24 37 50 110 15 59 53 10 222 157 6 111 60 24 99 30 30 221 150 11 226 249 3 47 29 39 52 155 42 76 121 12 186 86 40 239 179 30 141 154 6 201 53 41 231 211 6 125 187 9 118 65 32 147 189 4 47 8 41 168 55 11 254 81 27 178 158 24 76 38 49 129 140 24 84 98 37 15 156 19 81 178 39 14 171 54 22 211 30 77 48 36 159 217 14 61 60 3 99 143 28 239 111 9 82 24 24 238 168 49 160 181 7 76 57 13 31 80 35 79 150 2 40 132 7 101 112 34 244 15 41 100 250 19 124 102 9 37 39 42 218 248 30 19 25 45 99 73 37 249 142 45 125 33 50 238 83 39 253 194 35 247 148 55 93 86 12 133 105 39 125 107 42 150 13 46 223 251 47 110 8 45 143 101 35 227 235 16 165 213 31 58 180 52 144 247 33 249 183 38 100 155 45 113 90 20 108 45 2 117 99 26 218 146 53 197 63 2 155 218 20 79 114 20 71 1 22 254 238 18 153 95 52 244 78 40 33 211 53 132 55 8 22 10 13 86 108 8 48 177 32 163 155 7 164 192 29 146 116 38 242 34 34 64 53 27 19 185 23 74 169 38 84 15 20 192 79 12 113 84 7 13 245 44 205 229 22 65 28 40 100 81 40 153 31 51 82 226 6 251 197 34 10 45 35 89 171 44 174 127 9 163 131 6 136 43 24 164 119 28 245 85 37 20 38 31 246 54 50 188 90 37 233 200 6 148 138 4 19 13 47 150 2 55 193 3 51 56 210 16 142 226 5 180 86 35 234 99 7 68 194 0 12 28 12 151 129 31 164 64 14 166 172 39 170 188 8 124 83 54 94 143 34 180 191 4 23 4 1 217 64 29 245 55 52 119 24 49 183 140 47 99 20 41 31 50 37 115 17 43 2 41 15 193 207 46 198 41 39 6 110 45 61 247 44 85 140 27 226 185 38 246 138 14 40 1 9 57 35 3 99 192 52 50 188 26 92 107 24 202 50 54 193 209 3 77 102 21 6 114 27 144 53 19 146 92 37 181 162 32 117 91 26 49 22 14 157 146 40 207 213 49 160 29 31 7 163 
5 121 127 54 175 60 24 11 240 13 173 203 2 8 224 36 30 88 1 176 3 0 133 9 40 163 218 55 70 107 17 197 74 48 2 48 19 242 166 0 189 174 40 158 107 54 246 157 54 249 1 12 3 2 15 221 210 53 72 67 11 147 186 53 195 171 23 105 75 4 23 246 26 130 78 33 31 174 10 33 44 53 35 91 50 246 15 35 57 102 54 243 3 9 159 102 42 234 203 49 225 34 11 47 55 42 222 233 51 10 146 39 101 53 29 116 218 6 218 93 9 222 40 40 68 134 19 16 167 20 50 49 43 105 210 17 83 245 20 229 55 25 26 155 14 245 34 40 82 159 6 122 85 3 0 254 3 167 71 37 216 122 15 170 142 2 159 209 31 214 243 18 113 31 23 147 176 17 50 182 19 135 151 11 134 85 2 205 88 18 71 107 12 213 177 19 166 96 25 153 98 51 184 73 38 105 75 41 31 66 24 182 139 54 12 78 27 100 17 34 208 123 23 129 189 54 225 169 55 67 52 8 140 150 33 216 105 32 26 207 31 166 104 35 244 137 47 6 47 55 129 163 24 63 93 25 232 237 44 29 35 41 179 242 49 28 122 19 235 107 9 84 124 38 221 67 4 12 22 29 175 77 52 13 85 13 250 221 42 29 71 53 15 243 9 138 44 4 245 61 24 113 105 37 180 58 26 202 0 1 24 204 54 109 26 0 74 166 13 145 27 53 133 173 15 177 242 28 239 83 54 88 160 26 146 64 37 147 190 45 95 72 50 121 129 4 32 200 6 59 8 11 233 102 4 219 211 19 47 202 35 207 182 46 15 20 33 205 39 24 21 4 10 151 249 26 95 91 29 103 7 6 205 69 50 160 8 1 106 125 16 33 224 47 53 156 37 92 234 34 96 203 1 89 11 16 180 197 8 188 159 21 1 181 22 10 179 8 135 141 25 103 150 39 3 110 35 237 86 20 184 11 37 196 213 10 137 55 54 41 247 47 222 31 41 145 21 0 31 171 24 181 171 51 36 205 1 122 36 33 133 215 45 90 235 31 145 89 0 137 123 22 168 89 47 189 56 54 104 34 28 20 146 40 225 106 42 5 70 39 220 15 9 200 144 11 33 214 44 156 165 4 245 157 50 45 115 50 79 218 54 226 97 31 76 157 4 146 253 9 161 215 49 50 54 26 8 239 30 173 58 3 74 14 48 189 139 24 151 197 10 248 103 46 149 30 25 146 181 34 105 82 36 159 203 44 143 12 33 201 110 27 216 108 8 99 95 48 40 127 32 143 239 14 173 65 48 99 224 50 181 17 25 128 227 0 140 232 26 250 244 34 102 174 13 197 177 53 68 114 
36 52 202 18 117 26 53 85 0 50 102 121 26 74 91 46 50 220 8 38 237 54 212 199 35 134 121 23 248 142 27 194 203 17 220 151 46 221 17 21 86 238 39 177 128 25 141 146 23 122 48 52 65 200 10 186 198 18 72 137 28 19 145 40 171 204 29 188 125 11 171 132 36 43 241 2 190 168 20 238 145 46 183 160 0 125 132 33 7 238 44 152 80 39 100 116 36 226 117 15 102 82 42 87 134 40 255 106 15 144 220 14 48 201 35 181 247 42 163 223 2 244 16 39 104 85 41 221 68 15 48 240 46 182 71 37 32 202 21 253 10 37 198 57 10 189 31 46 156 131 34 173 237 18 2 240 24 70 87 48 55 160 22 126 79 46 72 85 11 83 90 33 140 239 46 172 180 19 47 47 40 28 77 42 12 95 48 99 217 7 3 49 22 82 185 46 167 247 9 1 86 38 240 177 2 165 211 49 212 177 53 33 44 2 128 84 45 89 126 41 139 239 3 68 150 35 60 188 44 146 43 37 67 236 50 22 58 22 200 52 55 244 93 15 73 163 0 199 245 35 182 170 0 77 99 12 9 111 46 52 34 1 33 214 48 91 123 24 144 197 28 237 227 45 144 34 5 133 225 35 48 250 8 147 157 42 2 133 38 36 169 55 251 95 27 118 89 11 60 105 0 31 65 33 66 13 54 35 35 38 29 0 10 187 147 28 64 116 1 234 94 44 73 124 50 162 188 54 11 87 22 76 130 48 90 154 51 125 67 1 125 114 44 16 208 36 132 194 6 226 183 24 95 208 18 27 228 54 114 110 10 244 53 12 142 27 9 210 67 54 68 142 7 20 247 11 215 27 38 142 128 13 94 206 32 66 102 10 176 161 14 229 231 12 0 121 38 67 102 50 210 207 15 201 182 38 229 173 20 101 40 18 51 134 20 154 67 4 59 27 50 34 101 26 155 163 22 1 112 32 209 14 41 135 241 22 52 232 27 92 182 15 227 18 41 38 204 20 66 200 6 167 116 25 75 6 19 187 153 20 201 111 3 186 23 39 162 136 3 88 223 38 106 154 21 54 137 47 254 18 46 115 214 41 121 188 20 18 62 30 129 193 40 152 21 35 33 240 11 0 255 30 154 106 52 36 185 27 54 46 54 13 229 31 201 67 10 7 237 51 200 81 36 221 127 29 205 104 53 204 243 7 55 214 3 240 36 26 30 169 23 3 44 0 70 34 40 51 145 0 133 19 30 4 23 19 108 179 32 95 112 15 54 45 7 90 132 53 3 0 48 47 178 6 81 113 42 227 249 15 246 137 27 13 226 48 192 24 55 48 27 29 93 235 32 226 242 27 226 233 
27 148 254 44 5 22 39 254 117 46 136 7 3 106 30 4 130 57 36 157 193 10 137 169 4 123 198 46 101 62 10 99 186 55 122 101 45 239 97 45 246 65 39 20 23 33 77 250 55 15 158 40 184 115 43 126 165 40 189 185 44 119 175 30 220 57 5 61 200 27 126 85 7 149 107 20 144 234 11 46 236 35 161 139 26 70 179 23 255 86 54 174 95 34 231 203 7 175 177 14 5 134 51 112 81 27 90 48 26 70 92 43 209 152 18 132 139 49 219 253 0 58 44 7 5 210 39 182 84 28 60 20 4 141 82 6 189 37 53 25 137 46 177 27 11 61 78 30 58 200 32 103 66 29 57 106 51 142 121 47 162 56 12 244 252 25 25 48 34 162 191 20 189 148 33 12 58 27 212 101 10 22 107 52 128 171 26 250 240 44 50 235 16 47 34 9 95 230 20 30 103 33 178 2 5 237 78 26 82 215 16 190 154 1 105 197 19 90 41 21 69 27 20 104 175 20 78 55 10 182 216 13 184 28 50 6 30 44 221 43 42 119 13 28 60 6 6 101 127 51 128 242 27 47 151 2 102 108 0 63 160 24 91 242 38 121 247 19 165 233 50 178 46 15 184 48 4 55 156 21 41 98 44 193 110 11 45 225 10 205 163 21 191 27 31 183 75 4 160 129 6 206 148 55 255 31 6 155 230 24 254 18 25 108 191 6 77 156 51 241 223 2 12 97 41 88 62 50 217 149 0 110 145 47 141 64 51 115 167 41 133 69 13 69 13 50 225 150 51 192 76 48 33 207 16 95 18 9 245 11 31 134 165 4 198 14 55 109 117 5 179 120 42 192 121 11 87 230 11 163 161 20 115 76 3 133 4 16 144 20 23 54 254 13 68 85 27 185 58 54 50 145 22 171 110 53 146 144 25 51 147 28 127 86 9 132 58 9 152 126 47 150 182 27 236 117 37 38 251 15 183 238 18 38 148 28 182 250 55 74 184 7 160 25 43 219 237 51 89 70 42 15 47 14 133 79 4 128 178 19 110 207 25 2 30 32 252 25 10 180 165 50 205 101 21 186 164 6 0 103 6 48 194 3 127 180 51 49 146 9 1 150 27 31 82 55 56 51 52 222 203 49 67 173 36 231 48 4 78 141 20 16 68 19 197 10 53 87 85 6 238 32 5 64 89 38 115 148 36 63 203 39 236 183 22 28 113 28 170 229 36 238 89 17 248 254 1 77 33 15 109 118 23 198 204 10 90 66 17 37 240 14 221 124 50 78 75 20 51 1 26 140 5 18 138 25 39 172 243 28 34 36 34 239 67 28 49 162 50 33 116 55 157 134 45 232 132 48 233 158 
20 238 99 55 7 21 19 250 192 29 30 183 12 97 28 13 3 70 54 120 203 19 254 117 27 130 252 4 32 209 42 131 217 50 153 109 4 89 140 3 16 87 28 44 69 24 115 33 8 62 47 14 179 93 24 175 41 32 128 220 4 89 121 45 198 3 6 83 149 38 170 34 3 239 205 30 17 217 36 64 233 31 157 113 22 198 247 30 163 255 55 28 40 21 31 212 24 181 25 11 215 183 10 164 101 35 125 64 27 103 142 9 216 26 15 208 89 2 207 71 14 247 181 38 203 124 51 228 10 18 155 234 22 1 117 51 65 240 2 208 123 51 234 71 51 68 176 2 139 223 18 65 178 29 189 160 26 199 174 13 178 113 14 39 11 32 23 73 24 147 5 10 218 39 38 138 34 42 105 237 11 27 136 24 188 26 32 106 119 2 220 185 41 231 151 49 49 117 20 54 149 6 93 133 0 128 96 1 109 126 29 245 40 49 15 19 19 135 188 15 64 44 15 215 78 48 77 151 30 226 248 19 104 236 19 200 186 1 70 18 46 111 212 46 130 177 45 62 74 37 106 77 53 184 45 34 80 244 28 72 236 28 53 26 44 239 165 3 2 177 42 214 42 4 135 152 11 209 22 21 30 27 22 75 97 54 63 126 38 43 232 11 69 52 3 235 233 53 156 101 51 198 40 10 94 90 51 117 15 9 144 2 53 241 95 28 111 117 40 87 219 45 140 138 8 117 109 44 218 64 42 3 21 33 93 192 6 108 242 30 110 245 48 206 23 7 67 132 15 31 48 11 169 8 24 22 38 42 87 46 53 108 211 27 45 61 7 31 6 38 21 68 20 44 19 47 176 211 30 224 2 7 233 137 46 15 156 45 61 36 33 16 135 14 78 236 14 84 175 11 153 223 31 172 125 23 127 233 31 129 152 24 11 103 47 167 222 21 204 108 21 83 81 35 63 163 8 239 33 17 206 191 21 75 114 12 52 81 37 204 224 24 51 80 0 18 168 12 126 16 7 208 181 22 115 106 53 148 110 11 84 198 30 198 183 2 24 84 55 248 112 26 72 13 4 241 182 19 1 6 3 182 34 46 32 145 18 142 63 30 84 221 13 11 72 5 95 255 29 207 233 46 221 160 39 147 139 24 153 135 22 187 2 54 76 77 29 139 11 49 104 94 21 177 4 4 176 113 12 153 246 49 58 116 4 197 58 53 76 241 0 79 169 4 156 23 7 168 165 16 6 194 17 10 52 9 124 177 34 114 141 36 230 57 41 32 194 38 17 222 45 186 147 17 209 3 33 119 191 7 57 7 26 109 183 46 30 24 40 172 41 39 229 211 31 168 184 25 134 97 
43 26 87 13 29 156 52 221 126 37 228 7 3 155 151 25 179 49 21 220 71 19 175 207 51 103 62 49 201 206 51 32 111 1 189 202 54 59 247 50 66 155 45 217 121 0 10 196 20 81 45 27 33 67 27 95 62 52 45 225 36 156 10 41 103 78 28 94 175 39 250 237 40 115 15 43 55 204 36 100 60 45 167 136 53 229 131 18 198 230 39 209 18 54 31 95 52 206 104 54 187 173 41 202 52 0 150 148 13 210 255 12 90 188 34 221 153 0 196 214 1 214 65 16 53 72 6 158 182 9 75 130 3 127 73 49 19 130 3 19 243 37 207 200 27 104 68 39 63 166 13 128 207 11 200 200 49 126 225 52 0 199 35 73 105 46 204 212 49 191 214 32 135 169 17 203 215 48 114 226 24 65 177 48 9 86 6 234 49 22 178 170 8 27 110 4 239 177 27 197 8 42 111 113 21 70 170 55 40 75 32 217 43 50 47 139 52 97 179 46 11 89 41 122 255 25 43 239 30 51 171 5 165 38 27 79 40 27 154 246 28 197 53 28 80 182 37 3 64 32 92 180 10 91 219 6 75 28 33 246 77 46 29 68 5 69 169 23 59 85 36 113 40 52 39 213 7 103 177 3 27 238 7 246 54 50 19 249 0 96 231 5 164 8 11 78 207 38 163 228 55 203 148 38 160 8 37 81 205 17 63 148 39 118 184 2 111 55 11 86 1 15 94 193 45 45 159 16 18 194 12 166 32 28 174 240 54 123 230 21 16 68 35 200 189 34 255 44 24 0 175 39 193 146 52 96 25 14 34 239 44 67 103 51 51 171 14 25 144 54 93 198 46 26 59 53 71 39 53 246 129 47 136 50 23 161 65 50 144 125 53 248 204 0 163 192 1 51 99 23 249 130 9 53 176 0 92 167 22 221 156 6 15 146 48 80 73 24 206 96 48 154 154 36 90 23 55 190 199 33 64 145 30 240 184 10 151 249 23 52 130 7 198 0 55 15 7 53 111 175 55 10 231 10 33 24 48 233 236 16 122 243 48 50 244 40 43 42 12 173 188 18 174 44 33 181 171 8 100 122 50 75 24 12 99 79 37 79 225 39 67 49 25 55 193 20 98 66 50 30 90 24 74 166 45 245 184 49 112 217 12 136 105 16 215 4 7 185 192 42 234 101 26 172 132 28 238 213 42 72 81 37 238 123 2 166 83 34 127 224 18 232 209 34 236 14 35 172 174 13 17 157 25 149 208 47 106 58 23 188 6 5 55 240 35 139 37 10 107 80 19 61 234 55 75 13 4 249 7 13 150 186 11 102 87 45 160 161 41 166 216 33 151 88 4 188 197 23 12 217 
12 247 107 55 4 230 40 11 78 15 197 98 37 28 135 46 189 66 12 150 104 19 238 73 32 179 98 12 140 6 35 248 22 47 222 98 26 44 250 7 142 138 44 22 177 9 88 63 31 192 109 21 10 65 41 108 173 53 115 213 53 137 9 4 235 53 0 229 100 47 112 159 29 33 158 53 96 186 54 205 148 16 15 3 52 188 97 31 145 114 40 154 15 36 207 165 1 52 25 49 211 185 51 113 232 43 44 45 1 192 203 48 195 41 20 36 145 5 150 101 15 166 173 55 75 125 43 100 57 6 29 219 47 6 236 3 51 31 19 254 179 55 39 20 35 184 132 42 30 176 0 203 109 19 72 196 31 130 235 36 93 70 10 73 116 54 105 20 20 28 223 36 48 107 28 180 186 50 100 45 5 209 55 46 149 231 24 129 226 53 199 65 54 60 190 23 80 64 43 47 246 19 154 171 23 84 135 51 130 27 36 185 206 50 161 75 43 131 17 34 197 89 38 131 254 38 195 237 30 186 68 8 101 184 53 236 91 31 7 179 40 213 110 49 33 251 37 50 29 18 140 192 13 138 42 16 119 209 42 188 199 23 116 237 51 207 174 11 130 195 8 241 90 33 236 170 52 9 156 0 201 17 42 243 75 50 196 8 6 140 136 34 121 195 41 39 98 52 234 238 45 68 129 17 239 233 42 139 115 51 156 47 22 231 119 51 239 73 31 119 147 8 58 153 16 157 19 50 139 93 47 12 41 54 245 230 25 104 143 53 151 65 44 14 188 51 88 42 34 235 93 21 133 28 34 152 85 53 245 181 17 30 255 46 4 142 7 147 12 30 212 21 5 144 186 13 187 70 48 24 193 45 53 180 38 138 225 19 63 171 18 62 0 46 205 97 34 217 183 38 239 118 39 169 205 2 240 50 18 177 239 23 101 151 49 70 197 0 241 139 39 241 70 12 82 32 5 10 255 52 128 113 14 77 183 30 127 142 23 110 32 13 6 203 19 203 170 5 86 20 22 156 188 17 189 163 35 188 87 11 45 229 17 228 97 16 115 135 7 147 157 37 94 101 40 9 146 38 29 5 34 217 106 7 125 193 27 212 106 32 185 29 29 27 80 32 162 209 51 64 210 10 165 65 11 55 182 24 60 246 41 167 140 22 104 190 3 210 174 44 239 89 31 63 50 18 17 239 34 227 31 31 36 226 38 218 4 42 208 47 49 92 119 41 26 153 3 200 55 26 34 170 34 84 215 43 67 30 54 98 8 34 68 50 4 73 1 44 120 7 24 240 74 2 137 51 3 192 133 21 107 168 17 66 187 36 96 13 22 105 112 26 155 182 43 157 32 28 164 100 
28 238 120 45 34 232 29 167 114 40 79 197 34 10 58 43 23 3 28 135 15 7 61 125 52 93 48 17 193 43 15 57 159 9 33 3 40 148 240 0 89 158 10 148 182 34 151 17 41 167 204 31 36 240 20 84 175 14 128 12 55 31 13 41 35 252 29 19 14 22 177 198 10 104 206 10 121 225 1 69 11 5 53 188 50 228 171 10 240 248 49 253 6 44 250 77 40 8 182 49 206 179 17 157 10 2 126 244 47 137 118 28 69 159 17 241 237 25 233 143 55 239 177 49 60 242 17 243 87 23 166 207 12 176 248 34 165 138 11 27 148 25 187 228 34 168 104 19 55 209 18 232 43 46 218 130 49 49 211 8 0 44 16 249 83 13 131 24 49 23 90 12 251 38 4 100 55 19 53 57 51 96 36 37 226 254 47 181 20 23 225 30 0 53 206 51 77 46 35 167 52 14 205 85 26 4 49 8 61 181 24 97 112 43 95 19 32 116 144 2 146 63 7 96 239 28 142 151 43 194 195 49 23 6 53 72 68 51 253 231 44 109 191 20 128 247 0 17 18 2 80 227 34 63 149 40 215 124 51 154 176 2 160 139 43 228 52 24 203 226 6 138 205 22 130 25 55 148 197 24 119 229 7 12 151 22 136 169 32 56 74 32 196 173 5 248 39 32 218 234 11 167 171 21 193 217 17 134 135 49 108 71 45 3 87 54 173 166 6 247 205 42 164 141 27 203 238 29 182 51 29 97 67 54 58 222 28 193 251 32 8 173 44 95 214 49 6 11 32 211 201 4 96 192 47 78 122 37 129 45 54 197 187 16 163 240 2 159 230 50 76 98 18 34 75 8 45 55 27 247 208 11 183 96 34 49 148 27 95 147 24 26 73 20 10 95 35 240 176 47 82 194 1 157 220 14 212 86 53 164 214 44 4 41 38 152 221 37 44 223 55 117 98 33 212 171 41 132 151 51 70 34 9 35 249 13 121 242 42 80 24 14 121 54 31 86 10 27 53 16 24 152 117 20 67 244 17 218 125 15 252 246 10 245 194 4 231 43 44 255 104 45 53 74 36 64 49 1 80 176 1 198 91 12 186 123 30 56 111 42 46 232 15 240 168 14 27 138 14 132 230 35 206 146 27 255 184 52 175 52 50 10 229 4 133 47 44 245 187 19 221 34 27 133 132 55 16 220 27 246 26 41 137 88 25 65 204 40 117 127 3 90 131 16 137 77 5 69 210 43 103 142 16 235 121 8 199 85 7 226 76 40 58 199 1 6 16 46 134 89 24 9 82 34 87 85 31 41 221 30 183 91 1 49 182 33 134 150 51 210 135 13 153 110 12 169 222 2 3 143 
35 85 181 50 170 53 3 135 63 27 226 142 36 152 68 34 47 230 4 182 79 53 36 154 30 2 31 25 145 171 38 70 189 16 123 217 0 187 75 34 73 231 11 142 58 26 116 190 48 195 200 12 93 164 14 124 25 55 40 55 37 229 89 0 190 207 35 10 240 5 241 152 19 43 34 39 233 69 26 177 151 31 85 159 35 110 203 51 165 249 25 254 184 47 206 189 41 190 62 10 86 121 21 120 254 38 190 17 55 85 152 44 245 226 18 192 137 32 186 173 54 114 248 12 48 41 18 110 25 0 231 18 9 230 253 7 247 18 52 144 17 33 114 192 18 252 197 20 169 55 6 161 79 14 203 102 44 228 74 4 246 237 10 243 229 25 6 86 1 23 133 36 215 10 48 156 131 41 212 189 10 35 177 37 137 24 25 212 174 32 193 179 35 166 159 1 253 113 48 130 58 24 140 148 12 16 96 0 205 40 20 127 153 53 151 171 41 69 137 18 248 74 9 151 2 22 8 174 8 67 95 5 215 40 45 55 200 18 95 4 1 248 21 40 163 73 38 44 6 6 119 152 22 121 234 22 39 227 17 135 217 8 175 82 15 119 87 30 123 108 6 144 78 42 217 176 54 224 168 45 120 230 31 98 29 30 70 235 13 31 193 4 113 219 51 200 203 39 52 243 7 131 121 33 51 248 25 219 26 41 194 104 11 223 46 1 202 109 33 139 211 2 102 193 11 50 93 47 37 113 2 158 0 29 150 31 17 176 24 11 25 241 34 71 66 52 180 246 39 135 239 30 72 8 16 166 147 13 23 230 35 23 109 18 54 120 2 79 181 27 64 206 42 131 169 6 121 99 46 104 231 6 113 247 4 4 109 19 234 21 2 87 226 33 207 77 0 133 79 16 83 2 19 253 205 4 96 224 5 72 166 38 63 244 18 172 139 44 193 199 35 163 27 19 240 133 0 64 38 19 66 22 32 15 71 17 239 250 9 150 39 48 138 188 52 21 194 21 221 204 40 248 192 16 125 11 32 164 38 10 186 198 2 1 186 49 252 170 31 35 251 34 223 148 23 161 108 44 109 240 44 45 53 10 56 29 30 95 246 32 37 14 18 223 105 6 138 211 1 133 44 48 26 28 17 134 150 22 119 37 35 172 146 35 202 246 2 192 216 0 206 94 23 55 159 33 10 225 15 55 31 9 83 128 15 233 192 6 14 161 27 160 239 5 151 106 53 111 29 51 206 48 35 109 104 21 78 127 28 109 33 15 237 72 16 173 137 55 78 80 23 61 143 46 167 122 22 196 47 36 244 164 17 92 231 55 220 98 44 253 232 41 69 164 6 206 180 12 30 172 
25 173 179 48 39 91 20 86 153 41 250 71 53 226 195 9 68 172 38 44 227 43 209 135 17 133 24 48 49 86 53 229 226 5 64 171 3 217 27 46 33 80 16 228 121 44 145 254 25 116 96 2 252 190 55 20 98 48 107 211 5 77 99 37 249 161 47 20 6 16 100 193 44 221 119 13 220 15 18 60 236 30 250 245 34 92 207 37 48 46 19 147 190 44 52 52 8 58 233 13 252 120 2 115 40 14 131 189 10 111 226 5 100 124 9 51 18 25 97 189 5 31 210 41 83 53 52 61 145 16 181 2 43 222 215 54 155 137 21 125 24 49 250 226 28 12 167 13 201 201 37 156 26 16 209 255 21 99 25 27 101 109 33 60 189 28 197 128 25 221 199 11 192 124 48 103 150 9 48 226 5 75 144 39 74 93 26 99 125 15 208 219 19 141 238 40 14 223 6 213 107 14 81 116 37 231 120 14 202 136 41 90 97 51 183 215 55 52 30 7 15 200 21 253 215 11 220 34 32 71 50 49 188 32 41 52 206 19 188 228 13 29 42 28 244 187 40 18 150 40 218 213 13 177 229 18 211 130 25 6 45 45 38 173 33 245 126 21 217 55 19 3 186 15 190 151 50 84 43 20 42 244 22 15 204 33 145 161 23 190 83 22 107 77 3 233 2 28 33 236 15 219 145 29 115 84 25 158 12 11 146 214 26 94 122 3 0 208 9 83 250 20 160 41 14 163 127 31 143 202 18 32 238 13 117 21 4 129 250 14 87 52 53 209 151 53 162 10 40 156 13 17 197 207 12 69 251 43 15 17 35 254 72 8 19 91 17 14 224 0 66 4 2 217 187 4 227 208 40 241 229 5 192 77 18 187 86 26 205 2 24 21 61 3 112 153 17 81 105 51 85 187 13 16 99 16 224 221 33 197 249 17 19 177 45 105 47 42 108 241 15 169 195 48 66 147 41 172 119 54 103 104 47 202 156 39 168 169 45 161 153 32 83 123 1 130 28 21 115 121 23 55 163 9 202 227 21 65 147 44 170 148 7 70 234 39 239 81 0 136 153 19 3 166 53 32 198 41 153 79 32 61 69 50 32 228 28 179 197 54 71 83 52 49 71 19 131 6 27 28 109 55 194 118 31 136 209 16 215 175 53 28 0 53 0 136 24 198 218 31 25 110 33 96 172 44 103 48 24 212 163 42 74 159 18 28 158 49 203 189 6 203 117 46 83 107 28 45 128 13 156 73 30 72 88 45 121 153 25 28 93 12 187 61 24 89 223 3 22 9 30 140 11 9 247 41 22 119 71 10 192 44 27 25 41 12 178 135 40 16 76 52 77 230 5 45 202 28 54 202 
8 65 149 15 106 43 14 178 20 15 222 42 8 7 221 50 143 216 18 219 76 48 193 220 53 139 40 51 85 206 5 234 138 31 21 210 25 41 17 39 84 199 31 49 62 30 9 206 25 85 17 27 49 99 6 90 3 28 40 208 22 178 212 20 132 25 13 149 200 25 92 42 50 155 105 3 105 176 8 122 134 34 222 56 20 225 171 44 178 169 30 134 253 2 159 60 55 103 144 35 145 13 14 251 223 8 171 225 26 50 237 16 106 77 10 21 223 4 190 203 34 188 223 33 248 165 8 136 239 34 149 206 13 116 10 0 86 224 42 67 32 20 144 219 33 112 115 32 59 237 12 27 25 52 192 203 44 176 28 1 126 213 30 136 31 36 105 100 55 137 84 31 100 119 31 216 3 27 197 165 22 223 5 30 170 33 38 199 53 29 156 209 21 187 2 46 31 168 24 115 164 52 234 227 4 238 179 42 147 242 1 152 109 51 185 3 18 238 90 6 191 96 33 193 229 16 106 243 52 14 105 38 242 105 28 165 206 23 151 10 15 5 12 24 8 237 22 98 121 21 195 203 39 168 186 33 155 99 23 5 44 49 110 104 30 60 142 14 71 163 35 83 74 35 65 138 30 186 130 41 133 105 1 63 14 53 163 117 50 207 70 40 55 38 53 197 247 44 104 110 55 179 124 16 61 143 50 191 170 16 40 40 47 55 105 10 172 83 17 243 216 32 25 98 14 16 90 14 126 143 1 250 11 46 137 219 6 52 235 22 92 182 37 198 6 34 25 149 13 241 200 38 83 201 6 173 2 29 61 0 7 72 102 33 35 128 53 15 214 1 197 236 15 203 43 40 96 160 1 40 194 44 242 215 42 244 5 31 244 68 55 90 1 3 218 184 26 177 249 7 157 110 18 200 64 50 105 215 27 43 136 21 3 41 25 8 30 5 76 192 31 77 159 50 6 198 11 255 17 40 110 107 9 174 138 50 133 116 45 13 191 16 55 50 33 85 151 53 21 240 51 180 61 33 122 228 16 140 102 22 247 153 12 130 106 2 246 3 55 181 5 6 231 50 11 126 99 24 110 156 36 171 33 15 144 244 35 246 205 34 144 166 36 250 236 43 253 225 32 2 91 32 52 226 46 151 161 5 51 180 48 85 221 24 73 185 39 23 16 47 189 243 1 169 206 22 138 42 48 229 125 52 200 134 36 105 118 47 29 228 52 250 193 46 180 74 5 196 98 42 184 113 11 134 16 6 176 169 43 46 63 51 180 215 20 42 164 18 14 8 12 208 159 24 26 140 53 124 194 21 238 15 19 254 25 27 168 204 17 231 10 21 191 46 39 99 25 22 107 110 
14 10 224 48 150 76 36 88 109 2 103 82 33 128 239 1 77 18 0 87 229 7 133 231 2 159 156 37 13 124 0 237 106 30 57 40 47 166 0 54 248 84 23 231 151 4 249 216 35 223 193 1 198 145 8 98 33 5 222 19 26 72 113 11 112 217 10 112 215 50 197 46 10 92 237 51 52 44 42 245 184 32 134 155 11 167 4 17 187 12 2 44 33 34 5 35 19 220 95 8 11 65 28 248 27 0 36 221 21 220 153 19 119 51 19 124 148 22 136 87 34 170 248 55 205 226 3 44 61 54 109 8 46 137 152 2 102 132 54 255 164 38 51 185 50 199 84 42 30 151 4 22 149 34 249 191 14 54 238 36 62 250 13 214 16 51 90 31 19 254 81 14 183 96 53 11 230 19 163 232 25 56 114 50 248 167 40 230 169 54 224 215 20 241 115 46 16 152 4 97 36 43 193 175 55 167 109 42 143 242 42 2 149 18 169 78 49 82 1 1 41 233 50 157 16 50 53 12 44 89 99 53 8 183 21 117 195 36 103 218 54 252 148 39 75 134 49 76 113 3 53 66 16 69 243 5 82 150 7 181 72 15 108 92 53 47 50 4 9 175 1 157 187 52 36 202 40 149 129 45 215 139 35 202 190 5 96 142 26 169 147 46 5 242 54 55 90 55 230 55 13 162 123 9 108 188 30 237 72 29 120 32 31 54 46 48 196 129 41 88 38 14 74 128 30 164 70 44 219 60 6 87 60 26 19 217 32 92 154 16 124 240 23 170 29 51 43 20 11 81 108 6 209 109 34 24 116 22 84 178 45 144 214 16 105 157 20 3 207 25 243 239 43 16 136 31 37 87 0 145 234 26 255 214 50 115 12 30 37 230 23 251 156 48 152 169 36 104 202 39 87 70 32 223 63 45 54 227 54 33 178 45 247 210 0 3 196 37 233 206 1 134 45 9 47 28 33 249 116 33 64 208 40 127 32 7 98 128 24 20 5 47 231 27 26 171 49 3 122 185 33 167 103 1 195 16 50 55 81 2 8 251 26 40 252 20 168 220 1 173 243 24 200 43 3 249 90 45 179 140 52 26 168 47 42 73 7 123 26 23 118 229 47 114 239 15 79 121 12 66 102 4 110 103 54 200 79 33 85 226 35 253 240 45 70 164 0 97 28 7 70 203 9 53 130 8 175 97 35 21 232 17 124 28 25 203 24 30 173 14 35 157 183 2 66 122 43 94 103 9 41 208 30 171 175 5 12 0 50 244 161 38 16 132 33 40 213 55 55 238 20 238 93 22 105 200 52 208 122 5 160 141 40 79 230 36 80 117 24 241 178 40 117 5 33 74 211 0 56 109 
30 149 180 15 94 152 16 216 191 16 102 67 48 76 241 24 193 73 49 116 174 14 121 6 48 76 111 48 185 0 6 109 200 36 6 126 28 197 158 26 8 142 39 249 30 8 67 254 12 241 46 13 247 79 50 102 229 11 102 197 41 46 222 15 173 140 12 75 152 28 217 124 14 247 199 33 246 94 26 36 182 1 116 131 0 89 200 38 31 90 21 253 166 2 137 95 13 33 30 14 157 162 29 100 46 43 194 180 48 121 125 20 252 55 29 196 233 52 31 1 9 197 127 34 36 44 19 66 134 33 228 43 21 18 169 48 199 31 9 68 138 13 124 26 33 101 30 32 102 124 21 229 248 41 18 114 3 152 116 7 196 152 50 109 89 33 140 126 5 23 102 17 49 199 46 80 36 4 204 70 2 196 134 28 54 140 44 171 181 32 67 33 6 156 112 50 26 210 25 129 251 35 72 105 11 109 82 39 179 161 27 57 85 2 197 239 53 123 155 40 156 224 12 12 232 46 223 94 47 218 97 24 67 122 13 150 197 24 55 96 1 140 199 23 124 243 2 23 85 54 247 98 2 224 178 33 62 158 44 159 164 7 26 44 53 223 252 4 64 57 17 7 41 53 250 82 12 79 65 52 177 171 20 99 177 18 1 196 18 166 181 12 210 129 35 206 145 43 7 54 43 48 19 21 130 124 21 196 97 22 111 93 10 33 81 35 229 37 49 154 56 11 28 234 17 173 182 48 227 97 0 246 77 19 114 64 7 211 45 54 49 106 55 130 89 12 168 171 31 224 254 11 202 248 32 128 195 19 225 93 18 46 253 44 110 206 40 156 33 1 6 56 3 95 190 43 10 102 35 9 242 13 1 25 45 196 92 39 33 76 37 31 32 28 237 234 0 14 38 46 70 54 46 4 119 8 106 59 25 93 166 18 118 242 15 211 7 0 31 157 23 63 20 12 41 185 26 80 205 32 134 125 53 254 52 15 57 74 4 223 106 35 209 148 6 217 190 45 118 173 45 138 190 38 67 237 14 17 10 37 142 52 51 194 165 20 12 26 51 119 249 29 11 54 22 201 233 4 119 111 30 53 20 9 34 249 10 44 8 33 97 102 11 6 75 32 32 46 31 25 74 34 79 70 43 56 19 34 167 185 31 188 213 42 181 123 22 189 100 55 36 95 45 111 232 29 158 51 39 232 139 6 46 90 23 65 52 38 250 216 10 207 242 40 74 66 13 175 180 9 14 82 41 246 82 15 41 87 23 181 125 14 15 188 31 68 74 42 28 17 33 14 128 36 80 170 43 4 138 49 87 40 47 169 233 32 0 26 21 125 233 45 57 161 33 132 135 5 149 174 
19 21 208 52 192 194 0 74 254 31 114 233 0 92 226 49 118 209 14 96 233 0 1 183 44 136 148 25 54 181 15 7 242 31 201 61 17 199 217 28 176 122 32 146 113 38 99 18 22 76 179 47 3 209 55 151 41 38 76 5 5 62 119 46 124 254 29 85 69 37 207 214 47 65 218 26 83 58 14 6 17 10 215 71 25 1 127 54 6 62 52 125 52 16 123 49 22 192 247 29 151 132 38 113 193 33 172 144 39 189 194 39 4 65 16 131 195 30 194 220 20 246 66 39 40 231 24 31 7 15 164 125 0 101 195 12 246 73 1 184 35 6 249 2 17 188 185 35 153 113 26 219 48 50 194 108 25 202 35 53 71 155 27 10 170 41 84 43 1 119 87 51 121 65 15 51 47 32 164 160 28 212 212 54 64 254 0 100 80 16 255 193 42 170 215 46 213 82 21 44 195 47 109 236 34 156 15 14 61 239 43 17 103 27 15 187 47 95 210 15 32 178 1 247 218 22 73 13 42 12 147 24 249 145 12 8 8 41 247 178 18 95 0 25 26 35 40 236 135 33 159 78 24 121 21 2 134 134 30 26 204 55 171 63 0 179 31 31 101 155 54 101 85 41 137 31 29 16 249 20 94 49 14 116 138 52 250 219 14 199 117 33 6 27 12 37 187 1 192 99 23 21 2 40 53 1 16 46 26 30 95 31 26 234 196 5 197 226 12 58 134 50 85 69 15 16 174 55 115 203 5 118 76 34 119 51 0 145 163 15 176 35 25 116 2 38 86 84 16 221 161 14 34 181 14 208 207 34 155 14 40 232 14 7 27 35 16 191 109 24 226 229 37 228 188 11 57 126 0 218 4 34 144 197 43 95 219 14 110 1 46 124 155 50 159 171 33 12 50 27 241 74 48 173 19 49 43 80 51 48 227 35 245 84 11 208 230 33 209 73 29 109 72 44 24 46 16 75 48 41 149 241 6 168 149 50 248 29 10 220 222 47 48 121 15 22 165 0 96 48 37 168 41 22 214 158 33 7 178 14 248 210 31 141 227 7 170 161 51 136 139 11 2 165 42 167 180 50 215 147 34 0 68 24 158 97 15 80 151 24 34 24 5 5 47 48 166 238 32 50 165 50 215 57 9 140 252 48 31 214 0 99 16 46 197 242 6 92 171 8 117 106 5 164 34 4 146 104 38 55 88 5 112 208 49 109 75 17 67 108 36 84 101 41 70 93 54 241 244 51 92 218 15 126 227 49 230 240 16 62 164 25 15 138 30 90 72 17 198 145 45 43 250 12 137 199 5 125 88 1 87 70 8 58 169 14 43 176 53 207 73 44 90 26 22 162 91 52 51 9 
40 46 250 1 245 64 46 77 204 45 148 73 32 61 35 11 238 123 26 55 185 44 81 54 14 172 194 26 181 168 0 176 85 37 240 45 42 188 142 38 5 108 36 40 161 34 163 17 25 93 172 51 147 23 39 86 219 5 254 66 5 83 220 29 128 164 17 14 97 30 122 107 39 28 10 50 45 230 7 218 176 3 241 177 41 204 4 55 14 4 3 234 185 35 142 30 26 239 115 4 91 132 16 101 154 38 75 217 48 251 188 33 172 251 5 177 206 52 181 247 30 110 31 21 140 154 4 255 149 23 131 159 12 29 36 39 247 196 50 179 146 15 174 58 8 125 211 29 116 57 11 147 173 39 45 11 14 195 248 25 98 213 30 134 12 53 75 169 32 221 144 15 24 115 44 235 2 8 36 66 44 209 55 41 221 154 20 213 137 7 170 119 45 183 232 40 96 118 14 240 252 54 99 52 25 101 27 30 167 127 23 222 88 20 120 196 26 1 93 44 120 186 3 96 121 35 215 190 44 211 79 47 7 189 5 35 67 36 162 180 43 250 74 19 190 178 45 28 246 21 214 16 46 79 213 5 13 80 24 92 44 47 25 248 34 92 39 29 17 188 7 91 249 14 13 20 18 4 167 40 20 60 15 233 74 44 58 184 25 102 253 2 94 21 23 133 52 32 66 119 43 59 92 9 79 59 45 246 217 25 51 147 35 125 35 45 53 2 51 50 239 25 71 56 30 123 154 40 242 89 11 78 41 50 138 85 49 99 142 12 247 203 41 26 28 46 29 87 40 12 204 23 68 167 26 222 224 13 56 159 51 97 159 37 182 219 25 68 101 32 15 230 42 44 154 55 131 203 27 80 49 15 247 201 46 216 168 30 119 3 39 22 80 6 241 235 34 87 17 2 61 154 46 216 26 1 163 180 25 213 108 1 158 47 33 71 55 0 74 29 38 154 59 32 133 186 31 150 240 28 48 107 44 74 245 40 255 171 29 107 228 51 154 110 18 209 239 12 238 72 14 41 24 4 228 254 34 212 214 43 63 5 37 52 114 12 223 182 23 196 158 2 50 91 43 33 183 26 105 89 35 129 70 55 127 204 20 86 216 35 91 123 32 205 78 39 132 107 35 34 136 53 126 15 14 53 49 31 142 37 8 212 7 8 161 18 38 121 2 41 244 198 31 66 201 11 174 1 5 54 25 11 69 244 24 119 2 47 156 48 51 163 200 4 181 224 54 183 120 34 125 102 45 71 176 51 72 199 25 97 98 14 86 31 21 88 91 17 136 203 28 80 202 18 49 158 41 169 18 31 16 0 38 192 227 22 135 8 48 233 219 38 8 228 46 99 50 14 47 248 
47 249 89 48 151 94 41 170 24 9 170 137 33 141 120 0 149 174 9 112 45 50 84 13 5 135 67 52 127 209 14 216 231 37 54 78 15 78 230 26 216 40 47 80 121 53 255 139 37 44 35 10 57 165 41 124 47 24 77 28 0 52 57 15 131 79 53 105 252 45 145 84 22 11 86 45 150 229 1 185 10 18 94 160 22 141 138 19 170 251 47 227 235 2 50 179 28 46 178 37 130 0 40 216 37 14 190 155 16 200 16 38 104 177 20 242 139 38 237 225 1 216 132 51 140 92 41 62 182 44 62 122 12 100 208 34 255 48 11 16 39 3 193 215 38 77 229 11 46 129 20 179 199 32 15 240 22 197 75 29 64 213 41 16 225 48 64 197 0 103 104 50 62 211 31 36 166 37 165 108 40 109 32 7 93 172 37 169 196 29 126 26 5 95 175 5 36 168 45 140 161 11 95 169 55 6 115 13 114 138 18 146 208 47 62 200 48 2 208 46 29 157 45 204 170 26 117 199 22 22 36 6 191 233 44 51 237 22 189 20 49 141 225 31 86 27 2 38 179 23 195 243 11 109 178 32 52 207 38 88 17 14 66 224 49 47 14 6 67 66 36 37 232 34 64 33 40 243 153 3 231 19 8 153 170 20 104 13 28 122 230 22 90 212 13 104 130 25 170 99 54 146 2 38 180 46 34 77 176 33 96 88 26 10 195 42 23 155 36 253 167 46 210 11 46 84 178 24 184 135 3 186 160 55 232 222 20 152 93 36 240 207 54 179 40 29 78 26 51 245 116 29 0 73 33 178 119 1 58 14 51 218 78 35 185 33 27 22 168 11 229 124 14 13 176 4 39 238 41 155 68 2 228 151 44 92 188 54 106 53 1 184 103 50 218 82 40 130 38 21 255 145 50 175 237 41 158 251 36 226 88 41 121 169 45 53 251 23 106 0 55 209 62 17 36 87 4 74 41 51 219 17 50 200 222 0 196 184 26 28 185 11 197 86 8 193 215 51 193 180 44 255 251 24 87 250 10 128 212 14 146 48 6 112 139 26 41 149 22 226 62 36 56 200 53 15 204 6 195 4 29 190 167 28 185 28 21 141 180 31 189 151 39 72 85 8 221 219 35 27 38 27 228 140 43 176 184 38 180 165 13 92 83 30 120 1 11 44 5 16 195 138 24 24 161 29 244 41 33 26 217 5 166 108 37 95 56 25 4 19 21 88 177 13 89 14 26 94 36 37 233 199 22 138 39 10 179 207 44 141 85 42 249 246 1 49 123 54 68 176 22 246 153 23 4 223 37 41 156 30 240 134 33 24 52 12 231 250 49 60 180 19 50 136 36 173 2 41 93 220 
31 247 186 3 214 240 44 114 127 53 249 108 13 45 67 4 39 164 1 219 184 19 99 90 49 101 245 38 65 193 45 251 210 3 235 217 22 106 229 31 215 25 52 26 62 3 190 123 38 118 160 1 208 1 6 197 148 24 135 213 51 89 116 39 51 9 9 24 117 24 49 83 18 112 42 32 235 46 23 139 89 55 140 95 5 33 200 20 246 150 13 106 166 32 116 178 24 233 169 2 60 10 34 102 67 5 148 149 17 237 166 45 76 45 6 20 132 21 170 161 15 81 69 19 3 67 4 172 115 24 182 188 22 249 54 50 143 32 39 53 245 27 98 86 55 230 68 34 136 82 11 205 87 22 16 199 10 132 170 48 64 119 26 118 127 41 150 238 14 139 240 8 226 224 6 38 27 30 120 107 52 208 101 44 151 176 24 65 254 16 184 248 38 56 168 36 38 82 16 22 139 50 246 249 16 18 201 0 125 128 24 226 190 7 146 202 33 144 231 25 136 135 17 48 104 7 131 190 38 14 171 12 8 35 22 209 125 43 81 253 5 16 245 47 218 190 23 193 29 23 73 190 0 177 24 3 111 169 33 26 97 33 61 47 35 186 243 4 183 202 52 173 29 23 107 83 24 136 26 41 71 114 18 95 81 34 8 97 28 105 244 42 152 150 28 140 63 44 86 186 17 115 135 12 198 99 52 225 26 11 83 147 42 164 84 35 6 199 52 250 169 5 144 165 1 208 223 23 138 212 26 17 128 33 117 217 18 143 157 45 34 233 41 119 125 47 62 111 34 231 106 34 140 207 26 108 204 13 64 85 14 192 52 51 153 134 51 54 159 37 31 153 4 156 230 42 12 216 1 118 207 22 69 193 18 17 68 18 102 150 50 154 115 19 33 98 17 192 197 0 90 184 21 64 206 49 24 90 7 232 37 29 169 214 22 237 20 29 132 190 55 247 168 0 89 82 9 31 149 11 215 14 11 165 167 36 0 220 4 37 29 5 251 212 3 16 209 39 206 224 22 119 85 40 201 100 47 95 149 46 109 134 52 20 209 36 240 92 25 13 0 52 226 140 36 179 194 27 147 229 42 232 140 43 77 42 50 226 34 8 104 57 28 57 40 21 149 188 18 150 80 12 34 9 16 228 189 11 201 130 28 85 21 49 128 31 19 162 242 3 220 37 52 4 197 9 192 121 7 16 30 34 25 209 22 214 101 48 88 173 21 109 137 45 140 77 24 127 94 28 164 81 48 105 172 8 226 64 16 1 105 9 210 41 39 55 11 32 229 209 53 110 97 50 187 71 33 25 172 53 106 180 30 22 152 8 86 128 49 191 40 19 232 224 43 243 177 48 197 89 
46 38 89 25 109 198 18 26 192 28 206 57 42 103 86 16 231 220 55 16 69 40 240 174 43 162 234 32 251 93 39 84 181 28 26 123 30 219 252 13 20 150 4 107 154 35 71 180 43 140 36 4 59 83 6 37 107 17 130 119 13 55 71 47 178 62 26 174 163 15 68 33 50 222 110 17 146 34 38 182 190 49 9 105 14 117 5 16 236 67 15 51 124 17 114 9 47 21 177 35 54 51 9 165 202 27 199 204 17 133 22 50 239 236 39 244 253 51 56 51 23 180 235 17 190 218 6 111 123 4 162 202 25 109 93 1 57 206 22 79 209 45 59 138 34 56 76 34 107 132 6 86 167 36 48 254 11 171 199 30 117 165 51 210 186 36 160 115 36 113 244 39 251 251 16 72 240 3 204 218 34 115 252 50 114 211 14 57 103 11 223 107 6 153 17 22 12 36 16 1 112 3 252 12 3 236 228 15 199 244 35 195 111 37 150 65 38 254 68 29 105 242 14 122 21 43 158 11 20 14 162 48 27 170 4 255 173 35 243 249 7 98 16 5 164 155 43 232 152 28 218 207 46 239 228 20 251 147 3 157 78 54 71 10 45 244 194 16 237 102 42 254 210 30 153 1 14 50 198 32 1 138 0 229 182 19 120 93 0 198 161 15 208 244 51 146 98 41 249 207 31 203 47 8 204 242 26 146 88 35 28 167 49 211 207 41 48 231 40 209 250 8 198 170 35 40 161 12 248 141 47 39 102 3 25 61 53 114 173 18 25 80 5 232 243 21 208 124 54 202 126 28 117 70 5 22 222 45 163 9 36 9 45 38 70 28 8 244 215 1 68 37 9 55 143 1 180 204 28 50 57 1 120 119 47 86 124 19 96 169 44 141 206 11 170 26 39 129 128 27 166 88 26 53 73 38 1 35 8 58 204 32 178 64 47 46 41 31 215 41 20 165 204 22 191 120 8 64 107 14 152 82 44 226 125 5 5 224 40 209 246 10 18 63 40 59 255 47 100 22 52 48 141 19 169 146 27 20 64 28 103 112 22 228 71 43 196 83 52 187 96 30 250 168 10 249 162 46 16 202 7 157 201 32 47 109 20 112 209 51 224 116 0 39 176 12 122 206 47 219 241 25 131 230 35 38 236 27 240 46 0 186 213 8 39 172 24 248 44 0 109 192 8 29 188 34 236 156 53 221 64 49 195 160 31 176 249 23 222 76 17 179 175 49 95 176 25 139 224 54 76 128 52 8 0 40 164 168 45 228 203 49 132 200 25 126 73 39 202 240 11 122 136 2 42 217 30 10 82 2 138 196 50 138 162 22 51 158 42 254 134 55 198 76 45 16 213 7 0 14 
33 136 37 27 98 240 37 180 27 31 120 209 50 27 211 45 185 221 35 64 139 33 140 29 1 97 52 10 111 201 26 148 41 12 133 2 1 160 6 17 113 19 28 68 171 14 33 205 30 172 34 18 201 117 27 254 142 26 199 184 38 240 226 19 243 148 27 249 169 4 12 114 24 183 179 9 132 16 53 166 38 39 27 124 37 170 94 36 98 161 13 68 83 0 216 153 25 129 101 37 243 208 13 167 173 25 183 205 8 221 15 11 89 252 21 183 179 55 88 104 51 171 229 20 68 82 29 169 178 9 122 11 48 39 112 47 244 141 20 3 47 5 0 119 52 179 218 44 28 232 47 1 87 43 83 11 37 5 151 39 16 164 14 128 165 26 14 77 30 61 172 6 180 232 49 142 125 13 118 201 30 206 109 17 217 188 54 112 80 54 20 141 39 186 68 21 7 34 10 180 244 54 156 202 12 26 160 43 227 42 49 81 207 10 13 118 42 93 111 30 234 110 0 46 124 16 80 11 20 69 168 8 15 130 10 176 16 38 218 45 47 169 192 28 31 33 26 143 91 44 253 5 27 121 195 27 133 60 0 45 188 32 176 240 0 192 192 26 237 171 19 173 121 43 206 152 42 41 196 39 46 78 48 242 195 37 46 102 11 234 89 35 218 146 51 154 218 17 69 210 14 190 164 37 86 31 22 27 186 13 105 228 23 44 11 53 146 172 47 236 209 9 126 36 19 88 39 17 42 235 7 206 156 38 237 250 25 168 39 18 140 126 23 152 3 49 68 122 53 21 31 35 58 174 11 97 23 37 76 26 11 232 99 9 227 107 1 10 201 29 136 66 5 139 36 49 5 51 39 36 213 41 210 98 34 233 110 15 4 209 23 103 95 34 210 186 53 155 3 29 221 244 33 2 114 30 53 135 27 10 225 45 109 80 7 219 249 3 172 3 18 11 90 21 198 154 16 201 188 14 190 233 48 48 159 53 183 224 24 152 38 53 232 145 48 225 207 36 229 246 8 63 33 46 217 179 47 150 24 37 127 25 45 30 247 21 254 215 53 37 236 14 182 12 23 133 153 20 123 1 28 156 22 13 80 54 27 104 28 35 129 203 9 120 57 24 79 214 53 60 43 11 72 25 41 226 239 36 227 166 41 249 67 33 47 31 17 75 212 11 23 32 11 80 235 11 38 212 47 82 188 31 107 201 1 90 141 5 0 214 46 67 154 38 98 251 25 55 172 40 87 198 48 66 97 23 22 116 1 211 215 20 156 118 22 41 94 30 255 39 10 154 212 28 149 123 27 66 81 34 8 114 28 105 171 19 221 51 54 181 226 34 43 227 52 137 79 35 177 21 
5 133 220 3 0 230 45 81 82 53 196 246 22 111 240 3 162 45 8 133 128 52 104 166 13 184 104 6 205 84 4 169 64 12 143 197 38 226 224 26 216 61 25 200 162 3 245 112 8 117 28 41 27 124 49 132 8 54 216 30 16 24 228 55 222 48 17 190 125 25 252 27 42 158 125 15 15 78 29 43 193 40 167 186 52 176 27 45 206 52 13 178 26 27 227 170 10 96 202 14 123 203 12 248 165 51 70 71 54 7 222 38 193 235 14 220 20 20 16 192 38 43 69 41 213 227 41 159 94 4 107 152 52 16 206 2 87 163 50 53 134 35 33 149 24 53 75 24 245 177 19 59 229 9 30 203 8 124 149 3 21 190 3 227 99 10 134 255 24 13 226 41 162 204 6 237 119 51 158 255 38 131 152 52 78 91 49 227 244 22 162 45 25 5 208 0 4 132 13 230 142 47 178 206 52 42 47 42 41 197 37 193 81 43 29 23 23 17 252 25 62 93 54 15 211 50 147 44 1 33 12 27 240 249 37 31 136 15 229 4 8 54 30 37 77 187 15 73 167 29 166 118 28 121 231 55 166 93 25 178 215 1 172 56 48 52 76 5 57 137 35 87 240 9 19 25 2 186 94 9 48 181 50 23 75 8 116 239 51 75 39 39 132 128 27 208 201 44 89 49 28 74 127 15 99 2 33 193 211 9 119 238 48 194 175 36 177 233 7 216 202 19 88 93 43 33 156 45 83 15 23 210 188 2 212 192 27 168 215 18 150 168 28 69 169 30 46 193 6 248 77 23 85 36 40 241 128 19 1 171 21 189 48 42 125 255 42 84 49 0 252 37 45 165 143 19 102 188 12 179 154 33 215 80 19 87 95 28 3 144 33 51 19 30 51 105 50 100 147 54 137 101 51 25 205 33 213 122 4 111 85 3 191 41 19 31 83 54 175 110 25 194 138 12 43 99 1 190 185 2 35 99 51 240 9 32 106 84 47 192 5 31 233 105 30 60 164 5 170 55 39 52 205 19 151 151 9 80 147 53 179 244 5 188 223 40 16 226 48 21 187 25 126 2 6 35 9 8 90 47 45 40 4 36 191 156 13 82 95 24 71 224 53 38 133 37 8 27 11 195 27 17 198 219 44 207 132 15 255 106 23 3 251 22 159 192 40 254 28 47 223 201 5 100 42 30 127 71 1 154 116 23 117 183 55 250 121 54 100 93 25 95 156 49 31 3 31 60 41 22 5 162 35 47 97 42 118 71 45 235 53 2 162 230 12 27 94 9 121 165 40 21 235 16 25 52 36 66 29 17 228 5 9 70 203 7 141 246 50 194 161 5 168 230 16 6 160 41 171 85 
55 150 110 48 203 230 2 232 126 55 237 82 29 185 44 26 175 53 20 80 180 12 54 31 27 215 44 46 44 84 29 154 246 8 128 173 48 255 125 54 81 143 31 125 134 14 178 195 47 103 141 5 134 25 44 178 78 48 6 137 26 252 111 43 169 236 34 38 52 27 182 101 17 60 131 35 0 90 34 141 224 8 167 183 42 245 197 1 126 169 21 237 186 31 218 100 5 14 143 43 115 185 48 246 53 16 80 46 13 49 217 36 232 236 9 173 132 15 87 207 45 17 32 55 117 109 37 5 100 1 190 130 7 243 85 8 33 101 25 251 117 9 231 19 23 107 87 38 58 145 7 90 72 36 200 237 17 44 108 48 174 250 19 4 251 45 105 242 32 223 58 15 242 179 2 73 21 5 218 36 23 35 138 39 16 1 52 125 237 50 119 223 22 114 143 16 100 50 47 159 247 41 82 183 50 103 94 53 139 113 48 21 190 8 22 101 29 4 213 52 227 113 30 114 187 43 164 10 42 156 194 20 83 89 44 178 226 7 35 180 21 225 97 19 70 49 39 27 18 26 140 111 12 72 68 49 82 138 37 20 53 24 109 127 10 79 28 37 3 32 54 101 175 45 150 84 16 168 16 5 24 207 45 92 114 7 230 134 43 28 63 32 155 148 15 183 61 10 215 151 31 135 21 38 219 115 22 235 24 14 187 217 50 45 38 9 179 187 13 243 162 48 135 157 8 196 5 47 92 188 30 113 118 10 228 150 45 253 76 8 214 170 5 252 33 49 183 243 36 89 172 27 246 129 8 251 242 52 183 26 45 45 25 25 195 160 38 15 2 12 186 79 24 219 88 47 206 141 32 123 118 46 252 82 25 238 182 24 8 222 54 34 98 17 194 87 9 196 48 19 19 7 22 107 179 36 249 92 15 111 187 12 194 116 34 120 34 43 86 204 45 184 44 55 15 186 27 63 12 6 70 109 42 250 136 11 86 126 18 17 66 28 133 130 52 168 190 2 116 232 50 160 27 33 91 112 17 103 135 7 212 98 49 92 81 23 218 171 33 28 254 54 158 192 22 92 69 42 69 65 27 96 148 46 209 158 29 88 184 41 187 17 5 12 176 23 183 74 19 181 57 50 117 58 54 186 193 43 252 239 12 144 146 5 46 213 37 230 115 8 247 120 20 168 81 19 242 134 0 43 149 38 102 192 32 39 138 52 22 177 12 168 28 19 125 232 49 240 133 49 104 123 41 185 43 27 63 232 46 212 91 4 149 132 51 31 34 26 208 122 42 237 207 24 213 179 32 91 198 25 214 192 26 1 177 42 233 74 22 69 213 3 201 139 43 235 168 43 101 235 
32 52 69 46 232 72 9 174 200 39 110 56 32 31 17 10 105 164 55 62 118 16 202 28 27 114 88 48 93 179 5 163 222 5 235 247 51 179 229 42 235 46 33 253 77 43 161 109 25 23 119 11 51 198 5 139 222 43 62 225 22 29 74 1 20 231 44 249 108 55 39 159 28 116 65 5 225 3 12 89 46 0 31 151 11 254 203 34 223 112 55 41 115 3 16 25 12 124 170 3 28 238 31 93 30 0 96 74 17 142 24 25 38 252 39 241 20 14 97 184 0 213 154 40 238 153 13 153 172 41 135 184 22 165 235 47 240 146 45 8 26 27 4 252 4 25 253 6 209 252 35 107 218 25 4 226 34 176 251 10 104 144 31 83 65 15 229 79 7 255 190 36 251 188 53 248 223 30 244 244 41 207 106 29 177 181 37 172 238 37 60 193 16 125 27 45 205 26 44 139 10 40 71 1 16 39 253 13 27 18 44 133 248 5 58 73 26 40 158 46 233 163 36 4 16 1 31 208 4 41 117 20 42 26 43 40 186 38 58 82 11 51 223 21 124 59 37 27 73 23 190 3 19 207 249 10 159 109 11 21 174 46 47 123 22 233 143 32 59 202 51 27 32 32 86 251 19 159 16 33 162 77 40 156 116 40 9 160 5 184 234 52 51 94 21 194 252 40 140 194 27 172 194 50 167 246 1 183 166 36 4 113 40 121 250 9 25 83 41 3 75 28 97 88 30 93 148 50 31 185 38 226 25 5 216 149 28 126 103 1 239 216 2 233 236 51 60 156 30 135 86 32 223 199 21 115 108 21 44 210 15 70 197 31 219 99 13 66 169 52 26 165 13 7 166 34 163 32 25 249 179 49 193 74 4 45 66 33 255 151 55 196 12 50 40 99 44 209 146 6 118 63 29 29 219 25 61 97 2 241 35 3 59 108 24 125 149 40 20 50 44 33 251 20 132 10 13 23 244 52 86 32 9 50 102 54 147 180 31 182 165 34 34 143 55 184 59 44 234 19 37 229 235 17 239 136 16 227 76 31 3 226 17 105 238 28 29 23 10 194 125 4 82 213 28 141 103 46 160 119 3 140 155 10 20 224 5 96 169 16 66 138 50 48 193 23 71 42 42 197 38 28 154 216 9 1 172 49 120 57 21 19 175 9 243 11 50 157 85 12 39 131 21 232 179 52 18 77 9 56 5 19 16 127 45 188 75 13 245 164 25 165 157 44 176 35 33 5 188 48 136 182 8 60 243 26 137 96 18 142 20 34 13 142 23 88 161 12 252 182 17 154 68 1 189 229 39 121 121 23 48 171 11 35 3 13 131 68 3 151 150 41 37 33 25 199 187 46 125 18 
0 193 95 29 166 80 46 32 242 30 203 153 33 206 200 4 18 52 52 169 41 1 202 172 40 133 61 46 152 39 15 247 13 30 71 141 22 57 202 9 210 128 55 155 103 42 207 112 35 248 253 37 164 33 26 226 106 10 9 123 1 22 9 17 163 88 26 109 78 53 237 100 40 84 69 23 197 245 15 194 183 19 227 34 45 77 87 6 200 17 4 209 100 7 42 173 44 120 62 10 221 9 14 34 166 51 23 222 53 206 229 16 240 228 14 71 135 38 89 13 40 189 155 34 106 64 2 169 135 39 178 60 26 88 222 1 54 212 48 27 144 32 255 13 48 134 110 33 147 28 14 47 146 32 111 218 9 246 76 35 50 55 11 16 254 17 229 232 4 117 234 19 130 186 34 240 122 37 12 130 36 159 227 19 121 1 34 198 138 28 253 187 37 251 159 18 228 218 7 206 76 25 136 216 10 2 100 54 133 118 13 104 27 15 106 240 45 244 51 50 175 109 29 78 218 33 41 87 47 117 185 47 77 144 26 177 233 31 39 51 47 67 138 49 51 127 13 102 238 13 212 35 3 174 85 4 5 131 33 190 148 23 78 116 48 55 219 16 107 69 3 245 52 6 116 140 52 99 77 24 134 3 46 220 104 3 95 27 9 243 248 55 103 73 15 67 232 50 136 57 47 189 177 3 73 108 30 150 90 5 153 174 33 1 215 16 29 173 3 21 137 35 94 34 38 71 10 46 128 41 11 49 179 44 157 50 43 247 37 4 165 124 54 124 89 51 42 18 16 179 42 6 213 53 45 223 168 37 8 94 14 187 157 19 237 152 42 19 221 24 143 184 12 232 44 14 250 162 1 36 53 39 89 221 54 2 228 23 96 49 34 253 255 8 150 253 19 115 153 10 43 43 26 87 99 44 250 24 24 47 246 49 13 136 19 241 239 36 34 53 49 33 132 39 31 143 10 184 135 45 227 146 37 71 44 23 95 174 38 85 42 19 221 202 52 204 195 55 2 191 24 134 27 39 21 116 47 156 100 51 46 198 42 90 84 49 8 57 14 50 24 36 252 38 40 192 66 10 127 78 25 154 125 30 14 206 51 114 61 33 57 101 28 141 112 4 198 194 31 222 115 19 4 121 19 70 93 34 149 14 44 18 192 11 224 249 45 30 72 14 131 51 35 243 76 33 181 192 55 40 61 28 161 236 26 255 151 31 13 3 2 205 237 42 199 114 24 15 5 35 66 10 14 142 73 3 79 20 35 140 166 13 120 21 52 15 137 25 18 68 38 0 147 45 114 245 20 119 56 30 129 152 21 202 124 36 223 82 48 133 222 48 154 145 39 36 230 26 104 58 
42 251 155 20 241 202 27 41 191 20 193 196 15 61 10 46 144 223 35 110 3 5 255 179 1 230 219 1 32 19 53 188 93 30 134 167 55 69 99 40 9 150 6 20 74 22 243 201 4 247 39 27 170 10 9 134 136 26 153 41 6 246 51 52 157 56 17 0 46 19 150 77 55 224 45 34 170 75 17 209 249 28 220 21 10 100 49 19 141 50 9 192 84 22 248 50 46 38 150 28 115 64 52 161 243 54 236 186 8 230 116 4 251 38 32 44 130 37 95 100 6 179 223 6 230 80 37 124 94 24 188 108 25 175 16 30 105 148 4 222 195 47 4 195 20 134 159 11 234 223 22 201 172 12 25 58 49 119 193 37 227 110 21 243 142 14 135 80 20 74 254 40 13 146 6 172 33 24 139 221 41 56 248 42 114 199 41 51 123 20 161 172 55 48 154 7 128 55 25 126 61 47 16 34 19 49 10 15 15 121 31 7 209 41 206 243 53 74 45 30 246 223 54 144 115 38 199 251 52 5 10 44 39 99 6 49 202 53 170 222 12 124 125 35 111 84 5 156 157 11 123 26 52 239 57 3 234 135 24 244 86 15 87 162 9 34 255 19 0 141 31 125 42 54 209 206 51 110 65 14 137 254 21 194 178 15 73 246 3 159 1 35 66 18 45 65 73 21 206 178 50 248 198 35 198 85 1 8 84 2 6 239 52 184 5 22 174 11 37 176 250 47 194 222 40 11 25 38 190 118 46 132 211 37 217 173 29 45 88 11 28 113 12 34 20 10 45 120 10 39 38 20 5 116 0 30 3 54 148 212 18 103 114 35 20 9 33 108 102 5 222 203 7 242 54 44 106 90 36 145 45 25 5 175 32 8 244 28 220 68 52 79 82 24 88 228 37 190 79 35 137 232 5 191 158 39 26 117 24 71 122 5 246 166 30 234 215 26 46 39 17 128 12 33 100 88 23 180 184 32 156 133 0 58 48 34 176 205 49 42 213 39 208 109 42 167 11 40 207 177 1 219 51 13 51 5 9 235 46 54 113 22 8 161 134 8 111 182 10 68 0 50 177 145 2 188 25 17 109 139 28 161 43 31 166 76 18 212 210 3 234 11 29 113 225 4 39 242 48 40 178 33 185 157 22 210 87 11 93 185 44 137 234 10 213 246 55 167 53 17 179 96 42 148 251 2 134 56 42 57 228 43 214 212 30 45 118 43 231 212 12 209 159 34 200 12 33 253 30 52 93 5 1 89 215 55 145 25 0 118 131 54 74 21 28 192 97 35 148 127 36 52 250 28 64 255 2 94 217 15 100 90 16 59 143 18 84 88 40 216 167 2 237 48 51 78 142 23 205 26 
43 200 141 11 199 210 10 160 222 38 250 232 25 137 80 13 225 16 29 137 98 35 185 42 25 71 61 47 98 16 55 239 119 38 193 19 14 160 238 40 136 40 34 216 198 3 233 159 4 75 205 53 118 210 45 179 197 23 195 7 46 58 22 24 77 237 0 60 139 16 100 201 33 43 1 34 202 195 37 151 103 43 106 147 22 47 121 9 54 166 28 76 53 9 57 179 45 196 243 50 141 211 45 143 60 55 82 125 7 185 167 41 77 28 24 198 8 23 108 166 27 161 8 5 84 164 25 72 141 31 27 179 30 87 61 40 212 242 26 123 113 31 152 136 37 160 9 33 70 186 26 78 161 46 242 212 22 128 65 34 51 115 1 112 50 14 98 128 17 211 32 9 92 122 17 101 33 48 31 142 14 192 103 9 149 225 17 214 176 52 73 198 12 123 248 22 251 130 9 28 224 53 150 185 35 184 43 50 70 60 11 174 148 8 143 59 6 63 212 48 6 237 19 254 57 47 128 245 3 96 19 25 26 4 17 69 82 0 129 5 46 22 215 29 81 106 37 37 146 19 18 145 9 75 217 10 64 156 2 83 91 36 87 54 49 169 168 43 174 209 9 134 65 18 240 95 7 131 13 49 20 250 28 237 237 52 137 222 55 229 80 6 27 35 0 195 15 38 149 65 36 214 244 29 54 189 8 67 215 52 61 22 25 42 103 2 8 3 15 89 223 35 124 14 46 139 148 51 204 196 18 192 163 48 125 7 19 84 92 48 106 52 2 209 32 2 212 249 11 179 92 7 193 163 11 86 6 39 26 45 40 189 232 21 197 122 10 33 66 4 86 77 22 118 149 50 112 7 38 204 130 15 111 85 29 118 165 8 163 128 29 139 39 18 6 143 28 72 117 26 150 175 32 43 83 32 51 201 28 181 20 4 10 18 10 175 209 21 47 231 32 87 23 46 230 4 15 91 183 53 10 139 24 94 181 3 39 85 32 59 102 11 77 66 26 31 142 50 6 80 33 29 181 47 33 166 11 216 156 45 99 219 3 24 176 3 110 177 22 212 228 28 22 205 51 165 192 49 245 98 14 171 52 47 81 93 24 237 109 27 201 216 12 121 77 50 42 33 6 15 28 20 220 82 41 156 214 47 254 121 2 51 34 51 144 232 0 253 208 33 213 144 35 35 179 29 68 239 44 96 153 16 178 23 52 137 172 51 2 229 22 37 20 38 13 238 4 221 25 1 109 50 44 33 19 0 16 110 48 170 244 3 193 136 4 109 249 54 83 5 35 103 16 17 86 78 30 111 29 44 161 233 29 181 138 21 35 79 55 23 87 41 160 192 38 153 219 33 158 127 
1 175 37 39 253 241 30 26 202 32 3 128 45 142 164 8 221 233 8 52 63 40 244 62 25 207 255 39 78 46 6 116 175 36 101 152 22 47 215 10 175 134 16 84 214 29 61 219 17 124 3 30 187 67 13 186 35 12 232 156 8 152 180 37 48 122 12 8 62 35 142 29 39 100 255 21 63 111 41 66 188 4 134 61 31 169 179 47 70 249 15 250 141 8 116 149 16 179 2 46 208 158 42 207 233 49 62 137 3 250 102 41 55 191 3 235 212 25 228 163 19 113 90 47 6 170 18 8 42 26 166 178 33 143 200 31 24 66 33 126 251 41 62 246 28 18 120 48 181 163 17 15 20 23 185 127 47 227 94 29 149 241 20 93 83 29 159 133 35 154 244 9 145 94 51 9 255 24 172 139 0 192 251 9 63 220 45 157 195 34 142 178 0 226 71 47 103 107 34 91 168 27 185 100 44 184 93 40 67 105 0 62 41 7 26 249 12 221 131 35 143 240 53 214 242 36 66 82 23 234 82 9 78 236 33 172 23 37 21 75 27 62 43 6 56 203 35 187 170 35 171 38 33 157 49 19 240 30 38 66 114 12 46 34 48 69 139 29 144 172 20 187 17 20 134 181 7 48 115 26 86 14 15 136 57 39 166 59 49 25 126 7 59 172 52 198 41 44 114 81 39 132 143 5 57 11 5 172 191 52 186 46 52 244 72 18 47 255 51 173 167 38 90 144 12 131 168 7 212 4 3 99 241 28 110 152 16 45 198 2 91 35 6 163 215 21 163 19 19 74 246 13 218 241 40 130 40 52 135 36 8 120 147 22 16 134 4 214 178 15 250 138 11 209 29 46 229 163 48 219 89 50 204 188 45 244 121 28 25 185 4 172 205 20 51 69 3 229 44 37 112 64 46 141 175 43 48 194 30 137 120 3 69 120 55 190 83 0 119 176 45 69 148 8 138 240 29 182 92 53 246 159 42 166 220 11 104 235 12 225 222 50 89 173 8 172 72 40 92 215 29 240 128 7 224 213 14 61 93 20 220 202 2 185 168 11 164 18 44 130 173 13 47 210 34 119 60 38 79 100 15 207 4 47 164 233 44 1 89 49 203 127 42 115 155 54 134 94 0 51 137 40 5 149 47 65 250 6 166 12 29 170 123 33 148 218 42 237 25 14 108 150 1 7 239 31 101 1 3 238 183 24 131 239 50 126 87 16 138 55 2 5 101 22 223 99 27 249 4 55 143 167 47 126 21 28 127 246 11 54 94 22 37 249 20 125 153 7 180 123 52 25 3 12 124 54 45 129 252 12 40 176 18 61 207 33 51 246 39 145 131 36 138 254 49 36 252 13 159 121 
31 163 128 19 217 140 52 213 120 44 133 93 9 85 209 29 75 195 22 206 52 33 204 219 13 201 168 28 66 241 7 194 239 48 78 6 6 199 153 3 36 174 40 246 234 36 185 100 18 238 17 23 201 79 32 113 24 18 99 5 20 82 146 42 88 193 1 241 202 22 159 168 20 138 11 53 238 196 3 255 200 45 78 154 6 103 57 41 108 161 27 254 75 35 192 183 13 138 114 52 50 243 30 61 153 12 1 53 35 201 139 42 100 206 33 157 219 21 63 90 36 138 59 12 66 111 38 180 250 48 167 119 45 65 148 55 118 58 0 1 207 20 208 98 2 171 68 1 5 141 35 65 67 53 176 247 41 170 107 41 34 105 18 182 153 32 240 6 26 191 117 42 34 174 29 102 74 35 244 132 28 55 253 36 46 1 38 153 70 48 2 64 46 155 225 47 161 195 22 23 27 48 197 117 39 15 159 11 148 117 42 145 80 0 146 108 49 217 56 43 25 174 14 250 71 23 189 149 38 216 212 19 78 211 51 237 243 55 98 122 16 178 245 51 30 167 4 86 135 37 5 0 55 76 123 28 225 145 4 182 73 50 137 23 40 124 171 2 247 78 29 236 133 3 148 77 18 27 168 55 28 220 51 151 41 20 41 112 42 114 116 51 137 81 0 52 123 47 130 147 35 7 14 7 85 59 19 253 134 31 218 40 30 3 207 47 116 194 17 232 151 51 57 33 39 181 53 18 72 197 1 86 76 6 145 191 12 24 199 6 64 234 25 16 41 13 210 255 38 105 255 47 139 112 4 192 107 37 133 155 3 209 77 45 144 6 53 87 21 53 65 33 5 106 7 0 106 240 41 105 78 4 217 148 12 69 19 17 224 72 26 45 197 43 51 152 50 72 253 20 105 122 54 112 56 0 97 5 1 175 165 51 67 175 40 86 67 8 158 152 13 99 113 16 252 28 49 249 87 10 116 233 3 172 189 36 177 252 27 87 164 54 6 182 36 73 161 19 225 209 54 83 225 42 111 30 20 198 142 32 175 71 52 109 106 53 105 253 36 13 241 42 195 148 4 100 122 29 53 182 40 22 145 15 52 208 13 195 10 13 10 62 34 116 230 3 113 58 16 98 64 4 246 156 32 112 255 54 39 171 20 184 56 41 136 25 20 147 104 6 209 126 11 184 67 20 242 117 15 50 16 21 207 184 22 206 36 37 121 245 29 177 251 22 202 23 17 51 104 18 177 124 42 244 155 45 105 46 31 121 50 54 49 153 28 86 247 53 75 197 7 70 186 9 93 103 4 198 157 37 66 102 17 221 1 10 11 83 43 62 152 21 215 16 43 206 86 46 147 107 
52 77 248 41 181 55 23 82 65 50 185 125 23 186 107 27 13 76 49 166 151 32 182 90 15 12 79 26 119 154 48 112 48 37 167 12 15 232 70 40 102 69 18 209 135 32 29 167 14 180 210 36 15 59 40 94 123 24 249 138 40 41 45 23 54 29 40 124 194 22 193 185 7 73 106 36 240 212 25 194 76 40 253 106 46 120 62 31 3 31 9 48 119 31 77 63 27 15 174 4 200 6 13 50 196 5 7 83 47 83 0 20 190 97 53 252 209 8 27 159 32 146 103 21 209 88 52 128 127 44 134 34 7 75 134 30 158 52 1 158 209 7 255 49 28 208 141 15 112 98 50 215 58 3 47 66 35 174 151 18 208 251 45 86 40 19 138 135 10 92 237 9 141 166 18 26 30 10 125 146 17 183 33 0 250 67 22 145 55 22 141 170 4 181 164 23 60 233 27 41 205 8 207 79 10 237 208 47 127 34 55 161 228 9 228 125 10 27 69 31 198 187 12 106 1 48 84 158 41 33 197 33 112 72 30 64 88 6 99 130 39 71 42 43 197 137 47 10 226 29 198 204 47 199 68 35 101 112 52 42 217 52 114 106 13 202 203 24 77 26 23 119 232 28 0 87 7 226 170 53 174 25 4 242 78 18 99 238 4 60 225 47 166 246 9 114 122 30 140 63 29 116 103 5 203 215 23 117 11 22 143 74 16 221 79 35 203 28 15 173 78 22 163 170 48 29 121 12 93 19 40 196 249 51 155 87 40 167 180 31 241 244 21 65 226 0 93 194 29 171 6 24 85 133 46 207 171 11 226 67 39 219 103 19 50 255 42 231 98 3 219 59 12 189 162 1 127 231 44 133 248 34 11 181 41 182 22 35 250 148 30 97 111 17 97 14 24 195 73 19 254 43 48 161 255 47 136 19 5 128 133 24 54 161 38 76 19 40 224 84 42 79 119 11 93 118 14 167 167 45 210 191 54 209 178 46 229 98 7 106 145 45 11 70 49 31 6 17 115 125 16 235 237 29 97 191 4 8 242 39 199 233 48 121 222 21 219 116 23 108 146 19 179 49 10 185 6 37 54 39 8 36 40 9 227 120 25 214 38 40 191 122 1 157 161 36 17 154 1 163 119 20 213 191 21 219 18 28 3 132 24 43 105 35 164 58 17 202 107 24 68 165 5 230 165 38 128 31 18 247 115 7 182 52 18 200 168 45 76 214 33 182 58 53 240 194 7 91 45 51 0 111 1 166 111 33 197 13 9 56 187 23 109 13 24 21 52 36 235 55 10 37 60 26 231 109 22 21 66 6 132 225 36 243 197 25 0 142 26 188 216 23 201 25 20 254 16 24 53 208 
37 113 221 53 223 159 50 33 82 30 3 96 17 200 110 2 86 35 22 46 156 39 71 78 45 88 109 26 40 162 4 5 194 19 165 7 28 247 52 23 87 118 39 197 60 38 232 246 4 133 176 36 211 38 12 65 101 28 227 163 34 165 21 39 172 249 14 225 188 21 87 161 50 148 136 27 138 56 32 58 62 19 96 114 28 197 238 7 104 194 20 126 191 33 119 193 18 52 104 33 213 6 13 93 251 15 149 181 1 211 88 17 70 128 47 52 124 23 247 184 13 182 216 5 119 156 17 223 13 22 229 95 27 224 9 17 149 70 12 238 14 34 110 15 47 234 113 6 163 152 20 123 39 11 23 53 2 37 186 7 132 115 31 141 1 12 212 236 34 226 109 41 241 194 11 98 92 14 250 43 1 34 241 33 87 109 30 17 96 50 132 50 16 133 233 52 113 128 22 223 173 47 161 199 34 253 80 28 41 196 38 26 218 45 136 108 38 232 21 50 27 227 31 4 53 17 133 21 40 50 201 41 249 95 54 74 231 15 14 209 42 232 181 10 84 188 26 105 25 37 76 136 34 130 122 47 151 242 17 97 219 34 192 163 28 167 12 50 120 114 3 46 2 39 234 172 41 3 222 45 139 248 47 6 46 7 248 104 16 211 39 40 118 24 0 130 2 24 244 55 30 246 121 16 162 164 36 128 36 31 121 13 37 167 66 45 15 250 24 54 73 30 78 249 16 80 105 21 135 129 35 1 18 54 165 208 14 201 121 31 214 37 38 25 92 13 19 154 43 92 207 33 85 216 2 190 86 33 64 87 50 82 76 0 34 55 49 155 197 40 192 212 17 29 91 52 183 138 0 134 199 13 94 59 35 181 252 51 12 14 53 88 168 32 143 66 43 85 130 12 41 140 9 132 108 16 14 101 22 214 113 21 17 217 42 13 150 46 28 17 22 196 205 5 6 218 50 137 10 27 21 214 24 129 98 22 230 11 44 87 107 53 48 81 11 198 150 55 215 144 51 164 150 49 127 244 18 137 226 39 95 36 8 193 144 14 204 128 53 55 126 37 137 83 51 31 56 3 176 43 55 70 58 22 59 13 32 29 231 31 65 73 17 209 193 37 81 185 13 208 152 6 35 205 21 91 51 45 135 94 52 193 97 7 207 9 52 182 47 29 255 223 7 192 239 32 122 192 32 18 93 35 223 50 23 18 144 22 113 14 55 210 59 6 219 175 52 11 94 52 234 42 20 217 56 6 153 23 24 247 71 0 41 72 26 186 107 43 200 234 54 3 240 41 179 184 28 17 78 47 60 155 0 116 231 34 139 243 41 210 122 50 26 18 12 134 138 44 112 21 
8 97 16 43 25 222 36 103 136 32 2 60 12 233 219 15 221 84 42 87 102 12 105 111 2 244 161 51 9 142 36 25 66 53 248 250 28 128 101 23 188 226 8 152 154 29 236 199 36 82 126 54 193 8 10 98 173 3 240 215 28 51 114 4 45 110 12 147 131 33 117 0 17 15 127 21 214 231 47 85 45 40 93 201 18 10 207 27 226 201 6 84 204 51 195 233 46 70 253 43 70 146 3 197 227 9 173 204 30 218 161 12 163 200 6 115 176 40 60 250 13 9 53 40 242 163 22 239 63 13 129 109 50 100 17 55 48 196 17 209 77 13 153 44 40 73 104 52 68 174 37 121 215 23 29 84 55 92 148 32 201 26 45 218 231 37 158 122 15 236 185 40 24 211 50 128 144 38 46 192 55 5 44 52 89 162 8 237 9 26 8 96 20 239 57 51 105 118 55 35 227 7 246 34 31 134 251 45 70 29 35 114 131 12 20 98 18 30 95 2 126 183 17 183 217 43 45 214 38 17 113 28 51 248 42 46 151 32 75 182 10 206 3 39 49 86 13 144 3 27 71 157 35 33 63 48 247 208 33 104 203 5 96 233 3 247 253 7 173 151 53 176 119 30 7 202 30 10 49 22 167 182 55 230 185 54 182 116 54 130 93 22 107 86 21 105 131 10 0 223 34 120 134 1 66 251 35 115 162 42 41 216 8 226 86 7 87 245 25 180 139 12 10 137 29 142 231 14 109 60 14 243 62 24 238 241 11 144 170 44 105 110 22 191 216 21 181 41 33 64 48 20 202 185 26 177 173 15 238 11 18 44 105 16 29 63 25 200 87 34 54 226 33 14 150 22 55 44 55 103 26 41 32 187 18 206 103 32 217 161 37 66 72 10 129 226 10 216 107 40 186 132 31 80 6 30 124 71 30 150 62 54 82 117 44 185 118 13 91 40 31 163 201 0 134 150 40 241 128 34 117 51 42 123 27 39 194 18 5 0 65 15 117 215 17 235 141 20 20 18 39 221 111 37 115 15 54 243 47 43 38 40 54 66 218 49 84 221 33 149 92 47 108 113 2 250 217 30 12 250 51 123 118 54 138 149 42 186 59 16 226 209 50 188 221 15 153 99 52 245 172 25 103 246 11 64 181 15 58 95 34 176 30 45 69 185 31 128 200 17 82 202 53 47 242 55 146 93 44 63 28 27 53 112 19 234 49 21 73 236 37 103 179 11 33 246 3 233 195 53 179 74 52 165 179 23 2 216 46 30 151 11 143 76 21 192 103 22 173 195 14 96 88 7 86 158 40 25 41 43 99 52 0 22 146 19 239 30 41 134 61 8 210 155 25 58 46 6 253 171 
22 85 114 21 243 160 46 28 239 2 81 39 16 227 18 15 1 162 14 63 53 24 218 231 50 9 39 39 180 40 13 38 214 48 198 229 45 181 74 6 220 200 9 238 170 50 145 163 25 198 138 52 173 248 53 213 57 25 253 179 16 212 43 54 185 248 4 3 184 48 203 149 15 118 195 32 25 212 30 163 231 12 156 56 49 213 100 14 136 153 10 179 131 43 171 147 38 100 105 50 249 245 24 189 94 33 145 181 20 120 157 24 177 75 45 21 167 46 175 216 25 50 7 21 197 9 41 46 197 42 36 131 47 130 13 49 55 13 41 212 38 18 31 227 32 199 59 23 159 105 33 166 31 46 176 136 4 117 157 8 248 22 50 6 137 17 19 184 53 58 121 37 29 179 44 88 157 27 193 157 42 224 76 26 105 45 39 6 211 15 29 168 21 166 160 9 94 27 11 216 204 16 139 82 24 40 247 50 198 99 26 18 110 19 64 32 34 19 130 15 187 89 29 92 41 27 119 254 43 67 231 22 149 10 47 140 74 13 239 227 23 94 61 39 126 119 27 1 27 38 90 197 42 131 140 17 130 249 21 105 196 34 116 104 39 190 150 22 161 237 36 222 10 43 86 58 36 113 169 54 54 44 2 194 107 52 187 5 45 127 23 33 231 108 32 126 86 49 107 205 40 118 52 54 176 248 15 89 59 53 134 127 55 241 30 50 246 64 49 13 228 1 121 241 7 208 115 2 157 179 0 209 148 8 202 84 50 5 106 24 133 241 41 163 174 55 227 45 45 199 103 54 184 33 46 43 194 20 222 225 21 115 107 7 199 108 45 50 28 42 35 38 13 210 182 0 255 55 23 103 175 47 136 52 35 74 50 25 43 1 44 150 109 44 2 170 22 31 178 33 69 191 19 252 81 19 51 134 42 226 158 10 22 125 20 73 20 7 74 215 45 183 121 8 97 141 55 19 105 52 210 119 24 35 169 12 169 172 38 71 175 53 196 25 38 217 11 8 176 71 55 41 174 16 183 172 12 32 172 14 152 203 10 65 47 11 237 144 43 157 36 31 182 154 8 194 39 9 9 253 42 184 29 1 100 244 10 16 45 34 219 121 35 10 151 32 154 217 29 190 197 28 89 248 46 128 239 47 126 192 55 155 65 27 144 235 43 189 77 46 54 207 17 205 233 35 167 68 2 108 140 51 100 114 51 83 14 41 19 108 13 84 211 21 64 243 42 141 118 0 92 10 21 69 120 20 137 241 8 21 5 52 135 215 48 149 2 11 1 173 40 213 215 32 200 156 45 62 241 1 72 3 46 193 75 47 178 96 4 183 29 4 142 69 33 144 210 35 62 178 
0 21 165 0 177 237 14 162 117 31 165 138 40 240 251 26 80 177 42 109 240 16 179 69 1 133 33 31 55 146 20 220 5 13 202 77 39 63 93 28 202 172 36 197 67 52 119 155 18 103 165 21 172 103 18 205 184 9 96 153 37 101 184 55 179 236 23 16 209 1 188 88 54 255 132 21 154 160 45 64 12 41 167 230 31 95 115 47 248 133 20 176 206 39 156 244 32 109 227 36 197 18 28 73 11 46 233 202 6 246 255 6 220 156 45 80 230 54 213 253 46 164 116 3 152 80 0 123 224 54 142 128 31 153 220 41 99 56 7 99 47 3 255 101 35 229 67 9 226 129 45 86 183 37 167 157 0 135 32 38 7 17 0 227 199 19 28 198 6 75 175 6 176 142 43 244 74 22 117 85 44 44 54 19 201 187 26 234 216 41 251 113 29 194 151 1 136 87 20 56 123 36 198 1 24 16 135 45 102 243 49 156 65 43 88 229 53 48 49 40 161 3 42 57 221 34 144 154 42 11 115 17 13 151 17 148 107 7 135 52 52 200 113 44 174 219 44 223 14 38 226 43 23 191 67 23 89 29 3 204 127 8 99 26 4 207 123 4 3 236 44 116 196 2 79 56 17 93 4 36 136 0 11 203 158 29 232 117 17 104 221 13 130 80 20 253 208 23 233 228 19 173 128 35 229 229 8 233 247 25 234 233 52 136 189 21 254 80 5 219 61 47 43 247 36 251 20 13 223 0 19 96 239 0 69 82 18 60 5 44 37 22 4 226 175 34 51 19 29 112 96 48 103 21 43 123 76 3 123 128 43 106 158 24 189 105 20 194 25 34 216 179 28 135 55 31 155 68 16 251 78 39 17 52 43 93 68 22 222 80 49 124 59 6 229 134 24 254 22 25 178 226 8 233 212 11 45 169 55 124 176 32 176 40 29 244 8 27 68 99 23 127 57 20 5 122 19 27 120 37 254 57 6 210 210 44 123 242 40 44 174 40 84 101 36 92 45 41 191 82 0 249 86 54 115 213 41 236 58 55 37 157 42 247 178 29 233 176 9 151 220 22 252 132 50 41 220 26 124 41 51 210 186 38 167 202 18 225 224 15 126 18 38 48 65 0 225 67 23 189 193 20 66 106 5 30 104 25 71 195 35 1 221 11 204 240 4 172 118 43 190 233 43 0 128 20 67 15 34 4 135 36 111 150 26 215 162 10 154 216 27 119 137 7 103 13 28 222 56 34 199 68 10 71 207 22 86 139 18 221 39 33 116 129 33 22 29 11 238 216 19 120 218 10 133 221 8 189 173 55 1 41 55 209 99 29 92 158 51 131 28 55 5 158 21 34 144 20 250 89 
52 212 188 25 178 151 30 95 218 31 136 250 0 235 226 20 137 17 16 165 150 5 68 249 7 212 208 10 45 190 6 233 154 24 129 238 15 91 199 7 85 93 3 55 244 28 72 93 18 223 33 6 216 105 10 169 182 7 103 38 32 1 144 25 239 206 36 182 191 2 19 14 33 7 230 2 100 169 49 134 245 41 239 231 50 166 29 25 204 39 26 92 94 49 42 127 47 233 32 50 248 29 34 222 111 38 135 248 12 124 202 44 100 123 26 129 5 30 169 55 42 7 209 36 134 107 38 167 245 22 196 52 4 51 135 19 43 225 7 246 159 43 113 228 21 118 24 6 174 242 29 127 152 28 234 154 27 223 198 31 20 220 42 155 234 5 124 214 51 27 73 29 255 57 35 23 140 9 9 97 32 161 223 43 59 101 18 2 113 38 222 36 49 201 155 45 159 69 49 233 26 16 34 230 48 174 35 41 16 214 11 239 56 54 84 24 24 197 227 15 233 142 16 132 76 7 201 166 16 228 123 26 202 108 49 237 93 25 195 101 24 251 118 37 20 41 18 247 24 52 133 8 0 210 215 26 120 111 54 243 167 48 96 199 21 189 10 24 34 251 52 152 252 48 194 236 15 218 49 13 226 60 47 186 48 31 41 168 18 208 234 18 152 16 7 162 0 1 157 221 42 153 126 52 133 26 46 183 202 16 243 113 18 35 158 28 203 157 4 182 20 52 198 127 54 199 73 43 164 209 44 34 122 26 60 188 33 6 192 4 120 158 15 22 95 26 180 217 32 200 125 47 71 242 14 145 254 26 98 173 37 220 248 41 153 221 0 89 71 0 248 104 22 87 124 34 48 179 3 174 181 50 160 110 19 158 237 21 75 51 50 68 29 51 33 42 20 104 116 28 208 196 19 76 140 28 255 106 10 180 253 50 34 88 48 15 250 28 66 46 48 96 195 25 138 53 41 254 64 41 194 165 45 78 1 52 185 181 32 182 153 19 14 43 26 8 93 29 54 45 21 250 73 15 47 169 38 112 42 16 21 19 47 22 204 40 203 209 30 100 213 44 143 142 52 236 105 27 26 83 45 99 128 4 13 13 52 55 37 25 75 59 48 23 19 3 233 58 40 190 26 31 76 176 36 181 84 46 9 1 49 137 228 22 151 193 30 188 205 33 247 74 24 10 219 25 69 131 40 95 247 20 16 207 26 100 54 51 101 138 12 73 248 43 10 202 31 216 168 30 34 190 25 253 31 6 129 152 13 120 249 5 71 25 10 125 134 23 8 168 17 0 211 19 202 135 19 115 211 29 49 218 43 81 217 52 233 226 44 226 48 19 252 221 16 130 155 32 42 189 
41 253 68 35 132 21 46 87 241 24 50 164 25 11 122 18 237 77 28 29 161 40 250 109 18 149 128 28 82 16 49 151 169 38 172 66 53 157 165 23 66 124 34 188 132 55 9 221 20 170 31 55 23 67 36 151 100 15 167 6 14 80 211 50 146 156 0 56 234 26 180 144 38 56 103 55 21 74 25 52 25 24 119 6 23 219 237 54 226 105 55 181 56 33 81 158 25 60 177 5 204 97 13 51 83 26 125 1 6 151 184 54 157 25 41 138 145 11 243 160 48 44 86 34 202 93 46 123 247 10 220 200 5 47 78 51 48 11 34 232 222 15 1 228 49 146 98 44 50 188 16 137 247 3 230 232 14 221 42 19 166 168 2 244 242 27 255 111 35 221 106 13 194 252 47 36 43 50 224 228 35 216 145 9 192 105 23 234 12 29 146 43 1 132 38 24 243 80 54 94 171 24 90 239 44 134 52 29 106 11 45 251 21 29 101 168 55 113 34 41 156 121 13 194 118 16 19 103 46 190 87 9 173 37 55 225 181 41 237 106 21 2 255 26 171 108 43 205 153 32 70 176 50 188 89 29 35 134 52 122 166 25 160 37 19 85 254 8 191 93 42 190 38 29 42 235 34 195 21 24 115 177 12 204 233 55 82 227 10 249 241 26 30 189 15 28 54 7 121 145 53 159 217 8 139 36 19 160 25 31 81 220 11 58 228 46 30 169 7 15 144 13 204 242 41 2 244 34 148 76 33 109 99 28 145 56 29 171 56 54 135 252 33 107 51 15 20 54 30 165 140 42 151 219 20 140 72 40 216 209 54 59 211 31 115 117 42 172 161 25 168 110 45 219 141 41 17 230 46 158 93 38 121 227 2 194 53 50 147 137 5 103 114 8 220 200 4 125 175 44 236 66 31 121 91 17 95 224 31 188 122 40 159 184 2 212 142 38 93 240 45 207 42 25 151 159 6 71 136 2 137 28 27 228 89 10 197 112 54 63 153 45 247 96 25 134 161 15 118 163 38 161 57 54 64 54 45 200 15 14 229 102 10 62 168 23 174 100 22 72 126 38 168 85 12 73 202 42 237 20 35 38 187 12 93 49 36 108 63 25 210 148 23 123 114 22 223 53 46 93 188 46 178 131 16 125 65 29 145 133 51 76 63 0 125 155 13 189 55 39 81 155 50 196 229 1 249 108 47 181 162 25 56 32 54 121 71 31 254 183 27 62 20 41 217 151 22 16 120 31 171 197 27 144 228 28 253 127 34 159 248 18 192 207 36 7 89 26 190 95 32 210 247 17 105 218 49 225 59 37 166 89 5 139 201 2 10 252 50 2 41 26 210 11 17 43 37 23 138 185 
17 129 76 50 92 28 36 151 198 2 241 127 45 186 228 55 182 218 50 223 204 20 234 94 15 16 176 17 201 9 19 21 32 31 50 9 22 248 92 31 119 144 1 92 106 32 54 208 7 2 63 18 97 177 26 17 245 51 27 100 49 59 94 35 69 217 43 161 176 18 49 30 30 155 126 52 107 151 15 171 103 24 92 23 17 82 177 28 182 91 8 20 206 13 237 87 38 157 18 47 188 197 26 58 240 22 209 118 17 57 51 21 80 242 23 1 18 38 92 67 26 42 144 48 130 24 45 148 229 17 90 83 3 74 242 37 192 44 30 243 210 22 229 35 15 247 209 19 59 208 45 203 134 39 227 81 12 200 9 14 27 94 24 13 112 0 57 187 52 12 216 9 47 46 49 0 212 36 209 123 23 87 126 18 168 172 34 177 91 13 16 159 50 128 61 35 59 37 31 20 206 23 66 106 31 23 235 8 146 100 8 17 24 24 189 151 50 24 249 18 184 35 42 245 104 13 27 186 25 233 70 20 83 221 35 62 164 13 163 108 30 187 4 19 83 244 44 76 141 20 112 215 17 216 49 12 147 11 21 217 32 8 182 74 55 91 182 26 199 57 53 203 78 32 192 117 37 77 88 45 36 84 53 85 8 0 96 178 17 128 118 24 202 36 27 128 36 42 185 99 45 8 69 21 125 227 42 213 211 38 42 16 19 50 189 19 228 67 4 91 91 14 127 77 15 163 245 8 7 248 40 76 194 13 47 87 27 3 173 29 19 79 39 209 22 44 20 49 55 111 173 22 188 169 49 177 111 24 169 182 13 107 183 12 195 191 39 112 69 19 191 160 52 213 37 24 7 220 31 180 120 52 93 111 37 204 229 15 131 255 26 58 31 29 249 140 5 62 41 37 222 200 50 3 123 33 224 255 21 88 151 2 200 159 47 173 99 42 172 216 52 204 247 5 88 130 12 129 207 10 74 141 6 197 10 46 197 92 6 92 182 38 251 195 52 94 46 40 55 101 52 46 31 21 176 19 38 128 0 32 13 44 6 23 55 51 115 69 39 41 51 51 237 121 1 27 136 8 128 68 15 159 172 7 178 225 39 178 110 4 223 124 11 22 213 23 91 243 16 142 214 53 7 21 24 143 80 32 211 234 31 128 186 17 97 185 12 207 105 51 75 152 17 32 213 44 19 40 50 233 239 49 255 224 1 79 189 52 57 182 4 244 46 21 173 70 28 22 15 16 175 139 16 132 230 36 172 87 53 156 35 52 124 125 12 57 223 45 239 208 33 30 148 47 100 217 37 115 126 12 255 243 48 229 179 45 61 147 9 96 135 53 222 101 22 189 65 54 141 109 
36 33 211 0 250 44 19 121 51 34 108 81 8 31 29 45 178 110 45 58 107 19 159 4 40 224 25 37 78 103 23 33 165 25 77 1 50 129 193 30 210 245 45 239 39 32 93 63 34 200 148 9 204 74 9 229 221 31 77 46 8 242 11 14 244 10 39 181 4 9 170 118 16 210 85 14 17 82 30 166 2 3 240 236 40 205 117 37 251 223 32 7 150 4 17 111 49 21 149 20 140 60 30 225 181 47 51 29 45 54 227 13 34 114 11 152 205 6 119 13 37 13 155 55 124 27 28 17 143 8 77 184 9 2 140 5 32 50 27 3 234 37 117 71 45 66 149 4 80 176 2 235 198 14 6 228 0 149 19 53 77 87 16 218 40 40 12 217 43 246 190 9 62 217 27 211 23 35 131 236 30 73 57 12 45 147 1 64 105 15 152 81 17 192 135 37 153 191 36 88 23 2 49 114 5 72 67 8 53 87 49 110 186 47 1 9 31 106 93 15 188 71 7 67 126 41 2 143 25 25 172 50 139 192 19 207 18 0 38 55 14 224 223 31 233 209 25 71 240 21 142 79 16 12 71 42 155 254 11 71 79 7 8 248 38 26 211 20 82 246 28 49 78 22 2 20 13 242 219 43 66 12 55 137 250 26 135 42 17 215 93 41 207 168 12 162 127 30 152 37 23 230 241 34 250 158 28 213 52 38 226 17 7 220 124 39 6 243 38 99 5 37 12 94 8 139 192 48 177 60 47 162 10 17 64 9 31 116 11 1 133 0 29 1 54 51 244 246 23 249 61 11 88 91 6 24 72 47 84 216 26 94 1 42 103 16 7 115 25 28 115 248 22 169 185 2 159 86 20 220 250 36 55 1 36 128 20 16 88 178 46 89 2 53 105 244 40 131 38 51 123 205 53 53 250 36 139 40 25 133 74 16 134 102 32 154 218 25 77 102 50 79 70 36 67 132 7 105 42 50 55 66 55 49 206 19 89 3 8 163 215 15 10 136 9 228 113 22 75 217 45 145 154 32 22 181 26 64 57 1 130 64 2 80 194 19 83 122 14 43 189 16 179 133 21 36 212 32 254 190 25 152 244 55 77 122 39 134 66 42 198 116 42 137 221 22 3 119 17 192 106 52 69 1 17 26 161 55 216 38 23 204 246 13 70 88 43 137 207 26 253 135 35 219 193 14 82 75 54 189 41 3 190 50 5 95 239 13 134 208 34 124 175 32 212 38 49 164 235 55 43 55 34 236 73 4 55 228 9 97 130 23 147 224 15 130 131 21 82 65 1 1 214 22 40 56 10 19 225 21 74 18 25 147 65 8 119 75 17 249 168 29 217 193 39 93 153 50 158 208 
43 116 141 27 173 198 31 142 212 9 160 134 5 226 99 20 45 44 14 213 45 39 151 142 28 48 131 10 0 251 15 141 197 4 83 144 10 40 132 50 174 139 52 18 220 10 62 193 23 107 30 30 250 116 54 125 163 54 120 48 51 61 90 15 206 249 23 82 69 29 221 31 39 185 154 22 123 246 41 153 128 43 13 224 1 176 214 49 224 253 55 59 35 5 52 215 39 122 222 4 153 13 21 51 234 40 42 218 49 170 8 22 138 161 39 97 53 39 94 70 10 129 207 47 88 150 1 54 43 34 67 18 54 46 214 16 8 84 10 16 76 21 177 222 46 230 124 28 44 203 21 252 251 6 146 101 12 190 4 48 208 29 14 167 208 6 251 182 30 71 198 15 37 128 46 162 197 10 109 107 54 104 111 9 206 245 15 210 211 15 240 231 54 192 63 9 118 197 49 60 83 38 188 241 0 130 65 54 237 119 30 93 217 52 82 56 39 37 41 47 12 216 55 76 87 29 17 126 41 101 159 29 86 8 15 151 151 45 14 199 42 232 101 28 32 108 25 73 64 13 33 231 1 120 126 3 246 213 48 150 162 14 158 171 54 53 113 44 253 184 52 98 237 4 206 127 21 15 99 6 246 108 15 117 130 45 74 227 19 237 86 2 152 46 15 9 93 28 194 35 55 175 247 53 47 180 20 146 144 19 255 182 0 129 252 26 100 187 31 187 113 40 233 188 9 70 166 27 105 198 35 97 226 34 21 97 52 165 175 11 91 11 12 88 94 41 19 38 44 132 57 13 65 56 4 231 208 13 173 114 14 144 213 19 241 232 17 160 42 28 172 255 44 10 210 0 49 39 4 106 224 37 162 84 13 115 177 18 229 85 10 186 99 44 163 209 28 205 85 16 204 126 11 159 2 36 198 223 38 166 207 16 250 67 43 171 249 24 1 150 3 100 224 14 53 187 3 138 135 40 8 243 7 11 12 29 234 47 35 185 131 53 252 65 24 245 161 9 139 117 45 108 45 51 39 160 29 174 182 38 161 154 49 173 74 51 220 153 12 95 174 48 160 105 30 66 30 9 183 126 45 228 224 12 133 165 18 59 160 52 213 38 41 31 180 14 184 77 45 102 208 30 207 12 0 237 68 39 108 114 27 76 44 16 241 81 28 146 158 9 184 152 17 108 52 41 185 126 40 137 164 7 149 41 37 217 79 9 76 183 45 120 214 38 201 218 8 103 98 40 0 38 4 52 192 29 178 121 14 86 234 51 128 194 21 207 106 9 135 255 9 93 0 50 55 77 34 154 139 18 192 92 22 128 228 49 249 217 55 228 134 55 166 189 39 16 136 46 15 45 
27 15 30 27 92 135 5 232 186 53 68 84 30 40 238 47 1 188 3 136 61 10 69 21 18 205 108 34 251 147 9 25 65 30 161 77 38 91 144 10 175 109 26 157 10 52 89 40 44 151 64 1 172 59 14 24 221 9 172 144 3 237 82 36 58 35 31 202 81 46 55 103 3 66 193 20 106 68 35 170 200 15 230 212 48 195 37 28 83 67 1 165 93 52 201 144 6 26 100 14 130 147 24 67 113 42 135 236 29 79 192 43 35 44 38 72 67 18 140 115 39 233 79 16 121 25 3 221 29 53 112 235 48 225 241 16 205 57 47 141 236 19 185 73 27 253 140 47 112 146 16 192 236 33 217 236 22 246 180 54 225 151 7 211 252 52 12 165 26 248 213 3 65 84 0 205 247 49 96 227 25 76 90 10 56 187 0 237 148 1 132 75 52 129 113 25 38 121 17 251 77 27 79 175 0 71 203 16 42 227 53 132 108 5 63 181 42 212 215 55 31 239 0 144 233 6 9 181 33 87 142 0 6 96 23 209 115 1 181 83 38 33 148 37 215 33 1 174 230 48 158 153 25 135 208 34 60 136 17 203 102 24 43 63 17 158 103 38 241 215 24 133 112 39 166 142 37 141 236 3 38 29 50 246 110 47 126 79 34 228 57 37 35 123 3 138 195 52 97 220 50 210 171 48 96 155 21 76 98 11 106 215 1 216 235 47 39 133 43 96 92 38 219 254 1 158 203 10 123 54 12 38 147 29 193 117 25 35 253 3 250 19 51 229 78 10 107 128 43 199 47 38 198 195 5 145 121 0 200 186 46 91 93 55 208 209 50 205 166 52 224 200 26 47 83 45 175 183 4 222 65 34 161 44 44 27 243 4 213 88 55 50 56 31 4 62 12 170 5 45 114 239 12 198 211 27 125 157 9 190 210 19 235 207 6 222 145 27 54 229 6 110 1 10 172 120 12 177 191 7 160 212 13 115 201 34 17 237 40 227 192 19 178 113 49 68 196 23 41 50 37 43 118 9 163 236 50 99 102 42 55 138 38 0 33 31 237 126 42 173 88 45 30 241 33 227 116 34 21 214 21 139 109 9 119 115 12 221 36 43 104 135 3 137 137 32 8 255 13 96 134 51 81 241 30 198 14 4 156 111 31 9 249 31 124 175 12 161 8 44 40 196 22 177 183 54 177 170 6 55 138 16 40 23 6 54 194 10 165 81 51 159 245 24 78 36 49 86 203 9 26 80 2 209 60 19 123 178 11 5 48 43 28 15 50 222 63 7 47 53 46 36 199 4 73 98 2 20 122 36 100 51 37 161 20 32 83 167 13 132 234 1 147 101 24 210 9 39 7 227 
20 206 98 13 48 129 33 171 237 38 222 176 55 243 140 50 154 58 6 132 98 41 234 144 43 243 217 34 214 1 8 56 89 1 185 213 36 167 154 34 87 115 45 227 177 31 29 144 52 128 195 6 16 121 49 233 195 47 235 222 23 68 1 25 25 241 24 179 18 55 38 222 10 216 137 24 104 38 16 43 94 0 165 26 1 104 192 20 70 89 48 71 200 9 57 111 28 75 208 11 42 216 51 179 55 35 217 122 55 55 218 4 81 186 20 17 170 50 106 131 2 50 72 51 162 80 14 114 114 0 75 70 51 130 65 5 252 20 44 214 80 54 144 183 39 58 195 34 190 55 28 6 241 46 86 243 41 200 46 36 15 181 14 80 101 27 101 201 41 181 6 18 108 122 36 47 64 2 102 24 32 87 90 7 75 206 15 121 229 46 46 110 39 148 66 12 93 152 1 99 235 45 221 21 20 30 207 18 54 195 1 144 118 28 94 46 22 67 61 12 177 21 8 243 251 21 140 50 40 119 206 38 140 31 52 91 220 26 31 200 34 149 26 48 195 196 20 1 184 13 22 38 25 17 195 53 68 243 52 18 129 41 50 113 4 14 63 19 215 43 8 241 77 12 181 255 53 110 16 35 148 100 28 87 105 48 75 98 3 204 231 21 61 228 19 125 109 18 168 81 20 246 85 9 245 237 55 5 73 28 105 166 19 211 25 38 53 158 50 29 102 24 1 65 53 110 78 5 191 106 43 20 92 49 2 64 38 75 218 48 242 225 3 11 125 40 169 113 29 16 175 22 81 186 44 160 2 44 10 199 24 102 52 18 167 152 14 129 241 48 98 79 27 224 23 21 81 178 37 0 131 46 186 112 30 188 95 16 131 187 23 184 215 54 80 8 7 65 58 17 144 184 33 168 40 42 90 164 11 221 201 5 78 254 34 173 132 5 104 171 53 64 219 37 72 114 46 130 176 7 59 111 47 99 145 33 7 146 15 208 229 37 206 56 34 83 69 26 254 15 26 217 93 2 76 98 53 252 184 0 108 78 43 253 117 11 143 68 35 116 110 2 172 117 53 242 202 19 1 204 44 94 54 8 193 225 21 121 211 17 199 72 14 61 248 13 129 12 18 239 39 22 100 18 32 46 204 10 250 217 0 49 228 33 18 201 42 229 249 34 46 38 39 38 191 48 50 85 0 89 123 28 108 21 3 56 91 13 18 148 30 246 206 8 191 102 30 185 192 12 223 146 34 159 44 45 244 3 6 111 92 42 132 164 11 224 80 21 116 43 19 66 1 51 168 7 52 104 32 27 251 30 10 39 74 7 43 156 22 135 33 43 43 0 35 123 74 47 167 205 
1 168 98 25 175 238 26 207 57 29 237 61 52 55 32 7 212 163 14 245 26 25 245 0 29 64 107 28 13 182 4 112 117 3 94 118 3 151 32 8 212 50 40 244 63 36 151 115 41 177 211 31 178 185 7 29 203 20 212 88 4 73 140 50 192 104 9 224 243 45 18 78 18 81 151 17 196 23 11 151 107 5 81 180 42 28 243 30 116 114 0 0 255 8 104 251 8 91 86 42 170 71 35 65 13 39 88 199 7 195 24 32 119 27 44 107 208 0 221 163 40 220 73 40 216 57 43 46 233 13 117 121 38 130 27 46 73 14 17 98 198 17 125 21 36 78 181 9 241 113 54 58 161 22 116 209 28 93 105 41 215 92 52 242 250 29 1 216 7 199 15 37 220 8 11 145 121 12 2 85 54 163 15 26 116 165 32 221 19 7 57 175 49 51 192 26 12 84 17 27 50 13 35 113 6 157 46 24 242 57 11 1 53 31 166 108 12 185 22 54 104 30 1 41 253 29 125 207 16 175 161 36 33 59 49 79 176 3 137 183 37 190 191 3 42 107 37 65 138 53 95 135 22 93 189 52 44 38 27 205 156 44 8 44 36 185 224 13 112 49 43 47 117 14 154 186 47 37 165 46 172 74 3 105 88 23 143 142 5 43 66 5 88 166 38 56 42 54 106 254 6 223 91 16 153 119 45 62 189 49 137 68 10 225 42 42 111 110 45 178 221 53 88 26 14 130 96 32 129 94 15 220 205 24 83 107 6 16 163 39 84 1 48 127 10 0 237 125 42 202 127 34 229 172 4 69 50 13 163 240 50 112 24 13 219 31 46 127 191 50 128 157 33 138 5 38 7 77 17 134 5 46 51 111 3 101 49 38 85 118 23 109 59 2 140 221 33 75 211 9 232 217 44 237 51 11 59 13 18 64 211 53 176 100 18 225 218 23 87 149 12 147 244 32 112 195 19 67 109 35 28 151 33 80 64 20 93 116 52 48 176 28 149 114 14 111 103 21 5 193 8 249 112 25 188 140 28 41 52 33 192 39 17 1 2 30 117 203 6 37 207 35 151 20 51 254 8 24 191 222 25 47 12 45 187 204 30 239 253 39 22 114 0 25 3 37 228 228 35 180 34 10 200 144 17 208 148 0 175 7 24 187 127 43 135 240 35 133 29 25 247 115 10 250 138 7 222 162 35 0 48 3 144 227 27 36 45 50 43 118 45 170 127 37 154 183 10 183 170 1 43 141 19 181 135 33 88 153 17 136 144 17 107 59 30 152 174 1 15 242 44 142 228 54 69 146 46 239 199 9 125 129 22 4 50 54 157 221 6 46 102 33 105 239 10 24 8 33 10 70 
31 238 176 4 128 196 3 71 114 24 200 216 36 250 105 18 215 176 32 61 78 41 44 117 49 53 6 27 123 48 10 43 105 42 239 48 18 98 60 34 58 56 5 164 176 20 84 45 10 162 71 46 23 143 19 30 64 15 78 10 34 184 221 34 232 159 44 37 226 38 93 108 50 13 190 22 58 11 17 129 48 0 16 146 6 81 32 13 91 228 53 56 35 29 216 141 2 186 231 55 38 163 21 228 154 15 240 52 17 32 35 25 178 180 26 210 92 29 182 35 30 217 56 38 103 5 40 78 186 38 242 149 50 140 204 42 192 17 34 227 145 44 151 146 7 244 163 37 23 6 55 79 195 46 84 185 4 14 135 30 163 15 34 112 189 51 129 80 30 18 210 6 164 117 34 72 201 17 78 240 16 17 206 36 203 133 10 82 163 38 98 15 46 31 110 55 111 88 26 66 3 54 183 146 30 128 184 44 113 210 46 63 3 17 196 131 43 103 87 45 118 57 37 228 191 36 61 181 30 64 45 37 210 183 30 138 229 15 92 92 30 95 32 42 226 246 1 57 151 47 115 139 4 50 224 1 232 85 1 21 58 12 204 96 6 177 62 19 13 156 50 46 107 5 36 121 30 188 75 25 71 132 36 39 51 28 125 199 25 183 152 21 23 170 46 85 142 44 241 252 2 92 199 6 213 242 2 32 255 49 164 69 49 216 255 54 159 235 13 56 191 28 226 168 34 112 93 35 108 195 32 52 55 37 38 217 54 37 160 10 106 34 50 105 236 26 84 221 34 19 75 4 187 112 20 24 172 40 220 62 44 19 194 50 237 162 23 141 87 34 175 45 51 155 168 40 120 250 43 195 236 39 51 22 7 224 34 51 30 158 15 224 135 28 130 163 49 218 230 0 7 77 12 175 31 4 170 91 32 150 235 19 173 142 11 207 237 26 110 101 26 245 184 5 152 31 7 126 115 6 204 84 22 235 229 8 70 17 30 49 181 11 192 29 11 173 185 17 18 52 30 203 206 22 234 73 29 94 70 33 178 29 36 151 251 51 168 137 44 94 193 4 123 144 10 52 11 12 105 86 31 55 15 2 128 189 16 198 4 10 227 201 2 223 90 42 104 214 8 42 153 28 186 142 40 197 66 9 28 164 17 43 25 49 233 88 40 237 130 35 182 10 26 16 69 35 230 23 53 128 145 39 14 106 20 80 190 32 245 70 36 14 56 5 102 97 18 233 10 16 243 122 8 56 206 38 79 0 6 225 155 12 75 96 29 9 223 26 79 36 24 135 132 30 232 16 31 243 133 27 109 231 11 59 255 3 60 39 12 215 54 31 56 196 8 23 97 47 59 78 
31 192 48 47 208 32 34 86 118 40 61 182 19 61 233 7 100 84 55 154 15 47 95 171 46 192 146 34 14 130 26 62 194 2 94 137 8 212 56 22 138 219 27 115 235 31 200 54 18 215 190 17 131 29 1 21 180 23 152 98 53 90 76 3 227 246 55 27 113 18 246 65 29 225 79 13 24 154 5 214 74 24 243 148 5 167 61 37 9 166 39 86 29 18 76 210 30 189 229 12 255 204 46 78 62 22 233 36 20 51 209 47 199 86 14 4 94 31 170 124 37 199 49 42 153 65 31 126 51 14 74 65 53 137 70 46 173 44 9 126 42 32 213 254 4 51 197 22 175 51 53 225 170 54 34 120 52 85 146 6 151 105 15 221 64 52 9 101 3 51 115 0 49 180 35 246 188 43 41 200 4 211 126 14 75 251 3 221 17 18 71 165 39 135 131 0 236 235 19 95 255 44 19 146 26 207 250 3 151 150 23 21 225 10 16 13 48 33 91 39 198 254 14 73 57 10 52 80 41 52 113 4 198 196 3 193 73 10 87 195 47 56 103 39 69 222 40 160 160 30 158 64 31 215 39 28 40 149 16 153 239 38 93 168 55 166 116 14 106 15 14 209 65 3 175 136 19 79 223 42 144 87 41 183 149 33 77 29 26 60 217 0 229 201 38 89 127 0 105 247 41 170 197 16 51 204 48 18 23 0 106 3 7 255 141 28 28 238 17 245 120 22 190 154 7 62 26 32 53 65 3 250 209 54 198 51 8 222 67 18 225 163 18 110 147 46 92 59 36 212 47 26 111 96 16 137 118 29 202 230 0 156 190 22 207 65 4 18 247 45 182 192 51 73 242 32 132 36 4 180 115 11 20 183 53 139 185 39 113 250 27 47 111 42 113 223 5 104 22 27 40 42 28 27 32 25 63 131 21 178 67 41 105 216 12 35 219 53 29 104 37 140 192 54 108 179 30 130 118 15 172 75 26 204 214 49 80 170 52 147 3 21 107 16 40 71 50 13 175 222 50 111 252 38 35 73 0 153 7 20 228 45 33 186 124 49 100 230 52 104 144 48 120 236 47 170 177 14 137 154 6 133 159 17 206 49 34 213 47 6 2 175 0 127 220 44 101 213 20 245 30 37 225 250 31 147 66 48 45 209 53 204 16 43 254 190 40 45 143 51 221 249 42 185 71 39 142 79 37 172 187 30 166 144 9 233 221 14 186 212 3 202 85 9 136 90 54 23 46 27 16 214 28 87 129 50 166 171 14 98 59 13 242 192 22 207 38 32 163 32 27 248 70 27 83 57 19 129 42 51 87 73 43 217 68 9 132 249 19 191 59 37 127 42 44 166 191 0 198 61 
8 12 117 51 70 120 20 112 4 36 185 167 53 254 90 25 247 101 49 50 23 8 92 42 54 27 48 44 88 4 17 206 124 31 70 237 55 74 176 41 241 245 31 76 145 38 177 6 24 200 255 37 243 184 0 35 241 33 39 207 55 164 116 37 145 37 48 65 28 49 54 131 21 199 164 23 205 195 31 205 217 10 133 34 53 118 199 37 70 135 25 186 160 42 223 135 27 251 181 26 126 45 17 35 150 55 230 76 52 192 179 25 226 226 0 169 5 14 48 74 40 209 183 23 88 200 50 13 106 8 58 78 35 209 104 50 29 73 18 208 248 20 178 116 37 183 118 53 2 238 14 185 172 7 130 36 20 236 123 47 58 205 40 162 157 29 236 145 37 228 107 23 89 5 31 207 129 9 189 166 10 105 251 4 141 34 17 8 161 19 213 45 6 114 244 26 3 140 30 110 65 31 115 198 54 244 254 27 154 237 4 150 222 1 184 136 49 89 181 6 134 206 33 123 33 36 7 23 27 73 249 46 15 192 3 13 223 5 250 206 19 216 121 3 97 142 20 22 47 3 228 217 14 5 87 21 29 72 38 22 61 30 214 160 3 182 118 6 132 65 30 253 167 15 139 162 37 187 86 41 148 98 31 235 245 12 52 3 10 113 25 41 17 119 23 135 229 11 201 97 16 112 215 28 18 37 7 104 213 27 203 154 38 192 68 34 196 243 35 221 191 12 84 161 36 58 90 29 155 201 5 114 188 15 151 173 32 108 41 51 7 96 27 75 43 7 62 225 12 253 204 49 158 39 35 249 148 14 194 136 48 127 69 55 44 114 20 85 177 19 181 89 54 224 204 12 193 0 1 141 247 31 181 204 32 73 245 11 209 88 34 22 86 22 136 198 11 57 205 40 147 65 32 95 188 25 95 130 55 87 134 28 35 135 13 24 39 46 112 191 12 198 26 28 140 244 53 89 250 48 155 85 48 87 101 39 218 85 14 96 7 25 232 70 9 15 58 41 206 119 7 233 133 51 221 169 5 216 85 0 45 58 23 147 179 33 232 139 10 239 194 26 53 81 25 111 2 39 230 204 24 107 5 14 20 5 54 105 144 43 164 117 22 87 245 7 226 205 46 164 126 4 245 144 43 248 138 10 196 147 45 201 107 10 206 43 11 95 201 47 212 63 22 202 227 40 151 25 29 21 56 42 166 71 34 48 139 30 196 62 0 47 216 46 90 222 13 36 248 2 99 123 12 70 163 51 96 33 24 152 130 38 223 135 23 106 129 11 169 116 34 129 42 12 95 170 16 87 249 4 211 166 26 118 40 10 151 116 3 25 87 50 160 80 13 34 238 6 150 189 
47 192 80 47 107 18 22 100 47 17 10 111 47 51 19 7 167 254 24 255 72 41 79 43 43 61 238 49 251 27 49 75 241 12 94 72 0 141 255 51 252 14 30 16 239 29 14 71 44 86 54 27 130 62 17 112 231 4 139 178 15 124 19 53 196 53 18 196 193 23 210 178 15 193 173 21 8 219 19 62 176 13 125 133 53 100 168 24 23 9 28 42 101 17 95 13 45 33 18 39 211 165 0 128 52 17 91 211 23 11 128 44 144 131 49 57 9 8 66 254 26 168 127 42 181 123 35 199 60 22 108 193 38 160 24 41 115 49 4 243 82 29 119 177 14 128 142 48 126 207 48 253 39 29 121 169 29 181 139 49 119 142 42 143 100 53 192 186 17 18 107 48 196 40 48 82 117 14 33 251 28 72 195 45 241 52 26 125 89 1 11 70 25 112 160 25 42 154 4 150 7 0 190 104 2 51 64 27 46 152 27 241 111 44 37 67 33 127 144 45 197 146 13 101 12 31 255 21 13 7 222 35 111 186 54 176 90 12 72 76 30 183 95 11 250 186 42 138 7 40 29 208 37 41 165 5 62 234 52 28 90 27 215 95 3 49 35 28 126 25 19 221 62 14 152 84 16 159 143 37 111 74 6 21 202 4 255 175 1 89 148 40 185 128 25 220 220 39 245 231 37 51 59 5 135 71 28 23 77 43 97 221 8 43 139 32 218 97 33 111 118 26 239 167 30 203 175 28 179 232 7 238 160 7 53 53 54 130 98 47 96 46 26 235 105 28 76 186 43 194 10 35 105 179 46 24 22 9 1 84 8 161 136 29 214 240 48 56 223 8 102 229 27 207 76 15 137 222 18 147 74 35 71 38 36 93 241 45 177 135 14 58 209 52 42 9 52 9 118 26 238 102 1 58 182 3 24 241 14 98 121 29 136 195 2 121 118 4 1 66 46 210 15 24 219 125 1 81 193 15 184 61 41 110 31 49 96 209 11 217 12 12 156 218 29 18 240 38 85 98 48 100 134 51 226 228 37 163 108 21 225 253 27 0 124 11 209 53 44 221 6 32 184 58 35 168 246 8 10 43 44 145 98 22 117 106 34 226 78 3 223 131 27 92 112 21 145 203 2 152 135 26 210 27 10 200 76 53 243 143 46 85 39 19 192 35 13 14 2 53 145 132 41 1 231 2 204 74 2 83 127 36 111 146 44 187 92 16 74 207 13 113 76 29 148 90 43 150 221 36 26 67 13 1 136 2 76 41 53 203 91 4 93 38 23 186 194 49 137 39 2 213 127 39 47 44 53 12 154 40 79 21 25 215 34 53 0 47 33 92 9 46 130 55 8 68 211 41 107 43 
30 234 204 29 23 223 50 177 134 1 198 195 49 232 27 9 24 117 37 33 26 7 88 139 52 44 90 23 87 226 2 35 244 17 2 218 26 136 240 16 76 18 9 103 131 1 220 204 50 247 22 43 130 187 39 220 227 30 191 79 9 179 38 36 141 232 4 125 193 8 143 75 32 19 156 4 223 213 3 245 38 6 177 152 26 148 99 49 227 90 28 9 168 10 242 26 47 179 142 23 255 138 50 155 211 49 112 131 31 150 15 0 46 147 36 146 153 47 236 123 16 149 29 42 175 113 14 61 83 13 199 179 0 154 162 24 29 164 14 45 133 36 192 92 6 89 228 43 212 0 40 241 255 31 99 8 12 182 2 51 105 176 22 11 93 35 175 165 24 53 93 24 145 171 33 118 40 54 118 54 7 118 49 18 126 193 25 128 0 34 49 124 54 142 192 45 52 158 18 145 153 28 61 194 34 101 170 40 155 236 38 205 2 4 142 9 5 143 116 38 11 149 4 203 31 0 105 181 34 3 251 23 197 117 44 111 129 15 91 3 12 93 252 43 103 106 26 219 87 13 112 196 17 143 98 42 69 142 37 64 239 42 181 225 50 55 16 53 58 164 35 54 211 42 161 208 37 248 91 29 188 117 52 30 154 33 172 139 1 155 230 47 124 67 38 140 102 40 48 248 7 4 229 16 212 48 32 47 226 44 164 111 34 62 108 46 202 249 26 176 202 46 243 220 35 89 163 43 81 161 47 55 217 27 103 72 42 74 88 30 185 96 21 38 36 55 31 6 7 233 149 26 197 191 12 104 101 29 9 152 28 227 252 4 43 99 38 132 159 55 228 9 37 9 24 12 15 101 22 164 124 27 99 67 4 201 253 29 97 17 48 93 119 36 193 19 8 96 23 12 105 101 45 129 109 45 230 154 25 98 231 45 165 29 46 163 24 39 180 124 21 43 234 54 63 58 38 86 182 55 188 182 41 41 155 15 195 136 2 170 133 23 199 39 34 224 44 47 92 250 34 70 41 33 129 182 40 55 4 4 238 178 21 137 202 32 17 99 35 151 226 34 190 196 2 234 76 55 228 118 37 13 85 38 196 96 38 200 169 44 123 73 53 69 165 38 168 42 45 138 115 43 79 102 45 155 32 1 17 187 7 103 178 35 199 239 3 112 174 30 186 164 43 95 136 43 138 245 46 253 115 21 99 137 48 131 92 9 62 26 32 240 187 39 224 106 8 142 221 18 50 25 1 186 207 35 175 203 0 34 110 51 171 156 15 8 25 5 34 49 22 221 91 30 72 235 52 37 67 14 62 11 16 14 141 23 217 110 49 71 218 13 228 66 37 253 14 31 47 93 
36 138 234 44 117 104 34 184 198 48 195 178 6 80 208 47 191 168 31 153 47 3 219 217 40 233 46 47 70 139 33 49 10 31 153 102 23 96 11 43 18 213 51 227 221 34 139 244 43 187 227 47 148 26 40 194 53 23 77 78 16 87 149 9 189 103 49 200 174 28 157 173 47 123 112 18 111 132 37 82 86 41 109 194 51 162 9 40 240 57 31 134 176 53 237 88 29 155 154 27 72 59 6 185 239 29 61 134 15 147 169 36 85 134 39 94 248 47 152 43 13 72 172 50 161 131 53 59 24 14 118 118 15 102 113 36 236 231 55 149 204 45 28 3 51 20 168 43 63 239 28 235 38 53 111 228 24 135 142 6 253 212 12 110 98 1 85 169 22 33 45 10 37 68 22 205 177 38 188 125 25 226 224 16 198 140 8 85 217 53 41 97 28 139 96 33 52 196 43 97 21 40 165 252 5 87 254 1 212 21 51 180 107 10 65 172 55 26 93 16 124 149 43 220 202 23 160 110 8 182 104 21 178 131 52 176 195 40 197 208 53 48 153 22 221 68 40 58 182 4 207 125 48 153 109 25 8 232 23 112 151 33 243 167 9 182 93 31 134 105 7 31 74 36 99 223 46 26 181 45 151 165 31 5 18 31 237 90 7 133 67 42 44 226 24 137 51 22 243 53 53 61 252 40 28 243 34 209 200 50 118 214 55 136 180 20 227 43 1 38 170 30 9 153 15 60 123 50 113 19 7 109 49 51 97 110 20 41 14 11 255 201 27 179 27 30 222 114 21 136 182 46 33 128 10 156 118 36 175 245 25 224 104 26 78 23 19 93 227 35 38 127 46 65 146 45 179 46 45 105 172 39 233 81 43 95 255 35 85 234 35 189 70 42 212 15 23 183 58 29 55 141 22 201 224 41 247 231 10 164 204 28 245 57 51 245 200 40 223 244 29 37 207 10 52 138 17 110 148 16 252 251 18 220 136 17 195 86 5 143 215 27 201 194 32 145 150 55 133 201 36 84 82 8 223 151 15 115 177 3 111 131 31 247 139 51 78 93 34 37 39 11 231 148 21 125 247 34 71 79 15 153 134 14 48 226 25 226 115 16 101 114 16 240 109 30 78 68 11 117 223 43 9 10 40 1 253 7 80 130 32 215 141 41 185 236 27 44 42 40 158 219 8 11 252 22 80 20 11 47 122 37 57 5 14 55 120 30 185 105 53 70 160 7 50 113 11 92 114 26 56 85 37 52 157 21 72 213 29 194 92 6 199 87 37 64 92 55 169 98 21 73 185 40 186 230 4 44 205 12 129 225 24 30 147 24 244 80 2 80 94 50 167 155 18 4 17 11 102 191 
