P3
 200 100
255
250 29 135 72 154 199 17 241 40 153 44 42 134 255 115 127 27 37 112 72 112 40 87 247 98 94 9 149 158 198 179 38 63 77 237 57 62 21 129 107 63 147 106 179 44 133 216 178 205 72 50 37 63 162 131 73 202 34 15 44 72 79 193 53 136 116 74 10 193 138 157 0 61 201 107 21 124 213 93 174 91 157 80 40 230 26 77 245 70 209 68 7 243 205 124 59 215 61 112 116 61 186 61 168 68 185 126 129 103 217 150 183 1 244 209 79 145 23 32 119 31 19 108 155 78 177 216 190 126 22 120 85 190 189 201 60 62 6 21 213 192 23 201 39 102 90 223 134 209 176 153 61 200 231 238 231 165 108 130 29 193 90 218 138 112 25 145 47 238 81 107 183 120 129 17 87 152 226 8 254 31 208 132 14 183 29 122 57 4 60 147 169 198 4 198 87 51 161 168 158 186 33 31 168 120 183 95 128 181 112 80 57 82 7 86 113 64 90 127 212 3 250 216 202 54 11 107 252 169 37 84 201 205 252 128 44 29 54 156 150 111 238 22 198 95 103 32 223 110 36 217 175 238 15 131 89 11 91 126 95 102 75 92 15 119 121 216 19 15 89 1 38 143 96 141 254 63 251 196 24 170 229 39 45 9 51 136 247 146 238 80 238 254 206 104 214 25 119 47 144 157 190 163 42 189 164 38 129 4 208 102 68 254 111 92 134 102 132 117 182 183 115 132 73 73 157 56 121 45 160 55 208 23 244 116 181 118 121 223 220 189 5 76 25 214 178 157 212 105 84 90 237 158 207 139 214 66 184 118 140 137 141 5 253 66 60 118 34 49 51 39 167 77 253 131 234 209 207 63 44 130 221 251 235 179 62 216 41 202 99 182 207 28 249 11 165 27 60 162 66 227 25 64 103 76 17 54 153 61 184 132 57 163 195 119 124 160 65 223 83 16 251 124 27 160 50 88 67 43 59 92 70 162 168 137 217 66 201 145 198 218 53 137 24 177 41 81 144 124 200 140 248 9 44 42 25 111 86 52 203 156 140 116 37 200 182 238 106 124 201 67 5 225 213 46 50 10 170 250 187 162 3 75 204 28 215 34 80 4 191 221 115 228 165 63 211 15 179 156 83 105 125 40 229 175 50 234 169 237 24 172 56 194 200 16 100 24 20 48 245 135 83 154 198 18 170 121 246 253 226 201 37 199 101 87 177 226 68 201 145 124 139 58 140 239 230 160 32 174 40 115 199 238 133 188 104 123 87 74 69 1 18 170 254 195 141 35 141 30 122 24 89 190 8 63 58 40 238 199 155 181 103 32 113 143 155 200 126 224 201 230 139 199 48 24 234 66 54 100 6 
143 34 147 207 93 171 189 36 179 114 139 219 227 27 118 172 153 150 117 127 50 61 175 18 39 242 157 140 248 181 174 139 236 11 54 123 47 234 74 187 197 7 214 60 121 111 210 93 238 4 9 157 23 126 143 180 187 135 106 227 18 86 111 73 209 29 51 28 41 248 35 88 52 157 19 7 250 233 11 3 88 34 129 70 215 61 228 65 32 115 151 143 251 104 172 13 132 213 86 168 46 137 69 65 130 63 43 182 66 131 189 195 202 201 0 174 235 32 33 194 175 28 3 92 42 154 49 128 3 95 10 135 161 140 47 204 66 116 79 0 179 25 201 245 199 180 185 233 119 185 5 122 218 47 21 137 176 24 229 186 159 23 70 207 118 136 67 23 136 247 227 81 236 51 6 165 76 125 95 20 247 57 253 12 194 2 36 168 50 196 191 226 147 53 156 214 77 226 205 48 106 186 99 243 95 176 68 190 196 74 247 193 199 186 195 191 98 245 203 33 215 240 86 115 180 163 85 71 212 192 29 55 179 235 231 247 165 171 66 4 108 9 195 48 200 186 37 148 116 253 132 214 112 56 247 198 127 78 134 156 241 57 135 197 48 44 253 114 49 228 124 244 144 68 174 252 216 35 44 92 249 82 148 241 79 19 63 191 176 48 133 55 246 11 100 243 68 149 215 117 137 103 231 55 100 99 90 144 168 84 226 128 69 49 221 132 241 113 180 118 133 170 130 53 157 198 108 117 59 208 220 35 101 64 134 238 209 46 38 179 175 128 229 140 212 214 253 25 76 130 157 206 183 82 149 36 252 208 244 154 243 90 15 122 72 235 168 110 44 87 239 253 227 195 176 225 221 149 99 122 107 27 204 184 63 201 134 51 99 27 141 114 236 214 93 223 68 137 89 51 134 2 247 55 89 212 204 61 78 56 30 27 240 129 228 118 156 71 146 219 185 126 15 22 93 156 160 183 114 38 185 183 93 18 234 42 79 225 98 109 181 82 239 4 200 139 31 90 103 3 216 118 74 54 18 3 237 133 25 166 60 185 184 38 224 8 8 61 117 189 103 100 193 201 240 224 27 87 227 228 205 45 62 223 48 23 100 74 77 160 3 58 199 227 224 207 33 152 140 136 160 78 82 22 46 109 122 18 81 106 63 144 193 112 167 142 186 244 110 189 46 210 161 14 115 194 166 58 74 71 9 156 93 149 10 215 227 91 66 18 235 3 36 146 146 99 134 0 211 180 210 141 194 69 75 105 127 236 176 136 174 13 30 248 228 1 149 38 19 159 42 55 250 188 155 230 188 110 120 142 252 255 212 71 179 83 51 118 220 225 223 250 217 143 251 110 156 15 13 128 
70 8 167 225 238 209 80 102 141 76 101 73 147 25 215 198 143 171 167 110 255 128 253 219 239 153 213 252 25 208 4 192 223 242 145 38 89 30 7 190 103 87 215 63 163 102 234 54 212 233 252 209 196 163 106 153 36 132 106 19 68 73 15 214 111 20 244 119 6 92 206 95 155 114 30 133 168 245 111 165 92 51 72 48 205 108 2 55 127 108 128 143 240 240 163 53 103 169 11 53 9 255 167 39 91 80 28 246 245 120 124 61 169 235 170 171 30 41 23 235 184 8 34 91 61 163 5 72 147 14 71 250 53 163 47 81 153 215 202 21 39 115 0 28 30 31 89 53 10 3 61 45 45 122 208 229 194 99 65 10 93 70 173 140 84 70 99 137 92 138 218 92 166 164 123 0 23 134 3 53 179 48 107 131 22 168 230 87 35 67 157 229 207 241 239 51 122 156 189 84 227 100 249 63 100 16 155 103 70 23 152 177 157 174 89 80 5 124 211 162 98 185 147 81 252 13 238 203 97 209 254 90 16 188 107 171 32 177 194 132 98 95 235 187 175 131 56 130 49 154 59 54 235 55 216 217 3 107 170 1 120 186 189 218 102 221 52 40 97 159 136 77 80 55 208 178 186 2 110 245 56 166 45 17 64 48 124 43 49 245 5 239 207 175 204 3 106 46 163 208 123 243 248 75 166 128 77 20 184 134 186 114 151 250 103 19 37 148 8 42 196 215 218 246 219 68 229 126 20 177 113 12 223 23 141 90 43 69 166 229 183 243 223 30 121 5 179 16 47 119 36 9 109 44 77 82 4 97 4 223 110 227 93 251 62 206 64 228 230 247 215 17 21 81 247 200 97 214 64 133 219 173 178 11 0 182 20 4 149 98 231 242 195 37 192 49 9 166 44 225 184 108 50 175 99 147 133 121 25 97 65 203 108 129 129 128 47 22 226 47 8 166 51 200 215 26 111 4 64 39 112 73 214 212 42 91 77 92 188 142 240 40 16 9 169 63 212 139 110 85 49 161 107 9 187 115 13 251 59 125 69 170 81 111 209 158 204 167 45 188 3 61 197 191 124 153 232 234 238 145 139 89 28 70 204 78 66 7 87 135 178 100 246 131 225 194 43 51 126 46 209 67 237 254 220 213 59 202 102 183 35 131 161 239 209 44 247 40 115 169 140 181 44 109 60 87 160 50 133 114 245 115 112 115 72 172 183 175 99 147 50 5 94 3 49 129 43 164 113 183 89 104 36 149 17 197 200 61 55 189 149 167 48 26 83 231 141 183 123 214 188 217 133 237 90 183 146 203 186 235 51 229 129 68 156 73 130 192 6 23 133 54 49 188 30 191 100 153 149 183 
114 26 110 204 209 42 152 139 24 203 112 170 16 12 149 146 204 22 169 82 95 218 14 101 153 114 156 46 42 186 72 152 83 25 195 197 164 219 145 20 133 41 32 26 245 237 49 5 63 144 151 77 246 64 192 146 26 234 76 180 130 159 226 69 100 43 32 245 68 165 31 233 192 20 253 241 25 30 129 176 11 119 240 74 9 10 151 85 190 87 244 161 65 88 204 196 78 16 9 109 249 42 129 247 207 154 21 143 74 32 128 58 106 2 68 1 121 3 89 131 164 154 216 112 94 205 128 104 37 122 146 115 113 97 224 134 241 97 166 113 251 16 115 69 17 237 127 106 112 196 5 72 199 99 21 107 203 59 219 93 174 91 191 143 213 176 240 70 33 236 204 149 49 114 130 177 130 242 117 148 58 60 254 80 167 3 139 130 103 57 221 50 200 179 144 185 249 79 165 198 255 214 56 32 135 187 181 252 79 55 56 77 41 223 81 100 97 184 180 63 234 63 242 122 120 235 201 65 177 200 250 234 233 159 165 158 117 244 214 253 65 255 249 146 99 50 74 23 17 53 86 115 175 207 178 121 16 164 65 10 143 42 169 65 201 30 43 159 27 208 158 21 196 2 71 5 25 88 152 112 203 226 63 125 23 79 33 199 89 177 64 2 242 129 32 29 172 60 237 117 81 177 20 152 182 178 240 78 180 188 49 206 57 72 62 91 15 125 12 79 204 254 209 37 27 125 39 8 242 71 185 6 131 111 184 212 190 109 108 239 59 93 55 121 25 71 246 82 150 194 173 103 231 185 228 14 183 214 85 210 220 217 218 149 173 147 2 26 3 61 119 193 182 144 176 172 226 231 110 144 46 85 73 197 99 1 44 184 211 17 145 174 231 63 65 196 89 68 89 208 5 91 96 181 152 66 157 78 210 203 250 28 144 104 29 189 189 240 206 32 158 181 216 224 121 106 36 210 169 42 45 2 223 197 210 124 19 50 72 13 116 216 117 71 149 50 99 99 82 128 25 43 112 146 149 15 101 62 239 146 64 19 88 18 61 107 68 29 121 184 153 238 255 225 33 98 186 115 226 79 158 83 179 51 98 204 113 81 94 177 100 195 195 162 86 7 191 174 192 88 25 191 58 146 34 244 129 4 67 162 87 246 21 185 194 180 10 33 231 111 228 89 17 58 10 208 232 206 40 2 213 98 148 149 86 21 85 154 183 119 144 205 123 83 129 211 116 104 140 88 193 151 147 204 6 123 154 23 125 111 231 18 5 15 39 90 114 223 209 200 172 76 98 45 31 243 149 172 70 87 67 186 35 73 18 189 96 165 44 71 33 49 86 158 139 200 176 92 145 216 
169 243 183 200 230 99 116 44 144 183 230 37 0 249 124 96 158 159 167 191 92 254 94 137 198 14 186 87 230 70 75 157 162 49 0 75 94 144 20 68 182 136 61 50 64 220 210 64 155 46 161 249 183 72 8 114 70 238 184 13 140 90 100 140 166 175 29 186 225 211 66 63 5 130 131 215 195 193 6 100 157 189 172 56 47 243 50 231 0 58 66 100 40 232 20 180 162 245 65 228 52 94 103 183 49 42 120 54 142 21 14 58 78 20 45 128 209 45 186 1 146 226 232 166 151 42 155 216 18 207 54 180 134 103 153 255 157 0 20 171 42 98 191 184 226 145 242 156 146 32 127 122 77 22 165 223 238 183 133 36 108 32 139 5 239 40 5 118 212 47 117 147 231 137 36 217 236 182 249 206 49 71 107 214 38 234 141 172 0 249 204 238 254 188 18 3 50 157 50 167 197 25 48 153 243 28 45 236 235 81 51 86 8 90 64 57 6 64 15 210 46 156 142 64 150 192 221 148 103 162 152 152 60 202 180 105 228 159 186 215 245 194 195 53 251 247 117 10 81 163 167 87 227 61 41 192 209 184 99 105 120 159 52 224 8 24 120 194 239 44 133 178 204 128 169 193 139 250 247 50 81 108 111 123 16 64 51 243 170 171 180 222 139 23 246 3 182 229 48 190 151 252 128 65 189 5 59 180 134 141 33 17 8 49 67 59 36 178 230 216 242 114 239 156 117 165 122 165 99 112 161 228 85 95 233 237 19 111 46 52 128 105 101 195 246 138 117 254 98 104 57 82 4 32 247 127 146 91 239 7 63 69 173 40 50 78 152 96 173 24 201 193 220 192 245 81 190 91 185 248 229 190 24 71 61 170 153 44 177 145 113 94 236 163 173 43 3 90 83 205 27 235 141 17 4 75 108 224 67 81 49 91 152 235 5 50 169 183 195 230 21 175 18 194 218 132 29 45 39 56 25 43 73 29 248 181 253 133 6 46 208 159 25 20 209 194 111 148 168 117 67 187 44 29 63 65 74 102 4 99 145 33 128 137 89 125 14 163 172 223 88 197 243 95 136 98 254 48 215 207 235 3 99 42 69 166 145 73 195 34 106 13 172 195 113 186 102 241 153 191 111 140 30 27 239 28 224 198 235 104 202 78 153 15 244 132 88 183 175 194 196 64 133 53 98 236 39 14 171 150 201 201 177 98 229 145 239 208 250 222 30 147 164 18 23 110 201 198 125 141 6 213 195 105 151 234 119 29 128 64 9 49 163 180 194 146 125 188 112 98 79 20 50 103 131 80 45 0 98 52 214 43 157 109 184 20 138 123 85 147 101 248 71 229 138 196 22 250 38 217 
14 88 149 145 168 229 146 10 76 104 53 121 213 238 173 96 105 74 243 207 95 59 180 180 255 203 172 38 164 54 126 57 48 39 30 62 49 106 208 103 228 98 85 145 202 190 220 159 141 59 255 66 239 243 13 155 46 177 209 45 234 1 83 9 63 210 115 15 249 87 113 42 233 59 145 197 219 230 0 218 165 239 205 50 138 251 116 91 41 129 92 124 50 155 78 29 171 71 38 28 114 153 88 3 241 51 234 218 13 143 159 219 193 159 214 54 142 255 183 24 124 234 115 202 7 207 18 45 106 132 198 21 135 183 50 113 145 138 0 48 189 194 207 202 248 93 165 175 117 124 153 232 123 160 183 247 205 34 194 148 55 212 75 105 88 221 243 223 13 176 81 221 123 81 58 32 19 176 156 11 152 24 187 80 15 84 114 209 245 169 165 194 19 253 86 6 221 162 183 46 127 50 127 140 82 147 105 239 158 164 7 89 84 22 174 236 232 163 60 141 101 174 139 188 88 104 94 107 150 221 113 21 105 40 168 211 90 71 119 173 160 203 156 78 183 163 241 244 185 87 162 161 19 250 47 113 101 186 78 215 34 183 255 184 138 90 205 1 7 118 204 163 189 132 70 93 120 255 172 26 161 157 21 208 244 122 138 7 81 172 120 81 100 198 171 49 126 178 167 8 85 100 10 155 194 214 154 110 90 59 11 210 11 0 237 149 7 2 65 128 124 165 70 206 215 196 31 126 205 202 227 215 124 165 173 209 19 8 108 30 218 6 30 199 66 38 201 77 166 70 227 236 20 36 177 51 202 126 253 161 85 121 31 2 74 2 10 182 167 229 188 186 172 254 217 118 76 247 188 47 29 208 83 195 3 29 176 0 190 97 121 222 223 195 224 52 121 136 54 53 66 65 52 27 38 128 19 210 175 48 72 2 244 4 32 164 212 222 5 215 188 228 215 157 24 80 37 78 19 103 143 140 131 181 194 150 136 246 198 208 118 186 213 37 94 169 39 99 129 71 71 88 38 95 169 226 174 188 127 61 73 164 243 11 12 123 1 143 75 119 37 32 156 235 202 195 166 75 11 4 163 49 104 76 19 175 9 147 15 82 55 189 93 67 250 94 210 237 213 247 104 113 227 180 52 137 212 63 141 158 112 245 233 132 165 141 23 180 217 78 113 226 146 107 52 100 89 145 92 193 239 63 117 196 200 74 53 85 232 106 75 210 169 240 95 26 164 56 158 21 27 181 128 79 3 217 225 149 155 208 250 16 149 86 90 202 149 67 52 93 21 222 178 116 248 253 172 150 237 199 75 145 23 78 166 248 228 39 200 222 0 93 52 155 40 201 172 92 38 6 
58 216 73 50 214 94 200 195 210 19 85 127 98 251 70 70 34 93 36 35 85 88 190 30 33 106 123 71 113 163 31 186 0 245 25 58 185 235 109 14 106 53 9 177 73 44 14 171 79 100 241 13 130 21 120 253 109 233 161 142 163 161 213 188 219 244 168 72 234 18 126 163 195 199 177 210 114 186 54 99 230 184 120 53 181 229 67 86 115 187 247 72 164 211 60 71 27 38 4 153 201 172 96 122 190 210 53 130 53 27 84 173 81 138 146 148 66 5 79 247 77 243 78 138 58 69 176 62 24 122 234 52 244 169 205 41 43 46 69 127 0 150 9 54 42 75 227 121 66 118 108 144 123 166 214 201 229 238 83 207 34 3 120 240 125 163 30 114 34 30 155 43 84 224 118 56 118 185 174 160 73 41 25 31 242 133 14 69 44 48 73 17 32 198 224 62 56 89 93 212 252 177 180 31 233 43 74 151 203 193 193 229 122 179 106 195 249 150 227 66 167 241 8 136 33 65 225 66 21 221 128 201 252 221 244 71 143 192 8 120 165 130 16 15 69 209 166 40 132 77 25 125 213 59 191 182 125 200 148 253 9 144 219 30 215 106 231 223 226 220 97 242 156 167 195 65 207 72 80 233 197 246 36 133 68 161 77 25 158 86 208 121 116 100 227 91 244 198 55 204 184 211 171 124 20 13 196 101 180 137 91 131 14 159 108 91 185 144 177 137 49 37 237 208 129 225 73 184 173 45 140 89 243 160 102 171 5 26 39 97 157 235 0 10 117 185 154 131 66 204 223 47 156 144 17 229 182 190 18 55 23 5 239 125 177 123 151 216 28 53 196 33 63 57 130 217 188 131 165 155 60 65 44 127 39 226 174 57 25 191 63 8 126 240 132 149 200 160 19 140 193 170 197 68 223 130 199 30 29 3 248 73 130 157 43 49 223 68 240 6 77 110 63 209 4 126 113 23 110 50 193 55 118 161 195 61 191 137 65 183 11 195 85 40 244 52 114 229 58 157 83 121 226 87 248 47 110 102 0 48 157 113 209 97 163 144 234 26 72 245 87 157 29 152 209 143 92 11 45 80 132 15 53 124 62 137 227 62 224 128 175 79 225 82 127 203 108 80 192 196 224 222 92 40 109 184 197 154 9 150 169 62 161 231 199 38 37 168 162 212 247 133 39 118 6 147 198 231 87 166 179 180 207 115 108 148 81 117 43 191 180 204 89 123 242 3 35 149 234 26 26 16 144 32 228 86 8 11 253 187 159 204 46 246 96 128 170 139 63 23 88 152 140 74 155 64 223 134 188 250 150 223 26 122 250 34 134 138 221 37 225 12 27 222 140 198 170 203 221 10 
99 105 150 255 170 238 133 102 56 27 69 24 149 63 18 27 202 44 64 171 79 92 137 44 34 51 56 255 61 196 104 211 143 18 193 243 120 250 242 190 18 119 253 36 146 199 80 39 114 159 67 251 204 131 46 4 223 108 201 1 63 88 0 1 75 105 251 61 123 13 180 244 49 70 178 129 110 175 33 177 119 237 52 233 241 20 229 186 21 19 19 22 127 94 127 191 156 250 192 80 238 187 151 160 200 5 80 249 182 199 122 234 176 155 254 149 136 20 169 122 42 40 52 169 231 71 163 167 166 146 98 66 50 42 146 130 35 41 73 158 46 250 57 228 143 194 207 56 60 205 97 112 225 72 184 11 240 94 180 82 160 88 125 50 234 160 92 28 62 138 159 120 111 232 58 62 226 118 11 114 230 237 170 158 248 11 252 173 84 156 5 68 207 239 150 43 11 19 181 170 180 36 147 242 98 117 106 110 231 164 91 146 26 83 157 1 0 241 159 5 53 156 244 204 56 0 223 7 170 147 50 61 134 232 179 240 12 154 149 111 44 175 221 202 176 56 187 80 139 241 236 140 189 36 145 156 44 134 48 94 134 182 70 48 166 83 110 59 194 33 235 159 187 155 215 232 235 98 178 215 238 109 252 128 94 40 6 27 134 140 184 205 188 232 32 42 158 226 75 68 129 7 128 88 239 107 186 161 6 169 14 242 41 109 201 47 136 197 187 64 237 119 40 116 162 198 65 237 11 97 244 139 67 227 246 196 132 252 28 147 238 214 0 184 127 136 125 168 201 107 215 241 223 146 184 32 10 195 129 172 78 196 153 68 136 142 64 164 113 47 122 246 231 250 137 100 162 137 207 122 17 174 12 218 206 22 204 79 194 132 19 92 71 155 234 149 63 91 217 186 81 25 180 218 72 86 99 47 208 117 148 221 79 99 243 27 18 182 159 224 18 230 48 252 123 67 87 84 223 169 110 30 131 182 216 231 230 140 92 122 227 171 221 179 199 239 144 102 208 132 77 0 58 200 67 76 29 34 72 139 65 159 65 25 72 39 166 204 161 137 179 127 60 15 110 205 186 62 81 129 62 139 232 130 215 53 164 31 253 229 190 26 255 7 165 165 211 231 46 134 14 106 149 176 55 79 47 136 209 157 19 185 220 234 238 26 9 235 156 200 6 65 207 171 38 162 146 37 40 161 202 189 81 248 12 128 99 221 29 154 150 249 35 132 20 54 112 176 33 118 241 42 33 24 242 180 61 193 85 8 99 166 0 139 38 99 72 67 254 85 61 33 50 81 87 201 1 120 77 243 163 189 11 149 51 72 87 85 80 186 9 81 70 94 180 142 4 178 227 42 
211 22 109 43 223 170 163 44 251 70 234 253 220 29 240 51 114 251 237 123 67 51 217 148 194 221 229 165 7 153 187 117 76 154 31 31 199 27 74 177 24 238 206 8 52 65 3 16 188 70 67 150 218 49 115 191 100 123 89 38 240 165 204 15 196 135 42 15 34 66 253 233 74 49 154 77 66 104 148 133 169 110 182 102 46 27 252 135 65 111 44 13 234 240 149 218 255 183 234 252 160 20 46 58 87 112 162 161 245 76 239 172 178 131 199 174 241 8 29 31 22 8 166 171 226 210 98 204 195 2 225 194 60 56 191 222 217 237 42 200 93 220 75 82 138 61 254 168 92 197 176 3 206 146 213 228 95 152 143 64 91 241 120 26 243 81 7 47 26 100 13 101 182 56 162 181 20 255 122 159 2 72 71 215 44 247 112 187 137 203 172 232 229 159 40 236 206 160 80 220 242 6 20 12 187 40 113 54 199 20 126 14 19 171 5 21 102 143 236 19 119 92 178 160 39 129 64 12 93 50 248 113 62 72 153 176 79 97 196 10 111 215 64 117 236 191 4 216 106 123 53 208 27 92 227 92 105 150 142 97 23 205 170 116 125 249 229 65 3 126 24 68 223 4 3 79 220 109 196 17 61 200 110 33 67 215 183 95 56 206 187 226 66 73 219 39 22 223 165 147 35 133 212 38 212 236 147 152 240 208 96 205 241 163 222 168 2 76 118 189 35 184 7 92 223 29 62 133 177 26 10 133 249 222 114 28 118 98 66 214 47 213 121 14 165 124 90 151 57 126 63 64 218 182 94 24 110 15 50 78 148 43 211 6 71 221 105 137 187 152 94 49 166 4 7 1 155 128 127 218 252 89 144 54 113 255 118 164 77 212 207 32 227 23 253 120 160 184 126 255 233 231 3 240 128 158 112 38 120 109 39 9 163 166 8 25 255 85 238 113 117 209 21 114 73 228 42 200 251 19 175 156 3 47 155 115 86 158 224 125 60 131 36 180 157 35 189 139 148 197 92 169 26 166 142 143 110 137 1 29 37 43 77 192 62 163 94 65 32 154 181 68 79 149 104 12 25 252 210 182 166 236 65 52 124 157 189 125 67 227 169 177 163 231 207 2 41 28 156 222 191 235 115 223 248 140 36 202 66 140 182 131 136 50 33 46 176 100 98 89 22 32 64 229 3 105 1 166 71 192 168 187 159 69 71 195 48 138 79 40 13 216 242 46 6 169 147 105 219 169 137 139 142 140 228 143 50 37 79 219 142 238 32 214 178 80 145 1 121 216 217 107 98 224 20 112 73 240 158 210 123 49 94 96 218 144 133 104 107 19 247 139 233 70 220 122 53 85 83 231 
192 181 232 213 37 194 197 196 162 64 245 235 160 208 189 37 56 27 57 48 171 34 118 23 157 171 162 240 146 126 165 123 211 203 61 148 143 223 105 132 202 46 84 135 110 141 162 15 189 77 52 51 100 109 223 7 144 113 133 45 236 89 29 41 237 194 8 86 141 210 132 28 89 242 161 251 1 245 73 54 130 173 163 63 180 51 115 58 96 82 147 125 195 128 64 176 214 205 217 90 234 226 76 139 180 78 128 14 132 3 9 39 66 82 91 181 0 187 7 180 57 203 238 121 123 129 70 84 1 48 54 215 187 235 49 60 249 126 63 2 204 129 85 80 55 85 119 62 9 210 9 248 142 132 121 199 217 123 64 15 82 134 250 132 183 243 2 114 246 206 174 75 30 237 160 149 111 169 104 166 161 246 228 27 189 238 150 253 114 232 131 75 108 58 91 110 173 85 60 91 73 90 73 63 240 184 138 88 94 42 78 66 211 11 48 117 8 163 144 139 238 38 198 73 14 115 159 123 206 232 233 23 39 38 207 177 128 45 219 112 112 174 200 160 35 22 67 179 33 50 217 41 123 232 181 26 99 123 2 76 238 41 114 188 218 243 212 181 99 163 100 44 209 135 66 65 59 100 225 20 141 37 252 66 87 95 189 210 172 171 237 30 104 239 17 60 25 117 223 243 161 176 169 227 241 13 71 211 148 213 248 207 23 79 228 213 33 224 128 14 64 232 254 236 36 23 10 4 10 28 180 179 145 166 192 50 121 85 21 113 36 93 192 8 50 225 233 73 240 41 30 238 21 159 5 31 135 15 59 172 195 204 176 131 254 100 216 20 10 253 113 131 5 163 244 238 236 180 23 11 150 44 170 134 76 49 116 135 221 121 84 141 136 82 242 75 102 252 207 215 128 167 122 116 164 103 41 170 114 191 152 28 69 176 77 185 220 43 50 40 184 186 176 170 6 4 167 213 86 39 124 189 155 33 148 196 203 15 131 99 118 200 19 232 129 240 4 179 24 81 110 200 124 116 204 53 73 35 223 197 224 134 230 116 173 177 131 73 21 249 13 40 225 145 24 229 89 49 55 219 249 179 142 198 232 252 233 200 112 201 78 185 61 252 127 193 69 101 186 82 23 156 227 44 129 61 84 184 24 109 108 166 158 84 163 151 28 19 93 107 205 70 103 76 15 172 177 77 254 200 14 226 244 200 31 73 100 55 182 230 221 84 158 128 235 10 148 73 95 97 143 123 173 159 230 94 236 77 39 250 249 27 194 248 100 39 218 26 13 249 110 171 48 90 182 13 163 21 142 50 144 34 209 119 131 189 196 48 183 190 142 122 182 181 161 144 209 174 137 53 
89 185 80 15 198 190 36 84 24 181 118 187 44 249 238 240 41 191 174 184 125 100 109 52 244 62 174 125 116 79 54 196 253 253 130 87 81 155 102 200 86 139 193 68 64 235 4 108 163 129 92 16 181 11 79 100 111 195 179 100 135 177 225 9 8 24 164 110 21 251 249 102 63 57 46 67 165 240 196 2 219 122 13 126 222 124 142 145 224 221 66 194 160 74 218 39 185 239 49 178 85 213 236 132 208 145 116 16 147 79 83 160 205 24 29 91 146 253 57 112 191 217 1 153 1 68 136 50 142 222 7 71 98 216 250 214 232 230 37 59 119 242 83 11 77 229 171 134 85 200 96 87 198 97 155 133 147 41 31 154 113 167 114 107 133 90 81 231 150 200 189 233 211 226 207 127 212 36 71 34 123 13 168 22 147 8 64 178 105 177 89 252 28 223 151 109 198 9 53 132 100 9 102 250 136 59 227 207 93 178 221 5 215 112 14 82 34 119 105 123 116 169 90 11 90 33 20 118 165 120 227 11 114 24 70 86 33 163 8 169 169 223 121 183 50 86 46 155 198 162 68 232 173 158 99 194 20 190 58 247 223 173 15 132 3 49 143 11 218 214 235 83 121 29 169 34 184 111 217 252 87 8 154 187 170 174 121 88 165 88 26 180 220 84 229 107 1 192 65 4 19 187 16 189 221 251 44 183 24 132 191 208 63 105 204 184 193 102 16 219 20 236 48 185 87 49 109 153 54 83 84 70 19 49 65 38 232 89 227 167 41 16 17 245 148 210 91 211 174 111 139 222 40 155 15 149 135 69 232 222 139 251 119 204 34 203 37 5 253 78 21 229 67 169 141 158 124 158 13 7 112 53 162 30 203 41 252 179 8 12 175 127 81 209 75 221 214 72 169 236 45 207 149 186 29 18 88 97 25 201 255 188 231 13 229 228 66 237 240 13 109 65 193 184 30 112 0 200 65 45 151 23 232 180 3 64 21 153 9 21 171 241 34 196 213 100 128 197 114 102 6 51 83 37 163 192 237 228 120 132 251 120 56 255 166 78 152 142 99 67 206 133 7 216 233 136 201 91 238 158 142 65 99 49 2 105 21 122 142 17 243 123 16 153 255 168 39 56 235 245 134 242 205 233 122 150 110 104 52 87 170 151 179 172 1 65 38 143 115 25 11 136 178 10 153 217 66 169 207 200 81 156 177 60 51 31 47 103 119 169 255 42 18 0 107 188 143 222 104 154 103 142 165 0 168 231 170 90 176 251 52 97 56 3 129 103 159 248 16 210 34 34 58 141 222 57 108 70 57 211 213 200 211 125 99 125 215 8 121 11 239 177 14 159 24 174 1 40 128 130 
75 186 122 41 243 156 112 44 41 69 245 149 194 88 104 153 96 60 165 79 185 179 239 50 97 240 227 226 114 251 156 236 36 144 136 111 188 177 152 177 71 8 9 175 77 105 235 15 185 165 169 168 215 78 152 187 1 10 182 99 246 218 69 126 73 225 47 226 113 118 234 46 38 56 223 17 71 233 182 240 82 142 62 11 73 64 179 255 163 75 218 232 85 35 201 75 5 59 201 240 105 249 40 72 111 111 49 149 96 132 167 158 143 93 222 67 235 129 142 52 105 228 52 51 47 14 110 249 49 215 242 55 31 97 39 81 247 79 213 158 190 100 251 30 167 231 189 54 27 155 26 79 29 73 93 134 66 143 185 52 198 39 150 237 254 141 60 30 43 250 111 38 25 68 13 214 168 41 113 80 120 142 134 214 21 160 101 206 233 43 246 44 24 244 96 84 18 246 78 129 131 103 197 174 61 110 213 175 190 226 61 68 11 82 228 132 33 205 90 23 249 191 11 90 234 30 80 2 159 212 86 101 130 164 211 87 12 145 58 73 213 69 248 185 201 54 134 35 136 128 226 169 218 204 192 42 206 204 254 36 234 129 201 137 216 213 238 18 30 193 88 23 82 33 77 39 69 213 224 39 127 103 244 63 231 194 11 193 231 245 235 176 127 234 133 109 107 163 47 67 186 129 86 7 169 174 221 137 207 92 240 20 155 215 60 167 152 48 156 132 242 27 110 217 137 217 137 184 28 14 57 114 178 226 32 108 108 240 116 92 4 81 52 64 173 204 112 72 80 99 239 190 60 140 151 198 167 180 212 48 38 134 232 71 243 34 55 103 4 59 184 112 124 101 205 236 173 1 79 157 205 140 41 30 82 208 220 38 1 116 173 233 40 160 11 78 7 16 149 191 128 204 36 77 8 209 78 132 110 28 112 151 58 192 104 22 76 105 138 158 82 178 196 94 1 113 110 150 17 238 99 24 60 107 215 138 239 251 166 95 205 224 31 59 247 107 211 129 9 59 52 206 164 53 63 246 203 81 84 46 105 194 153 65 177 136 60 237 232 9 119 7 69 30 115 24 254 124 83 245 74 247 119 138 237 171 219 66 224 68 4 171 133 181 218 194 162 115 203 26 252 16 56 228 40 54 235 123 44 94 114 163 219 96 78 37 162 46 175 166 217 138 92 179 207 254 39 84 24 35 22 80 7 226 135 242 242 179 81 27 86 44 150 164 81 9 210 1 105 171 139 11 95 90 177 134 175 13 169 197 12 176 167 36 162 154 117 243 181 252 31 75 175 113 84 5 114 189 169 253 200 123 88 122 38 7 135 133 204 147 11 116 184 180 14 45 100 195 41 7 
14 216 250 99 221 26 32 134 139 233 1 253 99 39 250 234 173 82 126 184 89 54 109 38 99 209 154 140 216 168 100 211 107 65 237 121 199 120 220 200 117 253 239 111 230 156 194 73 85 27 51 194 65 177 147 219 231 108 131 74 63 238 214 44 104 58 164 68 123 25 65 66 136 39 10 74 112 250 102 164 150 167 85 235 131 61 173 6 135 65 245 94 173 93 152 236 161 20 24 227 86 188 10 97 213 123 91 93 31 241 168 116 221 14 177 138 181 57 203 56 151 120 63 47 100 52 67 124 145 154 56 50 251 13 21 86 107 32 71 19 155 36 33 186 175 214 46 122 15 224 243 78 25 87 130 176 212 19 223 12 69 35 26 91 189 133 123 184 152 22 14 185 208 85 143 254 122 158 222 41 236 247 163 110 167 150 129 135 238 199 170 194 34 103 206 157 31 232 179 45 109 131 130 5 129 252 190 96 37 78 87 201 236 255 95 217 134 77 71 48 15 201 151 222 144 182 198 178 227 52 79 101 57 2 98 248 133 135 70 6 80 50 102 176 11 190 253 83 189 13 28 67 235 172 115 177 94 10 229 173 192 31 175 163 23 52 8 93 58 106 143 161 242 155 95 66 238 28 242 10 95 240 182 210 253 20 220 232 193 156 153 112 63 127 164 71 158 222 178 181 127 164 18 222 230 161 250 217 60 89 201 42 43 198 52 7 174 234 163 71 254 226 198 191 42 100 47 220 25 211 128 43 178 102 205 49 63 9 16 8 52 10 206 104 100 124 83 143 196 81 151 138 17 58 239 64 29 8 20 71 52 198 35 1 247 163 10 7 9 62 18 73 167 118 81 250 5 32 75 156 156 92 215 96 157 244 235 177 59 218 119 94 226 110 1 22 118 10 23 136 83 34 254 165 96 3 197 7 160 97 1 119 194 77 107 173 169 166 135 70 4 105 247 5 128 110 15 151 221 99 185 83 8 26 219 205 33 217 46 35 220 240 112 124 157 25 243 36 96 94 142 87 4 14 198 8 165 163 13 95 246 29 121 209 128 154 170 136 189 134 85 45 3 131 71 246 116 167 85 17 254 89 54 196 98 196 103 111 210 93 140 119 46 12 214 216 148 79 95 233 234 98 109 167 88 225 213 173 242 28 7 40 195 105 236 193 216 190 134 101 54 237 113 12 75 6 92 121 239 70 82 92 237 177 61 194 19 48 222 107 88 161 25 69 99 32 3 233 137 57 214 97 70 33 198 162 155 56 232 237 62 213 158 45 152 177 138 118 28 199 24 53 247 123 85 80 100 222 149 58 64 152 92 6 210 247 62 24 228 124 186 130 170 162 51 52 119 79 251 15 
133 243 134 218 67 158 185 216 25 249 112 125 255 66 183 62 90 19 186 20 10 100 182 238 152 46 112 148 61 163 135 195 243 202 97 120 162 122 82 18 247 11 85 175 4 175 194 4 196 205 66 122 187 252 168 44 97 230 207 249 169 194 141 11 58 20 133 141 222 125 152 128 44 157 147 238 161 232 187 227 151 119 223 91 163 64 214 114 58 126 53 199 100 111 220 14 252 186 25 149 59 158 50 206 27 211 182 71 182 77 54 149 169 241 214 127 104 16 253 11 215 98 126 179 112 179 110 137 34 169 39 31 119 67 180 45 138 230 122 192 185 35 178 111 162 26 4 160 38 218 2 164 234 114 87 194 251 121 117 34 152 227 101 76 140 240 50 3 176 235 48 98 90 171 125 95 206 163 57 113 71 36 17 158 230 19 23 91 133 176 63 128 252 203 162 47 207 8 26 255 248 117 170 168 212 121 11 13 234 136 49 251 43 23 14 114 115 147 16 178 19 39 125 181 215 76 189 212 76 181 3 246 94 29 111 105 146 89 241 102 84 28 116 98 142 165 245 158 189 8 197 48 190 157 226 123 113 95 49 116 172 143 145 248 248 36 238 233 138 94 5 254 183 147 164 12 49 97 110 246 145 100 147 115 108 4 210 42 120 126 166 10 118 215 46 101 102 184 195 94 183 122 71 91 134 76 188 245 223 77 89 16 192 197 6 146 240 154 17 150 158 135 109 23 236 211 33 175 49 79 42 120 7 176 196 190 165 163 25 254 179 213 196 185 34 180 83 226 74 242 117 183 9 134 138 42 13 187 121 250 51 128 169 247 63 211 154 88 132 77 46 41 6 80 40 90 51 236 76 168 160 85 46 234 127 59 161 248 53 43 120 223 230 183 178 25 16 54 16 62 96 170 142 136 247 193 116 253 105 20 87 151 254 163 211 159 248 8 202 119 231 176 111 154 201 232 208 217 159 48 131 175 184 122 237 44 119 124 64 207 61 62 114 167 221 107 62 167 226 17 87 82 26 32 58 1 249 217 155 124 137 108 246 118 156 110 242 85 61 48 129 175 215 194 26 21 0 253 39 222 79 65 133 137 66 221 98 222 253 235 74 247 98 230 115 84 59 106 132 189 216 91 127 21 113 127 196 152 93 223 217 227 220 27 192 43 249 189 180 67 180 22 42 40 2 101 146 100 34 106 184 161 127 61 33 67 152 126 34 9 97 254 161 33 41 122 223 221 150 147 244 143 187 246 211 77 90 253 183 18 98 54 79 133 122 232 38 156 241 71 155 147 198 196 13 39 162 163 73 150 51 40 140 6 187 230 3 119 248 101 196 72 234 124 48 17 178 33 88 44 
180 30 201 194 70 100 101 143 40 152 183 202 158 114 96 161 233 236 7 174 210 241 42 203 2 220 19 91 9 67 121 210 100 191 54 25 78 94 219 5 41 64 120 137 217 97 118 119 15 72 25 57 19 32 22 38 17 31 105 20 241 206 111 39 231 232 133 194 168 174 2 246 56 219 252 174 83 116 246 108 213 10 140 229 48 157 30 154 177 52 104 32 83 79 9 68 17 177 107 19 167 241 239 163 159 66 23 215 174 237 133 58 210 124 215 240 134 137 37 182 169 120 80 178 189 184 99 40 7 11 25 24 174 185 44 198 144 27 179 22 93 133 146 11 117 24 69 154 206 28 19 31 165 208 215 79 248 223 1 18 247 101 203 35 112 91 62 30 113 155 228 3 166 151 27 235 28 234 8 146 9 173 44 224 252 63 191 254 15 183 99 8 218 211 26 25 241 229 180 214 64 91 109 178 70 138 181 78 28 209 252 72 187 248 136 196 246 151 164 89 159 100 44 185 27 30 158 245 244 223 14 97 145 195 235 70 30 7 23 100 80 210 179 216 150 175 111 59 167 15 159 158 200 186 247 103 175 36 70 190 66 215 129 54 29 159 151 53 3 131 7 182 138 158 101 218 217 13 178 120 171 34 50 162 49 225 198 249 159 8 96 32 62 166 191 214 125 195 89 155 121 227 208 223 190 215 236 112 117 151 146 78 57 195 198 0 189 248 8 29 218 71 196 121 29 65 154 118 220 89 89 172 28 23 132 150 136 249 117 26 72 97 222 14 248 155 7 49 184 225 49 124 90 58 190 244 129 154 78 158 71 106 20 203 0 109 196 117 133 12 214 13 27 206 39 34 0 5 3 49 160 93 107 89 82 236 213 160 138 147 10 158 46 11 12 117 128 145 64 87 158 4 37 197 17 37 203 44 87 107 78 194 196 81 175 154 174 57 45 0 216 91 160 228 208 171 117 16 182 19 21 54 216 38 141 163 82 179 15 160 216 211 241 47 109 159 242 155 160 161 246 64 218 199 235 178 215 161 150 236 216 11 18 101 30 100 24 247 4 241 154 245 32 169 149 18 125 53 179 234 117 142 133 97 64 124 2 215 67 218 226 26 64 1 7 88 248 25 73 146 126 106 60 130 124 185 120 48 163 13 190 41 66 254 165 183 213 232 24 184 2 27 185 9 245 177 35 53 67 161 142 127 35 215 56 155 65 220 168 190 5 234 238 170 162 172 146 186 170 148 213 128 158 203 56 193 0 241 98 142 162 133 102 229 33 167 101 201 101 157 180 83 121 86 255 126 16 170 40 230 42 186 177 98 79 177 83 237 64 245 174 166 218 16 77 63 149 179 221 182 
6 86 128 6 213 52 176 253 138 218 184 154 60 7 128 143 244 49 132 162 227 94 178 35 158 71 201 123 254 22 209 126 201 166 178 208 164 60 214 92 214 134 99 87 96 87 136 156 249 107 43 171 142 175 242 87 13 240 110 171 110 55 38 32 7 248 92 221 158 51 99 66 138 195 158 18 95 1 126 138 88 12 57 81 100 71 252 210 242 239 9 25 223 17 17 78 238 175 110 82 242 203 21 144 254 117 146 136 255 234 154 57 60 24 128 56 37 114 39 137 139 7 91 156 85 100 76 195 117 62 142 100 206 140 182 96 20 203 75 175 64 135 199 64 191 236 121 231 117 249 238 208 107 67 53 247 6 170 147 149 14 223 33 196 29 54 144 236 229 208 76 172 16 151 153 137 30 14 130 222 223 238 197 20 229 179 190 120 246 205 88 252 145 117 145 33 97 179 242 174 233 2 69 206 140 100 122 14 66 19 252 7 34 225 186 1 90 176 21 178 172 211 39 62 160 137 241 50 55 218 83 124 168 69 224 34 72 34 54 212 41 88 226 227 89 223 147 110 192 64 65 26 126 226 204 111 20 244 73 103 125 241 173 180 19 245 48 73 201 17 161 171 51 250 138 93 104 75 64 170 101 212 140 50 20 160 38 146 7 163 1 180 87 74 169 135 59 114 152 78 30 204 152 168 41 57 243 105 52 89 61 156 139 81 70 177 227 210 84 228 114 171 46 122 50 105 46 203 184 216 151 80 74 192 137 104 41 189 17 103 90 4 184 160 93 156 115 232 128 229 153 175 95 237 24 142 152 208 102 203 32 176 150 170 25 45 103 42 237 193 46 22 98 140 125 213 116 54 186 14 210 26 251 82 168 148 1 14 95 26 190 245 234 215 34 11 1 15 181 48 37 28 188 163 222 48 217 64 62 171 21 58 253 207 206 255 233 45 25 145 34 3 159 68 14 94 83 195 53 120 224 55 27 190 103 244 254 35 159 19 83 157 226 146 156 204 204 181 93 154 184 253 199 199 91 233 138 144 45 106 199 128 40 46 248 38 81 20 57 165 8 28 55 168 232 3 69 69 157 225 66 100 150 157 77 78 46 122 21 245 250 160 36 242 10 117 6 51 26 15 89 81 183 147 84 252 175 241 221 151 85 115 220 162 193 31 28 215 188 22 119 234 9 129 224 15 180 4 30 14 121 213 161 148 209 80 229 174 231 58 33 195 43 227 226 129 186 159 35 49 137 64 178 105 86 103 109 95 117 231 111 22 123 141 102 96 99 77 154 52 16 198 227 243 71 4 146 106 231 27 170 161 133 1 210 242 96 133 217 207 236 84 93 97 181 192 119 79 244 221 
21 215 42 92 220 58 199 195 45 113 101 191 114 55 219 211 188 96 162 168 82 255 9 44 191 128 128 180 93 53 139 135 133 103 194 154 43 239 247 144 175 190 199 138 47 132 234 162 44 60 117 54 104 23 182 233 23 20 30 214 155 163 138 93 62 22 77 53 125 252 243 168 134 34 56 112 196 0 172 57 132 21 81 176 254 104 230 28 62 157 192 201 177 254 223 76 51 92 170 38 5 247 72 61 243 13 61 121 70 193 233 151 114 149 255 88 170 62 245 168 7 166 197 230 243 133 66 157 131 71 148 182 133 135 220 194 0 36 132 233 49 246 126 120 78 41 15 68 209 15 234 150 77 221 27 84 122 158 58 14 84 124 149 48 196 149 85 73 126 134 11 253 254 143 38 14 133 247 29 212 142 106 24 169 190 2 72 248 224 156 116 90 205 56 105 34 129 254 168 141 148 167 28 18 181 162 15 210 118 53 60 142 45 250 144 187 242 112 100 102 203 172 159 52 73 32 50 22 173 198 56 202 217 224 108 232 135 226 30 60 112 75 14 0 6 74 113 106 68 60 23 54 112 96 157 162 118 60 105 174 92 66 142 10 42 22 212 72 82 64 147 97 34 153 171 146 4 240 146 27 38 3 123 195 63 241 255 175 159 92 82 45 102 187 67 58 253 150 122 39 247 156 112 162 46 3 146 192 157 185 196 161 124 3 188 124 179 55 216 5 40 62 192 199 120 189 244 242 228 56 142 84 206 188 88 197 124 245 103 64 150 250 68 82 179 247 137 47 252 177 171 188 120 131 121 108 193 93 164 57 178 114 43 10 55 185 255 159 117 149 153 242 231 76 50 112 123 118 33 39 109 153 170 105 5 108 37 170 165 158 28 209 252 84 138 174 243 0 184 140 242 183 216 36 76 83 155 51 122 8 163 37 114 196 145 151 93 54 54 98 7 50 12 146 224 41 146 152 125 132 79 112 168 155 252 67 206 212 76 113 39 190 53 162 85 146 199 139 244 88 189 1 142 157 42 150 53 167 40 132 23 186 31 19 62 237 231 230 94 14 42 147 176 118 37 119 52 26 207 137 27 94 21 69 244 210 236 28 112 3 214 165 22 20 42 253 250 73 11 36 55 188 154 149 51 206 41 3 88 78 97 109 104 85 63 131 113 175 200 71 85 180 91 127 183 85 200 205 122 255 202 20 149 214 227 190 146 59 12 197 168 117 200 231 248 41 151 193 126 236 117 239 107 45 54 51 250 145 51 197 231 200 155 97 134 45 117 146 242 88 7 187 147 0 228 59 193 99 35 54 82 186 99 137 166 94 26 17 35 1 68 190 98 119 235 216 63 221 48 197 
152 196 88 125 255 95 224 34 95 50 220 32 187 130 87 214 147 186 215 216 24 58 79 59 18 143 249 66 84 228 6 172 194 6 12 90 40 107 215 5 140 183 135 227 234 27 157 165 243 182 123 66 241 83 209 235 141 38 207 159 210 145 225 222 236 232 74 195 238 214 123 22 185 101 27 86 10 163 12 134 190 254 217 177 233 102 243 184 5 197 74 230 235 54 206 189 249 188 156 116 211 230 217 238 188 228 145 117 106 79 203 67 0 216 169 244 214 174 185 191 148 164 119 99 97 193 31 253 247 242 227 241 225 159 101 114 20 63 194 224 35 194 184 141 182 142 208 111 77 121 19 196 39 117 134 187 114 125 30 86 110 62 245 212 48 10 19 17 234 54 132 162 195 70 48 147 8 125 12 191 65 51 46 199 238 66 69 13 183 179 75 41 135 123 127 154 141 117 208 17 127 147 87 105 38 95 11 50 30 59 101 77 184 84 143 249 97 70 193 172 111 6 39 239 185 180 100 65 197 227 219 28 76 172 124 87 63 154 146 102 231 74 152 118 67 254 188 4 82 44 10 179 27 196 95 127 5 134 98 224 59 174 140 0 5 204 29 151 50 153 225 202 51 36 200 27 41 26 145 51 205 78 247 44 122 252 179 149 221 238 20 105 238 118 53 11 36 103 164 41 50 216 192 250 243 161 21 132 197 226 210 238 15 76 34 194 225 25 176 245 22 158 107 243 170 143 92 78 184 146 38 120 249 25 25 43 158 223 38 112 205 59 189 239 29 158 9 44 148 31 238 255 18 158 143 110 61 71 0 231 192 250 53 217 37 92 184 75 117 134 134 19 117 164 132 126 208 65 157 191 223 175 93 115 30 154 115 30 129 2 24 183 73 62 19 9 137 136 227 16 156 155 180 32 33 132 97 151 67 64 21 161 180 179 59 39 98 189 41 128 116 114 159 135 124 183 15 95 245 171 250 127 203 28 143 44 179 67 109 200 199 33 123 11 72 222 172 113 94 231 227 253 164 95 181 24 190 170 159 185 41 175 213 184 90 136 251 38 80 195 82 204 206 191 170 122 224 8 97 40 6 6 153 187 30 125 101 190 220 143 109 155 71 199 84 67 237 41 6 64 177 212 255 1 78 224 205 175 8 119 181 162 128 212 31 134 146 251 65 255 150 166 198 234 53 180 19 125 244 196 192 243 198 198 211 147 154 220 11 232 126 139 151 157 17 77 152 82 33 47 248 179 25 46 178 45 171 120 241 107 44 183 49 32 75 203 20 86 179 231 225 74 195 242 151 65 68 184 222 60 107 119 106 29 166 21 150 191 128 194 236 177 227 222 124 247 149 47 222 224 
122 162 54 17 227 23 202 194 9 53 57 77 83 223 138 233 158 244 171 139 10 142 105 138 133 254 60 100 223 184 6 21 232 233 45 98 171 54 115 228 132 61 195 14 115 98 2 198 237 12 175 86 151 90 84 211 233 51 139 110 73 115 210 118 213 216 172 73 194 48 134 109 62 249 82 65 191 21 77 110 119 228 201 100 183 178 186 67 32 15 182 243 66 140 203 139 213 141 1 91 251 174 85 77 222 20 98 29 131 218 94 76 62 171 254 249 144 30 8 71 17 74 138 221 214 65 106 215 205 101 133 162 178 100 253 21 129 82 239 223 103 45 138 234 38 26 54 46 98 52 121 236 82 79 45 100 38 250 65 172 156 171 16 154 17 145 236 195 112 83 216 250 61 199 21 115 245 119 167 27 99 250 74 145 94 195 139 159 18 40 74 56 194 91 228 174 31 244 2 247 133 63 191 245 179 180 240 90 207 5 84 25 124 178 220 223 81 238 112 156 39 252 247 11 36 22 0 230 14 133 148 205 123 150 129 107 214 80 112 137 106 236 227 70 203 56 53 60 234 92 56 60 103 92 216 103 66 207 237 214 230 104 109 244 211 67 193 67 204 66 47 175 146 250 231 252 54 210 67 110 14 120 202 230 212 12 181 59 227 155 163 80 143 144 147 80 248 95 146 203 14 37 14 246 33 61 200 100 55 214 220 110 188 176 220 113 236 167 13 143 179 156 31 150 237 23 230 127 226 121 164 240 216 198 45 231 42 100 221 7 210 165 183 175 123 163 86 55 50 9 168 81 160 181 104 134 82 74 0 63 58 216 190 103 191 99 204 156 41 158 65 83 77 188 90 163 243 18 173 156 181 77 81 232 211 163 57 211 226 162 172 161 236 107 4 39 8 45 142 73 128 90 6 219 249 249 237 70 149 162 234 231 138 151 138 196 228 109 102 183 14 82 139 18 121 55 63 8 162 191 98 170 154 91 244 135 162 250 42 140 243 180 35 137 120 7 112 222 190 250 49 73 103 170 128 117 178 35 135 21 205 198 112 193 134 18 187 32 158 175 168 193 56 210 200 168 134 135 162 255 208 10 221 81 127 14 116 7 185 65 205 107 3 83 128 190 116 241 109 28 3 165 238 162 77 116 99 240 115 44 250 81 179 121 95 131 128 24 212 78 132 72 161 4 138 21 245 141 49 249 75 31 155 185 148 254 94 7 42 172 88 221 156 184 97 150 208 53 15 84 126 144 89 8 222 78 149 127 71 224 149 226 153 198 225 248 230 11 164 122 233 64 129 74 214 218 127 229 146 253 117 98 5 83 183 154 211 16 123 104 94 20 46 166 12 20 136 176 142 105 
240 16 117 198 234 94 172 124 168 33 222 39 117 149 37 72 165 42 176 4 197 222 170 64 243 50 84 129 156 97 145 17 17 123 111 2 247 23 200 214 62 116 107 99 150 17 142 11 21 83 83 191 147 3 241 231 225 141 72 212 158 90 86 13 92 231 36 36 99 99 153 90 198 47 48 84 58 156 167 141 173 58 144 194 34 113 129 106 70 114 196 156 0 32 131 158 69 230 172 222 65 208 13 113 51 71 13 250 212 186 78 100 124 246 213 253 48 27 112 82 183 112 189 59 14 129 33 186 162 98 139 231 212 190 197 225 184 210 156 7 25 24 253 237 22 45 81 134 128 38 246 61 66 4 190 249 191 96 52 74 71 86 8 12 184 193 222 140 200 247 110 197 228 10 242 53 34 114 92 56 175 158 190 110 151 180 206 204 185 22 34 120 34 218 194 1 103 202 248 213 139 221 223 83 18 1 24 110 58 11 12 248 125 164 173 45 112 102 155 146 222 105 108 160 127 211 106 162 168 246 163 135 73 155 137 98 120 195 109 139 187 234 249 104 23 6 206 178 170 172 28 26 76 155 172 183 61 24 173 224 236 246 124 148 88 244 28 197 127 165 176 121 104 199 127 35 122 41 140 150 67 90 49 239 7 111 7 83 79 243 10 203 136 183 192 164 174 63 73 6 184 177 204 55 212 124 96 96 67 163 187 189 146 194 83 154 21 133 141 32 244 21 215 67 185 133 15 2 140 207 179 88 14 136 212 199 232 23 254 163 213 95 101 40 2 123 173 149 155 161 47 114 229 188 248 244 210 132 195 139 220 209 142 176 152 65 199 151 201 156 246 178 197 248 85 114 141 187 20 188 54 249 121 209 237 75 67 176 214 59 129 100 191 26 166 155 177 111 75 167 33 19 159 119 175 45 50 116 233 104 231 98 57 251 173 124 244 132 184 225 232 119 145 142 19 18 254 94 44 31 113 221 150 33 132 200 149 36 48 124 81 105 119 58 230 107 157 158 76 74 21 221 206 40 240 183 135 28 69 248 250 67 25 126 99 175 162 249 43 243 194 163 46 242 14 203 92 91 21 66 56 228 224 40 155 245 69 224 30 63 36 165 189 135 157 96 128 183 83 66 102 129 53 145 76 145 52 98 211 67 70 179 158 225 168 214 193 198 255 229 107 68 108 9 131 237 192 64 47 38 160 100 183 244 245 236 117 200 47 194 123 205 36 36 163 106 234 162 75 86 230 12 95 105 242 31 170 94 69 74 75 252 62 123 232 180 223 23 118 213 228 154 157 136 4 25 42 79 61 17 91 39 122 77 125 36 172 220 111 247 251 173 114 64 97 82 61 215 39 37 
113 196 61 117 221 33 196 26 169 32 66 212 109 191 229 25 156 95 17 151 132 131 216 243 213 21 160 252 58 2 193 119 217 158 153 75 185 66 192 251 22 133 186 251 165 86 91 18 238 223 44 198 210 61 219 114 192 21 116 150 141 78 146 38 153 83 104 89 242 127 222 171 122 131 166 213 150 96 180 194 183 134 255 165 249 191 107 109 85 70 187 232 91 84 59 232 174 45 14 140 216 119 16 126 246 166 223 112 104 150 70 103 59 250 38 166 129 124 236 122 100 71 231 159 48 163 205 62 247 165 181 165 36 171 50 3 28 66 153 98 232 212 92 80 122 221 183 102 87 221 173 63 89 221 226 189 28 217 93 209 127 42 125 177 207 153 243 243 251 219 246 87 43 143 53 226 99 140 191 221 203 25 67 173 214 241 135 51 206 6 93 234 183 45 188 170 32 57 133 23 210 176 166 205 146 10 36 81 231 89 106 43 230 65 28 177 116 234 95 210 213 230 255 145 236 31 202 163 54 156 77 221 105 210 231 141 130 206 231 20 249 205 101 21 126 208 0 221 17 213 195 133 102 175 87 48 82 86 204 159 118 53 113 172 194 243 137 169 7 112 118 109 63 245 61 56 210 78 78 150 211 78 69 43 35 152 129 137 55 247 185 169 164 133 156 45 186 164 158 124 17 221 38 78 21 156 156 99 145 111 177 100 154 212 250 28 93 63 19 22 215 183 155 15 229 85 184 131 210 84 96 248 248 117 148 9 217 38 87 138 138 243 95 132 99 188 195 253 211 155 25 110 170 45 196 98 228 150 182 201 142 175 76 34 184 172 72 16 34 210 3 251 86 102 133 26 100 228 181 125 161 95 170 116 193 143 226 119 88 166 38 165 60 223 81 202 239 115 237 242 110 53 89 244 8 189 216 94 58 121 120 229 237 45 116 208 140 204 118 77 113 179 197 195 125 235 54 106 202 165 160 185 153 168 172 113 6 5 235 127 194 216 172 252 168 57 225 31 134 85 210 75 34 79 55 147 186 1 86 90 187 141 2 103 50 8 108 203 135 46 60 52 42 39 109 12 0 243 97 168 63 131 199 118 23 153 119 109 233 50 250 163 153 44 253 5 247 255 51 52 7 94 91 143 106 91 195 203 4 48 79 203 35 102 101 98 211 78 216 206 241 80 250 238 130 242 237 28 38 244 33 129 131 85 221 70 179 225 118 29 172 154 232 17 252 55 95 213 157 80 37 113 62 167 63 43 195 57 32 229 43 163 58 81 234 237 211 96 10 176 250 242 145 247 42 61 204 199 79 241 56 174 152 119 255 92 177 61 65 220 105 123 46 137 104 1 44 114 177 22 
100 66 119 142 127 113 86 206 104 142 125 52 6 124 37 183 185 190 147 34 26 193 171 91 194 216 214 115 238 62 181 101 176 53 215 20 3 63 163 128 116 249 252 153 135 182 87 141 216 113 68 132 204 216 92 162 153 74 224 92 176 144 207 135 165 133 198 72 186 58 65 189 212 200 62 43 86 58 157 154 240 105 114 201 12 12 77 236 104 169 125 55 243 34 188 163 106 118 42 171 52 241 115 114 43 201 172 255 100 157 43 214 102 200 226 179 49 74 92 61 130 79 42 62 243 167 181 29 201 233 14 51 91 58 222 7 57 81 164 100 27 10 44 127 189 94 85 25 155 56 105 197 130 92 108 4 121 53 67 136 104 248 194 70 225 251 152 60 96 179 67 140 50 232 234 135 242 134 191 176 75 66 201 184 70 50 237 137 142 86 129 8 156 98 144 52 158 82 231 226 77 25 202 173 161 188 58 96 108 36 162 54 170 233 104 246 114 247 174 244 255 155 86 143 241 245 225 142 215 46 194 161 220 170 93 22 195 202 58 100 0 229 197 104 219 103 95 137 80 94 36 195 237 22 183 206 164 13 253 102 2 217 16 217 239 212 122 41 56 216 14 253 162 233 101 162 114 181 10 151 120 106 173 47 200 81 61 182 183 63 132 200 25 129 156 147 90 212 107 73 210 13 115 55 175 129 236 186 107 101 36 221 148 236 116 209 162 33 17 39 114 42 168 42 189 3 242 41 76 142 54 191 98 230 65 52 160 172 107 196 137 88 176 254 189 83 31 81 122 146 35 34 188 52 37 174 94 114 60 27 49 158 68 114 211 123 30 62 97 168 150 1 166 83 197 197 165 117 87 200 200 19 252 66 193 90 101 253 117 138 156 186 252 111 53 46 173 150 160 68 151 191 151 92 103 60 209 13 4 154 210 0 220 42 90 65 61 208 204 255 138 200 252 191 246 152 85 151 7 236 86 181 72 189 249 25 202 144 179 156 205 144 198 209 209 4 210 157 3 44 102 255 252 92 152 134 243 159 69 73 84 154 6 77 134 208 222 206 109 171 232 51 124 155 55 78 43 58 123 253 58 119 154 210 254 0 113 67 93 198 222 80 19 100 154 241 51 160 156 27 113 25 182 222 103 226 17 226 223 73 90 121 131 88 122 189 155 215 143 121 39 1 222 193 199 17 98 218 44 211 204 226 177 104 196 194 129 163 11 233 29 143 203 151 76 37 110 220 125 149 221 25 87 164 146 185 126 112 140 74 129 61 179 173 255 52 144 11 29 84 154 233 248 230 14 21 194 140 172 159 165 26 67 55 175 194 168 6 12 41 191 191 215 75 244 103 136 17 187 136 
250 179 147 9 200 45 149 116 19 58 142 214 113 62 117 25 68 185 67 4 123 26 79 135 129 216 71 60 96 59 240 243 76 184 32 71 45 51 80 187 9 229 249 127 31 62 56 144 66 179 170 145 58 237 105 129 7 201 188 136 188 9 196 220 80 180 16 160 109 25 133 154 152 164 85 208 52 79 131 222 141 190 203 207 63 210 96 252 90 202 5 31 147 85 211 80 245 64 44 122 218 60 30 48 86 82 127 238 49 12 191 252 219 66 207 59 0 41 5 64 72 153 60 28 233 65 92 21 150 55 82 139 103 168 5 230 150 35 242 85 117 205 152 166 8 152 163 14 216 114 167 20 155 144 85 228 165 235 0 247 118 92 159 123 147 54 158 250 139 20 224 35 186 210 188 93 159 148 207 168 169 107 182 254 79 93 234 79 237 96 171 146 220 63 138 122 57 41 142 26 95 73 236 235 166 140 14 118 52 202 225 234 95 48 71 8 127 52 6 42 198 240 105 80 81 163 122 45 189 217 167 169 196 54 53 211 127 105 157 37 83 252 155 154 4 124 206 11 172 149 251 43 229 76 86 95 121 191 57 33 98 253 87 31 208 214 201 110 251 254 106 151 104 111 19 187 122 192 86 117 235 36 194 65 185 59 1 159 92 99 254 179 131 55 137 76 53 133 74 5 28 178 115 47 110 222 239 196 77 219 232 199 28 162 60 29 65 254 129 63 58 4 119 150 80 172 74 154 177 211 77 37 88 187 3 116 127 80 164 103 23 147 9 83 110 74 82 139 138 140 168 1 34 41 173 108 45 94 64 125 131 152 24 134 13 101 214 177 32 237 68 159 65 179 6 147 62 16 31 230 90 65 16 228 174 61 229 238 187 146 134 211 241 147 56 116 68 88 251 137 247 209 60 253 191 122 13 0 96 104 147 112 76 178 174 50 243 105 196 161 60 181 143 116 42 22 204 37 169 195 246 238 192 181 119 206 181 179 54 72 45 130 250 141 180 238 254 121 143 172 46 31 21 88 53 81 125 222 197 116 204 145 41 67 84 223 246 20 39 35 226 34 177 24 16 175 155 159 91 79 190 112 200 243 193 247 210 134 79 158 23 205 226 107 65 216 127 106 252 98 73 173 122 113 92 21 147 183 101 163 39 45 66 232 36 1 110 116 244 133 65 198 240 130 101 111 236 71 209 54 31 76 167 27 97 58 200 198 221 36 244 31 219 24 32 2 140 21 234 205 219 88 79 64 221 60 135 205 114 167 61 25 194 14 83 139 90 48 175 188 79 139 130 112 141 118 133 120 143 96 208 27 161 174 233 40 123 56 207 184 116 146 199 230 29 33 255 204 221 82 
87 96 130 229 214 210 93 101 66 45 129 199 219 106 39 87 162 200 15 23 241 214 253 192 248 253 82 213 79 111 53 210 60 12 164 147 113 230 120 242 173 213 92 212 3 255 157 222 22 142 53 19 78 69 16 161 27 96 16 19 50 76 233 214 224 30 188 88 42 105 46 156 61 49 142 218 15 235 104 69 234 183 138 0 88 165 19 104 185 36 181 162 132 149 192 182 237 235 140 27 135 72 76 21 177 92 0 238 161 234 201 43 234 49 208 254 232 137 34 64 43 166 169 236 92 94 215 232 243 94 48 224 115 225 252 116 207 72 94 152 164 73 202 69 71 178 112 105 243 65 15 156 202 107 250 246 83 237 226 131 205 185 100 201 23 51 18 138 204 182 254 150 252 93 72 108 166 59 173 237 215 120 86 209 110 101 190 80 208 140 9 35 85 32 166 103 170 10 30 169 61 26 6 9 134 172 159 52 153 232 172 239 35 26 84 251 106 36 204 115 71 139 147 237 23 61 247 108 230 52 212 236 62 242 152 221 12 49 197 146 32 233 198 116 228 114 152 176 140 223 59 246 204 82 105 195 191 252 248 147 58 54 133 32 19 145 13 217 35 165 194 234 215 166 92 247 86 233 108 146 223 4 228 73 228 163 69 176 54 127 116 187 160 108 76 173 162 112 82 181 90 41 142 182 33 80 159 141 246 127 145 77 200 117 223 13 38 195 141 154 103 45 6 157 218 168 89 44 93 165 86 236 21 119 60 111 4 51 38 149 128 197 11 95 68 49 34 12 203 137 26 209 39 167 121 128 212 214 37 174 194 59 218 255 170 48 50 208 167 178 150 171 17 218 65 51 231 76 189 1 125 228 168 72 100 124 25 137 42 146 196 4 104 111 53 43 63 220 42 213 136 92 176 201 14 151 21 31 152 146 82 64 218 15 188 243 243 230 133 87 234 237 225 31 24 165 252 66 20 132 158 84 77 172 41 98 203 217 244 30 112 206 45 8 193 33 72 70 120 4 51 89 234 76 255 213 142 19 244 45 103 240 217 145 116 165 106 193 195 219 35 240 227 23 17 44 229 138 48 166 227 27 236 226 240 32 246 228 108 93 213 250 238 73 39 89 11 1 52 46 166 23 70 105 67 43 89 116 210 107 143 190 245 127 222 216 99 74 187 56 69 177 130 108 14 141 109 253 187 19 86 1 124 138 45 214 161 255 65 229 189 54 89 156 14 232 230 201 103 43 122 202 152 137 3 5 134 133 25 220 18 149 102 205 107 7 207 172 236 252 226 69 251 241 45 184 186 148 84 53 95 59 190 98 102 68 231 254 32 249 4 134 198 29 141 149 178 122 145 30 
191 140 202 237 69 173 129 153 158 224 212 88 66 59 141 41 57 75 34 61 143 233 90 175 126 13 53 16 43 195 156 245 61 225 162 252 123 64 233 79 153 107 138 38 75 196 114 142 1 1 183 92 177 218 105 230 195 148 169 65 137 230 81 44 227 238 108 204 207 5 55 74 44 131 154 158 17 36 159 200 232 80 162 234 55 101 70 224 167 175 199 248 67 170 230 204 118 182 248 174 0 101 49 154 106 66 191 150 10 167 52 173 145 212 18 215 36 185 134 91 178 201 60 152 150 3 78 142 173 79 243 35 233 94 209 168 244 2 80 41 68 225 253 79 185 33 252 63 125 14 9 185 200 159 188 122 45 105 18 33 140 97 127 94 176 115 96 153 156 165 66 153 244 146 187 240 115 56 254 44 241 198 108 173 64 117 22 83 20 162 180 65 0 100 98 97 253 225 6 63 85 250 209 241 234 69 139 232 113 70 175 221 126 239 82 111 66 102 28 246 168 50 90 10 212 88 236 213 151 65 54 105 50 60 174 189 54 31 3 32 253 129 8 79 240 183 182 12 167 94 62 233 104 19 224 84 232 58 149 30 146 200 90 42 133 144 147 137 176 65 10 184 96 251 112 93 7 23 173 70 0 99 89 224 193 65 27 41 95 173 126 185 215 19 73 106 219 249 171 97 177 12 234 33 105 244 56 22 239 57 121 247 25 58 61 52 100 150 226 226 215 185 245 54 36 209 239 207 50 56 219 28 49 69 16 226 91 0 4 213 247 60 15 52 117 115 202 143 85 161 195 75 215 165 28 198 95 78 254 131 106 47 82 122 17 46 122 21 115 113 82 206 165 199 163 111 86 179 16 26 38 231 191 124 173 30 199 171 161 227 218 244 49 236 34 155 1 149 21 83 99 144 27 7 1 113 186 167 139 224 22 75 92 39 105 35 14 11 6 188 255 55 103 33 210 66 182 232 46 25 120 47 32 121 131 218 32 158 187 55 15 23 94 155 59 108 230 65 40 79 121 144 90 75 210 89 51 0 122 171 47 48 37 178 74 69 80 106 124 96 69 218 251 0 71 225 23 111 48 82 255 139 148 209 228 13 209 95 88 1 143 140 179 217 55 4 68 92 100 137 162 95 137 30 64 160 249 112 243 64 251 135 175 224 148 175 63 236 128 206 120 82 168 176 83 236 12 6 117 174 10 254 205 110 158 198 205 145 6 13 24 181 126 172 100 121 153 229 89 17 55 152 193 138 103 206 144 15 124 155 251 73 9 112 15 215 110 21 228 12 203 98 158 47 220 182 20 53 99 75 206 252 213 53 13 102 68 207 1 63 157 10 175 25 225 29 99 198 41 114 
40 199 136 4 126 83 58 225 130 8 221 151 61 234 226 129 185 184 192 86 30 111 112 31 140 211 41 181 69 11 125 205 209 251 32 249 220 163 254 185 58 56 163 28 64 93 212 125 179 242 254 35 17 190 246 59 45 60 70 185 9 23 110 42 16 235 205 14 230 7 70 194 35 134 123 248 3 31 234 1 124 252 191 47 55 236 83 125 165 73 148 20 133 164 255 143 179 230 185 249 168 134 128 36 141 131 67 176 133 191 168 68 238 147 49 65 143 214 139 198 234 16 67 234 159 215 208 88 123 120 222 46 156 107 40 223 28 168 158 196 43 141 87 176 206 230 245 89 172 38 106 239 252 9 198 231 98 66 209 64 112 161 172 152 25 200 64 182 140 108 149 228 28 52 202 17 193 119 55 143 102 52 233 45 27 83 111 236 92 223 141 190 120 166 255 184 92 171 36 242 115 65 38 255 82 231 227 138 118 174 190 95 37 217 178 139 197 15 184 82 205 39 248 204 7 85 119 127 71 234 55 109 234 92 84 205 157 202 123 239 42 160 121 220 44 55 235 228 16 185 12 213 133 19 39 253 146 32 231 201 117 209 37 188 159 194 41 26 178 125 187 43 71 231 99 113 203 115 78 215 73 57 234 112 242 124 144 120 70 5 117 107 193 92 46 234 46 224 103 205 11 175 231 110 32 162 226 110 137 43 168 85 155 154 44 44 18 23 49 135 147 243 228 217 221 18 69 69 223 115 244 198 83 20 105 94 131 242 205 43 71 175 197 116 218 216 139 117 95 30 161 67 248 211 85 61 198 52 176 163 251 3 232 100 97 220 86 46 241 158 221 116 18 183 159 157 45 100 187 206 60 179 161 156 240 103 223 160 11 53 163 243 105 5 208 100 51 193 200 17 53 31 200 212 189 245 56 207 196 117 108 101 17 39 205 240 219 216 37 203 203 143 108 155 243 15 92 188 20 145 219 72 101 152 89 158 103 33 19 211 23 36 250 219 20 213 64 58 161 13 201 13 229 188 28 177 120 49 76 83 121 169 235 210 58 82 243 160 37 10 62 32 229 81 245 38 117 150 51 137 163 25 195 192 202 140 241 22 73 106 191 193 60 250 21 47 154 0 58 216 83 31 41 120 69 158 152 121 39 142 146 235 36 92 119 200 114 192 136 50 130 121 44 151 227 198 151 31 158 234 78 199 99 136 101 251 168 140 137 237 119 174 102 239 118 248 175 254 84 49 119 199 200 90 249 96 121 37 74 199 235 173 80 137 169 248 80 50 229 181 224 76 65 86 68 185 84 153 168 203 96 87 37 89 137 158 126 81 102 105 177 182 242 252 174 66 169 147 247 82 
223 56 133 36 241 101 189 153 188 29 241 16 118 122 220 244 203 1 93 125 160 79 121 6 145 34 188 136 117 106 192 250 253 178 95 221 75 27 1 60 44 190 182 8 219 130 9 81 255 169 69 120 175 162 154 107 241 15 213 130 9 211 10 105 176 202 132 177 124 176 111 200 184 74 4 194 155 187 107 224 61 27 130 60 134 115 180 92 245 78 47 255 94 223 201 103 144 70 208 255 14 85 73 18 5 228 205 190 196 10 128 70 70 235 185 250 6 174 73 141 173 167 233 118 14 24 188 223 247 202 52 135 221 57 134 170 247 207 181 119 179 251 99 119 246 105 189 63 246 118 230 223 36 244 247 209 211 238 71 7 117 4 65 251 206 56 202 171 176 125 86 19 244 11 124 177 6 115 39 252 82 75 59 74 28 33 56 100 22 174 104 233 169 54 241 116 226 50 241 56 106 230 67 26 151 73 45 191 70 170 10 129 29 39 163 111 139 185 185 243 162 242 41 147 160 11 197 73 67 48 189 134 74 175 208 120 149 22 34 44 151 63 235 58 174 246 243 104 29 150 90 168 41 250 155 239 67 196 31 1 208 105 176 19 225 69 154 3 113 106 66 93 128 241 83 23 89 112 82 179 24 69 173 179 219 240 119 5 241 71 244 161 91 19 230 245 124 88 95 94 181 223 97 8 246 164 120 72 149 144 142 238 67 105 161 186 110 78 2 98 62 93 117 48 82 242 209 177 80 184 144 177 16 134 85 197 207 234 205 93 216 69 198 121 213 53 199 24 151 6 210 13 54 212 255 7 49 79 191 131 0 207 52 86 148 196 64 97 75 25 166 26 146 123 119 90 147 61 96 102 114 150 58 10 157 108 23 93 239 22 44 36 101 193 232 101 34 51 187 201 77 252 68 196 21 216 2 167 62 116 1 120 126 97 228 149 247 212 171 149 248 16 242 224 118 30 20 49 223 97 45 2 38 66 203 40 234 15 156 235 231 27 77 37 176 68 158 92 217 130 108 203 86 226 234 78 20 201 47 65 203 67 132 150 164 110 166 202 89 141 242 166 179 143 235 81 170 196 211 90 144 42 182 122 120 35 67 167 5 15 234 25 165 143 91 75 89 223 217 76 77 140 219 166 221 133 77 176 223 56 218 150 252 83 185 140 250 190 6 229 216 74 116 51 89 205 18 254 25 95 74 244 5 35 121 82 175 89 138 140 239 135 60 168 19 23 102 26 106 62 100 100 113 189 73 131 187 189 226 5 139 232 40 164 58 215 153 197 99 18 76 160 107 95 183 90 121 33 2 221 133 105 154 207 167 86 140 25 91 23 156 132 188 127 91 85 103 191 103 161 
95 211 102 22 45 178 55 48 18 188 153 139 139 64 105 24 89 3 47 246 89 235 117 181 64 220 57 168 125 148 123 228 83 168 150 178 216 168 200 113 52 255 178 157 188 11 160 71 1 250 95 118 175 143 82 232 122 208 124 187 180 208 99 74 130 222 243 75 134 39 74 95 196 6 208 100 78 130 94 173 142 13 60 143 245 183 6 114 114 88 66 213 40 196 179 220 15 57 39 90 152 26 96 105 65 174 235 5 92 121 105 152 9 200 79 15 213 193 103 203 150 144 61 73 108 127 131 147 67 27 173 83 132 238 173 112 243 13 233 93 188 242 37 24 1 250 176 105 197 0 249 2 193 101 129 88 249 197 161 166 24 36 149 197 64 136 210 196 229 142 52 10 166 30 5 87 16 202 87 18 205 24 123 78 112 116 19 18 217 43 54 210 240 118 121 195 59 14 81 111 150 248 141 124 79 158 134 166 176 139 190 43 86 47 159 35 65 120 113 119 75 133 238 196 176 41 210 161 152 104 100 38 228 181 196 107 173 116 246 252 159 76 162 62 111 97 182 225 144 1 102 209 197 22 72 151 183 54 0 27 95 228 209 248 79 126 30 70 123 226 146 29 86 2 126 245 227 14 51 73 223 233 95 40 235 23 94 176 50 190 72 3 182 72 130 212 44 253 182 124 26 12 194 153 1 84 167 52 86 135 29 57 175 8 130 13 185 226 203 1 249 129 73 43 85 117 47 11 241 177 23 179 174 24 8 200 76 94 97 106 152 9 114 26 144 43 252 63 44 245 76 117 33 24 235 80 153 220 1 239 144 175 250 152 119 18 246 217 42 142 226 119 169 114 225 165 177 83 155 253 127 188 21 171 12 175 33 13 158 12 188 152 232 51 170 120 12 213 16 238 76 7 96 45 149 17 128 62 15 255 228 36 171 127 211 204 59 113 216 71 10 192 84 180 57 16 137 73 67 213 80 80 2 230 62 131 36 159 130 8 176 45 135 191 249 194 228 209 9 183 146 93 41 203 109 51 20 177 231 101 1 113 75 63 70 111 222 73 120 143 204 255 78 78 194 50 124 203 234 117 41 19 71 150 70 217 71 45 164 72 158 184 136 229 29 102 46 104 245 250 216 68 72 80 118 196 79 96 58 17 115 129 221 185 90 6 231 254 156 133 182 228 106 212 44 152 60 180 146 20 27 219 100 16 159 180 84 217 197 203 90 162 43 180 168 159 178 69 88 105 41 63 61 85 197 121 10 47 142 37 200 242 53 90 166 138 53 108 85 213 14 128 174 183 31 9 252 120 189 37 183 112 122 124 217 132 172 22 169 116 143 223 206 29 105 4 16 190 217 182 
62 135 34 94 144 49 214 78 232 141 190 228 10 151 9 182 173 131 42 60 8 248 90 177 252 106 144 213 32 249 93 67 183 237 116 246 59 92 84 249 64 42 144 73 183 61 204 193 122 212 119 212 134 161 62 22 154 94 16 150 161 199 108 21 189 201 113 17 182 177 59 242 250 243 235 199 180 124 155 44 185 33 205 51 56 103 7 72 254 69 15 106 164 205 51 69 222 233 91 26 219 204 13 199 126 193 67 120 237 252 63 187 48 219 34 55 252 32 125 52 138 33 124 189 102 140 167 193 89 130 142 55 73 12 81 140 132 94 137 196 32 185 159 13 240 155 200 109 208 235 142 76 11 245 216 150 182 49 83 68 105 250 80 186 125 213 25 198 153 57 83 56 70 220 211 15 149 163 250 133 240 5 243 200 155 129 250 239 118 99 233 45 29 102 113 54 45 194 111 128 151 182 92 48 197 241 104 191 118 59 196 105 223 96 235 207 79 97 151 56 142 145 159 0 244 204 194 18 76 89 72 168 137 184 153 241 110 15 44 51 121 11 242 100 218 182 197 114 22 84 3 101 84 248 158 22 10 61 111 82 9 248 10 85 233 120 253 21 171 150 33 157 165 251 84 30 109 106 130 113 208 72 105 110 156 115 171 240 197 180 6 208 9 117 72 6 109 244 156 86 145 65 107 229 96 140 80 226 136 32 42 245 142 198 102 57 182 207 237 188 66 246 49 8 252 158 216 152 244 32 217 96 20 57 236 166 28 116 139 70 106 219 13 208 251 195 160 137 128 226 194 177 234 175 80 194 165 68 227 161 164 247 57 145 157 19 5 41 76 111 4 104 64 0 175 224 137 188 194 76 127 173 251 255 111 161 177 82 66 1 74 124 69 231 143 234 16 219 123 21 68 128 21 243 240 158 175 48 234 46 16 230 46 210 135 223 127 201 224 239 69 37 65 212 15 139 176 138 115 244 11 131 231 251 152 150 43 173 196 59 76 242 13 54 209 141 28 177 124 163 215 189 109 230 73 178 113 188 135 124 63 55 119 216 43 162 133 18 221 209 168 234 8 108 119 36 95 243 200 48 177 53 226 250 231 185 182 110 159 245 165 16 205 208 140 83 226 3 36 138 165 44 247 130 81 86 109 25 134 228 78 104 216 53 33 137 164 193 131 73 209 57 26 94 46 252 97 252 135 7 79 126 137 115 212 246 160 90 219 241 195 179 10 228 60 88 165 191 141 119 248 49 213 38 123 54 34 149 61 113 145 199 229 24 189 133 150 152 118 106 75 128 197 135 216 136 70 101 108 62 151 18 101 18 137 135 167 94 249 56 148 222 81 210 99 231 153 217 82 86 
89 23 239 49 159 58 150 11 194 45 29 8 63 166 71 230 4 172 31 153 51 112 107 44 87 4 10 169 90 109 192 73 70 95 132 159 107 70 208 136 78 103 47 149 148 51 65 212 204 117 186 55 161 217 59 172 73 150 25 161 223 96 74 99 255 11 169 208 106 248 55 213 141 203 94 207 159 141 68 90 192 229 51 141 145 125 196 171 30 0 11 104 150 10 115 117 218 222 217 17 179 130 221 17 122 124 158 8 214 95 215 10 236 27 135 176 0 165 176 146 13 70 61 129 188 72 95 149 82 18 23 45 36 146 62 194 154 27 33 113 152 13 140 110 190 140 120 110 30 255 181 91 164 113 163 178 6 246 51 29 35 146 175 97 164 73 125 200 186 21 139 70 131 172 211 252 186 241 251 120 77 160 230 240 82 155 230 133 12 9 23 18 107 187 48 232 132 223 253 15 41 128 187 227 124 117 42 120 237 253 24 212 238 106 111 59 239 124 44 6 142 18 193 190 28 69 158 135 84 199 111 16 170 108 133 212 236 115 209 105 71 192 225 182 251 249 50 39 99 193 58 82 127 86 88 29 221 25 228 76 95 143 184 179 99 164 195 53 13 73 245 238 188 240 231 3 24 74 185 82 156 236 168 244 173 133 14 44 209 109 74 137 32 46 45 228 189 59 45 33 41 233 86 17 236 75 91 165 59 248 145 83 236 62 165 250 107 77 103 181 210 136 227 163 108 161 44 153 194 90 130 24 149 110 99 190 19 158 207 165 242 43 227 151 35 78 229 15 3 183 10 231 91 113 136 135 249 74 225 101 98 118 254 197 53 128 99 4 238 85 47 2 237 82 167 210 98 138 137 108 217 228 221 220 108 215 195 77 60 75 196 59 149 249 187 247 253 170 188 45 172 32 127 83 117 225 221 98 77 182 52 43 147 190 2 86 162 62 162 14 121 55 92 53 47 32 223 235 25 139 11 22 222 129 67 187 227 195 114 24 164 5 214 242 91 120 29 253 135 31 53 227 93 100 3 215 79 28 12 91 50 235 220 118 118 191 57 84 215 221 15 173 207 129 38 236 134 173 11 226 144 105 223 147 64 20 175 76 120 225 55 200 87 173 35 144 1 255 110 16 190 61 146 150 42 24 67 53 250 105 158 218 22 222 238 166 42 103 57 97 47 232 14 82 202 15 81 33 32 15 178 178 165 32 202 233 93 197 82 135 159 105 189 141 15 91 244 73 58 35 49 100 117 251 198 198 29 212 214 207 228 123 239 4 100 76 182 183 212 128 32 145 69 47 236 228 120 38 114 170 139 102 165 81 138 194 37 255 145 9 198 128 13 156 205 195 23 161 68 124 
50 137 51 30 110 83 69 224 130 208 70 251 33 208 165 70 208 74 80 150 13 93 50 158 33 73 31 101 197 236 238 248 141 92 75 191 60 206 221 131 201 34 83 110 242 35 184 19 185 197 90 235 100 170 53 131 7 250 111 40 243 252 141 62 187 124 12 152 216 213 187 21 67 173 152 252 193 235 193 27 15 37 197 200 168 204 180 23 245 233 19 130 227 206 254 214 103 215 21 34 236 33 207 132 247 144 111 58 171 126 54 112 71 248 61 251 29 50 228 198 180 199 221 179 158 241 138 179 191 118 212 38 250 203 72 105 6 24 232 60 168 47 52 84 42 82 196 14 24 1 213 245 51 115 230 232 38 166 155 251 204 37 198 21 155 204 45 149 9 213 254 61 41 230 143 238 21 167 239 63 157 35 77 131 11 35 41 166 150 246 203 189 11 102 184 56 251 126 13 249 75 55 224 84 37 245 145 20 53 33 55 130 200 66 165 101 232 60 233 179 249 18 25 177 8 20 47 19 14 122 75 238 206 89 227 96 144 24 129 181 155 73 201 64 175 1 124 152 67 117 170 44 38 179 223 86 198 249 208 18 13 159 107 27 255 251 9 128 176 237 201 121 5 120 122 160 16 190 225 187 234 93 110 201 211 52 194 249 70 208 79 177 235 32 172 245 191 92 226 190 214 231 62 80 136 7 14 105 128 248 198 144 194 153 75 132 147 185 84 226 238 64 2 52 53 193 230 23 127 146 254 189 239 134 197 197 239 69 21 182 213 36 79 33 28 226 218 222 197 200 99 199 253 183 137 227 247 8 117 44 198 100 67 139 41 66 208 63 200 165 99 184 198 127 110 161 94 189 105 193 160 102 120 101 73 112 44 191 156 181 35 224 190 77 34 132 140 234 15 239 162 223 110 16 132 204 206 75 141 110 236 6 211 85 118 255 188 18 181 5 242 115 196 20 247 232 255 6 53 161 229 193 178 105 176 128 180 30 238 160 235 193 246 120 192 178 126 117 183 244 232 124 7 223 100 249 229 153 14 202 90 13 52 10 174 232 40 96 137 19 224 127 140 206 49 10 143 232 255 80 100 6 197 200 255 174 97 13 141 187 26 115 197 201 61 238 41 113 1 10 90 141 216 227 152 104 98 151 184 147 157 125 123 156 43 224 170 185 168 196 44 10 141 105 197 183 219 139 193 53 121 153 24 122 1 122 8 185 13 160 55 136 55 98 104 212 27 17 112 71 27 26 177 224 223 140 107 108 193 228 35 217 95 228 83 103 126 96 7 127 232 62 57 81 18 112 98 130 210 125 157 238 93 124 53 201 232 230 173 12 114 12 240 51 115 110 12 122 238 95 
184 39 191 202 151 168 77 105 249 234 87 91 102 141 216 78 115 53 90 230 254 75 25 172 185 38 184 167 133 44 206 69 166 101 237 95 207 230 41 38 65 118 179 25 96 39 78 198 13 77 21 38 249 111 76 177 186 210 221 116 23 132 27 4 227 234 234 12 79 43 131 30 68 227 69 146 170 248 223 191 31 216 46 44 138 233 83 103 93 159 235 120 113 206 98 136 219 178 140 94 208 118 65 21 161 235 14 229 170 45 120 217 90 87 194 173 48 31 76 186 151 190 33 250 70 13 172 211 219 124 73 182 146 235 20 160 208 86 205 72 65 39 160 236 212 208 197 33 138 135 223 171 166 37 184 61 248 148 55 66 74 227 45 95 96 253 181 242 70 246 146 230 226 95 182 167 135 64 46 91 235 212 124 164 18 91 56 73 129 130 45 121 225 141 187 150 127 232 141 17 230 111 112 44 23 247 18 69 83 200 26 207 8 44 43 243 117 172 151 162 37 207 47 225 82 174 201 51 191 175 202 48 219 87 39 237 198 122 181 221 74 189 35 117 177 61 33 72 105 70 24 222 39 106 129 241 157 176 160 103 95 124 190 30 105 133 78 31 98 118 220 133 240 141 194 58 214 43 175 238 10 208 88 139 23 245 59 62 93 154 47 27 185 208 160 7 76 3 125 181 136 110 212 75 168 177 118 88 62 128 40 20 11 63 2 71 126 90 225 173 80 154 125 173 162 201 200 31 127 105 141 83 108 54 4 244 142 67 63 182 87 182 246 90 54 116 180 66 33 4 137 159 177 106 104 122 5 231 227 167 59 79 198 63 67 84 130 131 138 218 57 24 52 111 206 232 177 196 237 58 56 158 165 90 24 170 249 251 81 97 74 23 73 142 107 132 17 245 195 74 13 70 185 220 32 107 160 84 165 217 60 74 51 41 244 44 200 69 141 224 93 214 220 200 90 38 190 30 180 203 100 197 167 132 15 72 216 201 33 20 52 84 62 217 128 6 36 13 230 24 228 194 94 62 233 187 92 157 131 192 99 65 68 114 13 28 59 180 49 111 252 111 73 29 117 109 113 91 133 241 30 227 255 7 158 227 164 34 33 7 99 126 122 112 62 181 37 131 37 33 159 110 63 208 219 176 63 96 162 180 68 161 16 226 132 46 4 165 53 104 35 217 216 98 225 253 229 91 31 132 16 94 85 53 14 148 163 176 73 126 81 89 223 213 135 35 123 188 5 158 149 10 0 118 114 229 209 74 106 226 72 191 23 103 83 187 197 156 57 211 245 24 132 124 59 213 56 65 171 206 75 38 68 189 196 22 7 197 248 79 170 15 182 20 202 123 211 4 79 39 
28 211 195 88 168 185 153 83 53 228 121 110 161 62 60 168 3 128 248 173 150 174 194 142 42 149 158 121 188 104 76 128 108 244 57 137 72 110 225 193 220 122 255 24 94 2 153 255 176 47 167 114 190 159 7 92 78 196 196 120 68 49 241 125 186 61 235 155 49 200 21 121 224 115 59 121 114 58 169 25 61 103 185 237 195 7 95 135 127 102 184 112 42 114 173 110 13 222 235 34 88 215 149 147 159 7 205 127 33 10 249 218 247 162 225 86 9 96 189 204 208 231 83 125 86 12 91 65 126 179 24 140 70 183 174 20 55 68 30 48 75 22 210 108 108 219 70 41 167 39 17 250 135 103 6 87 168 133 212 193 17 48 120 191 227 175 3 42 223 79 62 177 187 92 140 2 114 51 41 223 46 177 8 52 8 25 185 221 128 202 13 41 138 240 234 141 26 98 220 88 18 152 181 241 154 39 163 195 6 47 116 15 99 125 40 145 90 169 197 103 210 127 87 188 73 114 30 211 202 48 97 127 34 61 167 197 213 173 244 111 188 87 51 229 232 167 142 174 36 96 45 126 28 118 229 58 74 61 107 171 175 141 232 121 82 190 249 70 45 160 158 96 77 134 8 10 52 44 239 97 171 125 216 144 221 34 205 249 205 124 51 181 246 158 115 239 43 161 143 125 1 220 196 9 230 98 54 213 232 225 82 29 113 47 126 63 40 86 187 92 120 177 250 69 160 38 251 47 163 110 12 103 15 242 201 17 200 178 26 26 207 80 74 77 49 114 164 163 206 28 226 201 98 157 239 93 79 146 203 239 250 219 31 195 236 43 117 6 29 68 87 229 146 136 0 54 43 74 82 13 188 180 171 139 17 250 84 221 233 67 184 8 213 164 51 207 170 81 147 1 54 8 138 54 77 181 128 223 195 61 21 110 200 103 104 28 28 81 95 45 90 52 10 141 4 194 222 151 102 21 159 17 75 236 18 204 203 156 9 224 82 209 72 21 237 100 131 76 145 235 128 156 60 132 94 150 27 197 36 187 214 2 167 232 23 115 133 99 83 215 47 155 236 56 255 111 9 145 90 246 45 150 66 139 45 194 80 81 71 38 83 98 15 107 29 148 206 197 107 253 56 87 53 139 198 62 39 32 52 38 182 118 183 227 56 228 52 127 112 136 226 192 243 255 231 193 196 246 190 252 138 243 136 245 49 175 76 101 213 18 219 141 50 19 113 232 147 225 204 117 162 0 116 137 136 57 127 123 53 9 60 189 254 250 108 74 237 66 92 30 207 142 131 64 118 94 34 66 114 196 67 5 77 203 122 204 71 238 213 131 39 211 126 93 29 107 26 121 138 135 
7 13 201 125 108 152 192 222 216 3 227 250 206 93 190 21 75 11 153 115 215 23 208 172 130 234 127 12 113 156 26 58 21 134 210 28 100 171 154 71 165 90 164 100 93 239 111 43 98 71 65 50 243 218 29 115 241 142 15 115 201 37 128 155 65 154 70 219 32 236 53 132 80 146 203 191 190 111 6 255 94 250 217 193 109 202 243 124 61 16 161 189 159 227 87 104 190 119 3 244 251 74 134 198 54 68 53 134 67 148 69 28 85 76 230 72 70 36 89 179 225 248 47 57 96 209 176 99 180 172 173 114 114 227 102 168 105 237 60 175 49 145 251 117 217 65 145 50 244 120 42 35 156 138 244 125 238 168 182 155 27 103 127 129 19 232 110 133 151 160 45 146 21 105 211 166 250 199 30 212 235 186 6 223 56 49 136 238 187 163 85 169 36 104 69 147 238 196 51 27 172 72 133 68 238 127 214 13 83 170 199 90 113 255 139 92 238 70 60 67 240 196 172 53 103 154 249 139 181 165 30 58 233 81 186 192 153 13 106 136 103 219 149 242 56 92 57 116 92 41 56 74 94 159 141 87 42 57 252 73 211 230 154 137 166 52 195 16 188 125 235 81 139 35 173 242 151 9 229 207 83 30 110 225 71 153 26 165 226 238 252 124 119 248 176 58 222 108 184 132 189 67 148 107 53 128 116 26 163 200 56 59 169 127 10 195 36 121 177 32 18 40 25 244 99 247 112 27 124 33 94 16 141 147 144 75 174 52 182 230 111 42 102 121 242 138 242 155 171 4 95 196 248 16 187 105 57 55 138 156 72 23 183 216 98 21 12 24 168 123 67 86 245 53 61 231 209 163 236 48 45 228 64 216 77 121 156 215 21 88 239 204 143 81 225 215 106 138 176 173 224 188 226 29 56 179 192 45 227 238 20 36 198 0 157 99 229 179 187 50 127 74 10 97 34 249 235 210 74 203 142 180 233 198 97 169 243 68 151 8 247 94 8 219 193 237 255 124 32 156 198 42 79 232 35 207 186 109 48 73 34 27 15 131 230 3 199 207 11 191 121 19 154 16 1 153 110 33 53 47 75 133 171 110 84 114 219 132 90 253 159 21 129 133 94 72 85 109 7 206 112 161 222 123 58 77 143 112 124 144 245 40 177 73 154 252 205 244 106 108 9 69 241 103 67 70 213 196 20 69 12 243 193 20 64 80 181 188 224 240 228 145 96 126 141 85 115 247 158 124 60 107 228 127 215 185 67 200 254 80 15 191 100 35 15 25 22 239 9 86 128 105 19 13 190 247 4 92 118 65 199 233 192 158 101 4 103 73 84 118 2 184 153 1 209 176 192 219 6 208 
68 25 191 3 17 64 95 135 77 39 112 82 197 213 147 44 31 83 162 33 87 60 34 171 236 227 99 242 179 53 12 114 16 29 178 84 164 0 87 20 82 183 233 229 222 8 56 163 42 144 208 76 59 114 47 159 174 226 212 154 85 228 141 7 56 153 7 144 182 89 71 90 62 37 110 119 200 87 7 152 96 66 11 138 225 185 214 181 84 6 153 225 232 210 122 61 98 48 69 169 138 76 206 248 166 150 79 228 47 175 91 58 57 98 243 16 165 71 22 134 40 254 60 162 60 213 210 129 167 92 205 9 84 115 178 164 88 128 83 179 23 141 22 70 157 187 128 179 65 115 177 125 187 237 83 227 110 250 134 60 4 88 175 182 181 7 55 9 187 78 173 209 148 1 140 20 142 205 135 43 75 66 222 158 38 143 152 172 125 156 4 235 83 185 39 138 195 215 216 112 222 108 113 153 128 255 106 7 42 246 74 8 196 112 152 15 28 21 173 32 0 69 218 40 226 157 255 53 13 221 191 127 119 151 126 225 3 169 216 131 177 156 138 73 171 212 94 88 68 95 157 96 135 127 129 134 180 91 99 115 248 218 10 5 188 13 132 148 144 3 48 27 172 219 239 93 51 52 167 208 148 5 80 21 100 4 112 235 120 104 113 130 110 213 144 242 175 32 245 107 59 161 255 43 255 47 95 166 10 243 171 61 9 16 14 121 251 94 226 109 98 80 66 218 66 241 93 56 93 237 217 92 13 216 140 73 126 150 116 42 212 211 58 226 198 53 64 207 162 162 73 228 125 43 214 218 123 51 199 189 143 212 245 27 29 207 178 145 167 134 100 38 104 43 80 168 250 138 74 67 191 199 110 98 161 233 70 104 167 28 61 156 79 90 107 223 236 19 250 80 57 172 123 137 50 118 19 154 185 210 66 40 52 141 17 123 84 184 151 246 85 231 94 192 198 155 211 192 246 12 109 226 149 159 50 168 58 174 123 124 36 175 9 221 42 94 5 194 84 23 169 178 207 111 78 36 47 68 229 156 38 184 60 88 197 118 6 90 242 42 3 252 8 126 90 13 45 174 36 88 96 244 26 174 24 195 242 253 50 24 182 97 113 123 254 119 213 58 162 216 176 170 86 162 183 132 158 220 220 248 208 246 166 232 185 7 230 235 181 156 76 168 23 74 192 236 132 49 197 52 169 27 215 75 159 117 245 123 110 172 113 20 136 42 27 88 21 209 65 98 121 39 172 57 195 49 107 218 101 20 198 60 95 139 178 84 167 32 0 70 52 137 194 80 225 51 33 34 94 154 73 115 211 12 213 62 230 130 82 173 179 177 56 24 5 223 85 6 38 7 
143 232 39 112 27 91 147 121 171 220 237 204 233 194 102 207 68 58 124 247 120 181 16 203 148 101 124 186 108 130 162 147 136 190 238 23 55 154 135 36 102 26 231 205 247 43 7 224 35 127 175 51 74 44 152 199 225 4 73 117 151 209 48 133 232 210 31 111 144 134 138 200 83 129 236 90 97 211 217 16 255 36 60 34 235 29 85 52 147 237 5 195 241 237 149 136 92 38 13 230 238 45 103 218 179 200 174 6 217 173 96 21 207 57 51 36 93 198 17 72 137 2 124 30 138 129 68 151 110 50 196 203 13 119 177 187 125 25 104 221 225 55 23 186 91 116 208 108 189 3 110 57 201 248 187 82 143 41 112 84 244 181 203 166 231 73 191 244 38 160 175 61 91 23 178 43 78 111 46 169 168 247 21 99 73 131 141 185 123 129 110 11 39 86 95 230 74 42 135 250 115 226 17 154 13 96 215 59 9 137 50 31 248 123 162 161 52 30 4 163 41 145 249 136 19 67 178 58 61 38 33 79 192 168 175 151 138 184 33 151 215 25 210 122 186 4 152 191 127 193 80 179 73 99 86 251 158 79 33 191 147 225 103 208 121 241 31 154 136 206 179 90 135 110 94 94 45 221 216 125 144 112 225 231 49 127 54 122 62 201 118 165 154 151 150 185 121 30 136 242 120 15 140 214 109 63 179 70 173 67 182 218 42 232 88 97 98 57 42 216 184 196 112 246 126 233 155 6 219 49 21 103 79 130 166 199 200 84 157 127 46 80 103 134 147 201 191 190 162 119 31 18 109 73 251 8 14 214 57 140 61 136 146 227 79 167 55 236 41 102 60 242 236 208 113 172 142 216 35 173 161 145 246 67 153 4 85 211 144 80 91 34 38 171 201 99 151 243 71 212 229 126 164 86 228 50 46 209 223 207 125 213 19 160 218 104 49 106 185 203 141 223 158 86 67 249 73 138 164 46 8 60 132 237 16 178 190 180 130 59 230 149 219 197 253 13 154 182 216 116 150 118 223 217 111 108 99 20 194 107 80 12 88 96 58 22 20 191 81 250 113 45 191 243 58 89 136 18 206 134 136 173 60 247 25 210 11 219 171 91 231 14 187 34 122 207 225 210 201 82 233 136 70 58 226 206 103 176 84 161 93 145 179 118 99 59 81 15 51 57 29 62 91 151 154 60 106 85 142 83 37 212 141 238 163 245 119 247 150 89 136 74 9 236 133 102 251 184 220 24 247 45 176 145 102 26 230 193 109 11 253 250 250 140 239 113 96 134 202 3 208 211 251 85 57 131 14 21 111 5 66 106 150 169 131 124 106 51 136 104 77 130 244 186 243 84 180 189 88 164 
144 83 42 201 214 250 222 70 79 32 176 93 201 51 98 52 102 248 156 179 117 144 109 253 228 34 127 60 198 114 143 240 47 102 234 191 172 57 136 92 151 102 144 249 134 246 242 80 170 103 132 23 100 32 57 227 176 255 85 148 239 132 209 217 67 96 19 203 198 170 49 114 163 183 207 149 7 95 252 139 85 96 171 255 67 91 23 152 240 80 28 193 80 95 33 63 42 232 25 91 90 44 19 41 214 26 136 121 166 222 15 81 221 11 173 244 108 157 69 175 94 149 72 127 212 100 103 237 196 194 25 238 235 239 74 116 105 93 82 120 119 47 131 29 36 239 111 105 159 28 254 231 185 210 75 23 192 15 150 217 254 254 201 72 192 50 165 171 170 28 31 45 58 113 29 169 161 188 197 197 163 126 46 238 149 44 254 43 254 252 41 190 68 233 152 233 149 97 5 180 147 63 38 61 232 199 106 173 140 135 43 186 67 192 230 230 236 228 213 21 163 211 255 59 207 148 156 19 72 47 252 110 108 1 53 214 65 193 94 41 123 161 215 97 136 2 70 93 195 233 48 175 36 255 196 192 18 195 239 14 87 91 15 160 49 80 14 143 122 68 49 81 5 185 83 129 22 22 226 70 197 40 69 138 17 87 77 53 101 165 245 116 69 228 197 83 63 63 151 113 144 157 0 227 30 49 250 0 234 191 41 0 73 58 70 151 112 139 60 101 226 129 74 71 212 137 188 108 250 129 9 251 192 39 44 80 39 23 51 80 23 45 139 94 237 251 233 54 96 204 205 170 19 9 52 207 138 46 80 95 41 16 203 86 96 212 109 148 251 132 193 34 226 174 115 204 229 254 152 178 249 171 188 89 123 70 4 203 165 56 220 112 102 60 68 144 208 63 230 146 98 83 64 213 215 37 211 186 216 204 134 148 37 30 218 41 201 128 97 68 240 200 16 53 88 236 116 62 40 214 145 249 171 104 139 126 34 203 74 168 241 112 198 201 153 144 93 251 212 55 195 228 183 27 208 168 89 249 221 234 242 81 82 125 40 117 72 211 29 57 82 228 2 156 116 95 12 72 151 166 45 78 161 253 246 100 246 211 127 232 37 216 101 77 194 174 32 20 231 114 137 234 15 167 73 27 139 224 193 255 47 98 71 37 198 116 249 69 114 30 29 104 107 223 81 139 244 182 254 125 100 13 36 76 40 175 54 234 174 127 76 246 96 19 106 143 88 220 180 118 69 173 85 150 203 73 76 54 199 177 194 235 253 192 155 51 205 73 178 245 63 18 223 170 161 44 134 86 63 203 3 151 97 207 13 174 5 99 95 199 172 92 135 115 143 84 95 65 74 250 
84 41 67 245 85 131 75 148 45 79 44 179 30 57 127 35 156 224 235 73 142 114 188 237 199 27 73 17 21 216 58 89 26 144 220 110 36 9 99 80 188 175 138 59 254 38 28 28 111 170 63 44 152 42 71 225 157 93 186 100 182 212 117 146 66 175 155 165 63 87 84 100 147 82 180 175 110 62 89 174 101 241 216 212 211 117 0 141 217 72 97 78 165 163 254 91 72 61 237 157 161 136 239 86 223 94 148 114 12 249 33 228 206 123 90 206 108 51 22 63 130 187 204 128 22 45 189 3 208 95 139 25 181 107 182 73 221 165 67 255 3 17 122 15 223 230 244 246 38 78 177 242 129 200 32 3 203 240 131 87 9 65 194 191 160 159 101 85 158 104 158 24 120 225 255 108 242 37 186 210 23 59 200 55 63 121 40 194 65 49 3 13 241 163 100 86 248 38 190 151 197 54 120 100 162 107 124 92 61 123 152 5 160 215 126 184 153 192 239 157 205 23 64 49 73 57 87 58 208 28 144 72 128 78 179 253 133 240 120 39 245 25 132 116 209 28 52 192 243 1 216 140 50 33 41 137 91 106 165 235 163 38 57 115 35 190 187 155 230 111 180 106 95 133 134 85 70 121 201 30 5 253 63 47 254 154 153 48 133 60 185 190 175 94 125 106 132 99 217 167 205 57 67 83 142 247 204 87 125 209 84 195 0 82 225 153 130 32 213 59 186 132 153 63 239 30 253 200 197 122 1 8 221 143 0 170 230 125 253 58 64 201 140 33 155 14 65 155 73 251 53 227 58 10 1 55 143 198 178 126 207 143 70 207 58 72 76 55 215 140 1 190 173 156 248 238 55 133 233 108 147 35 119 221 90 6 192 12 132 193 156 202 135 214 18 86 13 234 37 14 168 113 170 160 253 226 37 170 78 185 152 197 150 129 203 86 164 79 23 255 26 158 11 44 245 167 22 26 125 190 140 139 95 137 153 132 52 68 61 204 38 211 78 116 41 242 58 64 241 5 223 253 85 212 164 111 238 34 155 122 173 178 4 70 112 56 138 207 4 176 84 82 37 145 69 95 101 54 100 142 51 185 207 216 40 174 250 196 130 167 118 112 237 230 235 120 182 239 40 10 39 77 155 43 172 0 126 17 143 195 202 94 249 243 12 45 183 142 5 45 254 255 19 233 166 201 216 147 211 255 11 111 43 52 111 169 129 254 108 46 92 101 63 104 146 9 246 151 252 245 150 179 222 60 224 183 208 244 182 219 189 225 15 145 138 145 0 246 191 111 92 254 110 238 7 202 134 4 51 28 183 41 89 152 30 41 140 253 4 73 180 20 218 106 165 218 76 100 74 214 
98 184 205 105 130 41 109 181 23 37 223 157 189 253 186 73 250 19 146 174 60 109 25 64 71 101 84 145 59 249 73 8 93 204 49 191 129 73 41 96 230 150 94 160 187 88 179 120 7 239 193 32 48 84 133 132 193 192 126 8 201 219 154 250 155 227 67 196 175 42 90 49 202 22 145 126 142 239 109 80 72 157 164 79 34 101 111 160 109 244 123 7 180 22 235 125 218 154 120 53 203 187 75 93 229 217 76 176 41 148 46 205 227 155 50 82 57 160 70 91 167 251 251 146 120 118 45 240 141 248 172 103 85 145 156 162 65 231 54 111 193 26 11 234 108 68 184 179 159 234 174 154 138 38 16 50 23 157 196 195 5 241 84 161 234 150 137 63 5 74 225 16 52 24 84 236 50 243 215 158 141 97 81 158 147 255 59 88 38 64 73 61 226 51 0 107 115 84 181 84 234 233 108 240 214 158 0 173 61 85 14 142 72 162 142 214 250 180 116 67 241 175 119 241 240 234 69 210 62 48 61 171 32 242 73 32 219 134 117 177 21 190 94 163 148 109 87 8 15 72 183 9 57 167 76 126 121 195 174 182 173 206 168 236 239 132 151 100 53 224 34 148 103 182 1 124 190 16 31 118 25 118 29 101 190 151 41 247 77 214 117 246 194 36 122 89 242 175 58 225 67 161 70 68 29 104 84 60 31 109 178 221 211 112 83 252 103 113 210 220 8 149 0 85 238 243 75 40 212 197 201 26 117 230 131 184 34 162 253 212 127 81 68 211 191 171 68 146 136 76 142 136 161 96 123 237 245 80 178 228 106 39 12 237 224 214 143 221 188 15 46 223 226 237 179 38 127 248 114 13 163 19 110 43 0 99 180 179 71 47 218 84 127 186 42 234 151 230 215 198 197 103 179 121 118 51 113 88 64 20 126 174 64 240 18 244 3 89 35 4 173 163 183 215 141 145 190 100 76 131 203 227 252 65 169 109 153 93 130 23 144 194 7 208 182 11 127 217 15 145 124 198 234 9 87 152 110 163 111 57 135 45 123 48 177 20 141 173 44 29 27 51 238 157 62 109 95 77 254 21 19 232 238 107 128 107 14 240 116 149 29 226 198 206 28 83 124 151 113 151 171 95 52 215 204 147 11 202 168 73 178 150 151 51 1 170 35 118 21 64 88 36 15 116 185 139 11 127 34 183 211 86 142 68 233 153 163 145 227 111 39 122 57 41 36 235 159 58 30 247 94 65 108 23 130 119 151 145 46 106 28 189 174 62 86 81 148 57 192 125 179 249 14 216 228 53 18 3 94 112 68 253 135 198 245 30 87 97 136 115 216 54 177 7 135 69 196 71 194 26 
64 208 84 37 6 7 40 100 223 108 98 241 51 87 97 138 184 233 254 144 7 175 151 144 245 91 198 183 118 78 136 202 149 142 209 214 242 177 251 84 162 35 171 4 143 99 237 194 244 244 77 139 132 75 231 75 250 93 153 239 39 46 167 248 4 47 169 255 189 76 34 175 80 178 4 61 116 175 49 193 19 182 12 7 1 7 146 154 246 121 200 157 214 205 204 253 204 137 246 239 57 159 161 61 235 21 236 59 215 255 120 227 6 170 234 153 96 225 18 97 126 233 251 75 230 195 212 220 144 13 124 93 74 103 76 55 163 237 54 27 2 61 197 217 214 37 189 232 134 167 209 129 136 184 69 7 148 213 82 16 50 38 120 126 52 27 107 126 54 110 181 252 71 236 33 4 41 168 172 255 41 52 231 110 59 185 68 141 113 118 180 5 245 232 22 96 102 142 206 28 169 22 8 223 26 49 219 198 48 253 251 23 165 54 208 206 196 65 61 120 71 129 96 93 247 198 235 236 226 148 77 234 115 27 27 79 49 75 76 76 99 241 18 51 191 13 117 252 68 188 125 8 25 117 128 4 97 224 152 174 166 11 202 137 90 251 115 166 71 143 151 90 218 87 103 61 83 171 113 209 179 230 70 51 162 167 19 187 86 186 191 32 67 87 27 182 98 99 69 189 189 32 99 36 93 251 208 206 82 131 180 165 183 86 118 202 17 188 132 208 100 199 39 186 126 138 218 195 71 245 227 170 88 65 165 21 15 247 58 196 157 10 26 19 141 44 208 68 252 52 15 36 238 147 174 200 91 245 189 217 159 22 156 69 43 128 60 101 193 217 111 208 237 253 148 189 65 175 241 80 219 223 228 215 167 63 251 100 24 169 122 180 158 166 52 62 11 245 131 123 198 191 120 90 153 185 9 134 10 228 67 238 188 52 45 183 19 69 97 186 249 255 30 46 61 153 35 192 63 233 128 74 68 25 197 77 159 61 50 226 247 238 22 1 165 41 239 6 227 28 6 1 97 67 154 90 4 217 136 132 36 172 157 233 149 60 39 217 30 30 39 52 31 89 93 14 71 64 42 236 65 139 243 220 229 249 181 110 60 217 26 64 195 175 196 234 137 97 8 176 157 39 9 187 53 80 239 95 60 76 234 47 140 207 40 206 61 101 170 87 165 95 7 106 57 144 203 252 64 105 230 73 36 238 153 20 21 213 96 74 5 237 169 45 187 147 146 101 98 56 196 160 162 253 247 109 249 254 214 223 142 251 205 206 15 226 23 111 44 176 92 213 134 23 104 139 124 203 184 65 107 75 62 98 131 56 97 37 23 239 146 229 190 105 199 213 100 244 134 115 
201 12 226 50 151 63 253 79 86 104 154 211 202 29 20 43 66 82 27 213 138 217 62 162 174 162 135 52 21 78 64 247 66 215 54 12 39 141 62 193 96 59 223 116 163 33 198 109 246 81 153 52 243 180 214 122 141 235 200 59 227 11 112 25 23 176 166 85 136 6 144 175 122 51 112 65 160 79 146 57 113 133 237 103 255 122 156 199 182 114 210 38 94 233 214 65 62 94 90 206 13 1 1 126 7 162 205 130 219 62 195 201 166 85 67 66 218 249 180 217 31 18 160 246 83 115 84 174 92 98 175 155 224 182 105 173 56 107 236 251 13 146 80 232 212 42 177 136 3 245 155 164 238 238 23 14 156 115 4 75 14 88 2 120 186 58 227 154 54 240 72 134 216 52 177 138 198 180 127 154 88 109 34 111 123 189 227 127 172 241 216 72 105 146 148 76 45 150 60 117 208 21 169 6 159 111 141 30 9 62 139 43 242 7 233 75 134 149 186 94 221 157 241 113 143 30 7 248 147 216 69 60 222 129 171 107 150 180 169 53 223 156 83 200 231 223 93 161 230 59 63 108 172 206 203 180 198 188 140 11 218 106 141 109 214 35 169 127 89 84 27 172 8 2 139 231 164 113 176 227 222 13 177 169 72 119 101 245 131 63 169 16 172 53 51 85 159 140 169 117 57 177 245 196 152 16 54 72 19 20 86 183 189 158 154 34 147 75 97 60 194 13 113 69 98 17 85 11 134 137 188 123 21 84 140 78 157 159 19 243 86 73 145 240 93 37 59 26 97 253 60 211 67 157 228 152 170 106 33 12 230 55 23 114 133 211 17 152 39 103 225 196 87 62 183 146 88 73 143 148 110 210 49 207 107 219 162 140 231 134 195 254 241 73 209 215 225 249 73 195 189 90 1 117 193 90 190 24 238 44 170 32 251 57 251 158 12 227 36 119 225 21 3 179 236 199 172 53 16 105 143 241 222 80 180 156 104 182 200 18 16 196 76 254 98 88 30 134 207 26 156 210 253 136 153 222 190 169 145 77 155 61 158 79 167 6 5 133 25 21 34 101 20 234 189 50 174 140 76 16 94 73 151 248 40 51 161 185 187 60 247 121 140 158 199 145 35 101 167 69 107 187 48 132 237 222 233 58 239 166 131 134 50 171 185 145 101 116 137 92 238 42 250 181 103 29 26 243 99 133 132 147 10 43 113 243 230 96 154 212 230 204 14 159 93 145 20 230 61 2 17 162 183 120 254 209 107 248 86 239 21 96 27 120 84 1 11 238 213 125 186 227 221 24 117 196 254 178 99 15 84 119 135 82 121 242 74 48 226 95 1 253 216 88 254 227 184 212 96 12 
183 62 250 44 2 181 222 101 205 50 221 203 132 86 219 206 135 98 46 136 85 6 224 55 233 153 52 74 165 50 136 160 6 138 85 190 239 34 234 204 237 201 35 200 251 170 43 128 50 128 78 19 183 124 172 235 130 81 29 108 241 36 182 70 226 62 104 204 200 86 149 183 30 145 132 73 17 167 201 95 81 128 220 131 107 94 150 137 202 66 173 128 148 143 190 133 91 134 204 241 62 52 130 194 138 147 105 169 242 186 242 206 61 188 45 212 60 247 22 168 120 170 49 54 48 222 189 252 109 251 48 200 189 187 185 38 100 59 224 86 206 29 18 193 241 79 143 8 247 188 178 40 180 226 6 44 222 115 98 15 59 31 202 245 26 46 48 215 132 255 253 151 192 221 230 79 251 221 12 236 5 192 244 11 236 167 126 78 137 185 110 104 174 136 119 223 96 65 222 93 111 158 59 243 237 54 138 249 34 112 185 23 77 165 190 82 244 71 93 98 175 219 234 38 149 74 103 67 168 214 34 227 202 0 25 84 158 59 197 140 82 18 133 16 101 63 88 194 228 7 158 216 46 51 58 149 118 37 108 153 111 54 153 23 138 56 250 79 196 19 98 73 79 199 136 161 137 109 178 39 69 10 90 128 17 209 165 63 106 20 213 3 44 65 59 38 119 255 58 1 73 137 81 209 42 179 62 220 122 132 230 3 4 248 43 169 55 133 189 12 86 233 77 192 16 196 196 74 198 255 211 23 255 253 202 72 218 68 25 192 71 88 184 114 220 240 248 224 252 78 137 74 15 70 14 211 48 212 210 64 235 209 138 181 25 93 249 51 90 65 139 52 179 103 245 171 71 173 250 208 157 9 22 154 220 70 228 174 134 242 128 16 199 153 109 178 204 200 104 87 252 97 190 241 162 5 159 86 213 60 1 236 214 251 50 186 4 185 173 224 201 116 143 55 38 15 255 142 168 251 240 117 237 146 204 140 232 139 200 234 144 159 229 102 89 234 82 6 202 132 122 89 61 161 104 7 47 17 62 31 134 61 178 82 56 154 221 37 132 110 177 106 212 122 84 38 25 30 170 114 120 232 121 224 239 243 241 45 148 119 106 196 202 162 227 167 200 149 21 121 48 233 243 180 15 12 30 186 127 114 162 248 145 145 235 9 190 128 233 40 68 219 202 39 82 146 189 28 12 237 196 255 161 217 12 192 195 139 50 210 131 195 140 110 204 46 238 182 191 50 145 125 90 227 165 23 0 112 4 196 2 165 157 14 101 96 14 152 51 26 91 191 165 40 238 40 222 173 150 111 43 133 82 208 183 82 64 17 22 67 40 180 81 44 20 95 210 71 121 55 
7 30 207 245 70 43 162 221 83 205 98 49 158 25 160 222 43 242 33 83 69 115 128 91 210 82 15 76 137 36 106 89 107 177 132 114 142 215 103 240 8 10 9 168 215 52 154 117 136 223 84 8 59 117 90 74 232 227 110 187 60 218 7 192 76 113 151 180 34 159 190 176 71 149 160 226 11 170 193 95 222 252 212 102 71 189 110 181 120 200 143 127 172 220 240 232 144 19 169 78 195 64 227 100 224 238 14 39 77 236 9 34 83 203 223 193 199 87 138 14 214 54 196 198 30 83 217 199 47 157 8 191 1 232 13 15 15 241 251 25 223 78 228 45 16 171 79 154 186 46 208 126 133 238 209 91 182 1 33 190 192 251 166 206 152 181 191 153 206 158 168 178 203 163 94 26 242 24 72 2 150 205 156 103 40 108 104 74 90 41 69 16 247 221 206 182 118 116 84 30 42 32 193 248 58 179 171 131 181 9 80 81 33 121 189 183 195 24 30 8 40 135 229 247 176 91 107 167 121 149 93 58 142 177 238 57 209 163 66 12 245 99 143 178 26 223 202 56 88 243 191 27 234 111 35 85 22 8 235 115 99 121 37 220 178 246 23 244 2 5 87 145 168 113 113 157 169 201 80 105 229 26 216 8 13 239 17 247 98 116 77 135 81 56 126 104 177 128 109 99 18 21 87 131 179 174 76 3 31 49 29 200 58 43 49 75 34 10 191 111 249 16 167 91 120 88 227 229 187 97 251 18 225 174 192 243 177 223 118 206 168 195 249 217 244 28 227 46 139 220 121 51 56 57 139 27 73 71 124 194 89 93 167 26 81 162 249 199 80 161 138 1 123 127 208 94 173 201 59 39 229 115 96 113 142 169 164 10 107 47 103 19 118 184 181 208 128 6 234 10 7 227 137 215 133 55 161 0 94 134 94 190 247 153 103 155 12 211 203 154 230 65 164 155 17 12 161 251 196 169 223 68 128 100 79 33 100 216 168 194 15 159 92 109 59 104 43 6 3 147 71 167 102 89 179 76 84 120 231 51 188 137 151 11 50 251 228 178 190 243 212 26 97 124 130 140 27 133 31 86 45 133 92 224 209 164 88 185 253 21 66 81 32 116 133 4 38 28 248 250 24 89 118 214 229 146 240 5 232 114 138 69 248 92 233 37 21 230 5 87 55 94 203 188 115 241 217 147 236 241 152 98 199 144 244 183 233 221 41 206 34 33 211 11 70 94 241 76 186 40 170 207 229 29 38 190 176 241 175 72 226 118 216 206 45 193 49 86 144 37 120 99 2 190 193 36 10 123 47 180 74 32 209 112 73 130 97 46 202 68 236 163 18 155 100 67 17 244 105 62 
88 107 148 25 144 12 149 191 203 223 224 213 80 41 138 177 87 91 245 67 221 8 222 168 75 239 75 180 45 175 32 193 164 176 206 252 111 153 21 79 110 170 120 248 138 207 84 218 18 49 139 240 217 129 223 36 137 12 212 212 206 120 137 156 116 169 53 137 89 163 52 200 156 190 24 240 152 144 33 35 96 251 164 114 31 45 99 243 2 66 107 139 79 223 52 29 105 141 185 157 85 238 91 109 145 243 254 45 22 94 29 187 208 63 232 51 58 234 118 89 117 197 77 169 226 184 54 155 152 140 137 1 249 26 158 247 72 249 85 101 236 38 164 2 89 222 189 207 56 166 148 133 144 118 61 6 17 213 175 154 214 230 181 116 114 253 109 107 98 89 99 7 92 184 229 25 222 29 191 56 162 80 7 224 86 156 181 5 18 140 235 36 0 93 190 110 201 115 199 44 112 35 228 211 61 195 218 252 251 191 76 2 221 162 158 127 168 177 95 147 213 21 241 147 161 186 7 161 230 119 15 202 74 215 141 36 250 136 228 55 139 193 52 41 64 128 218 160 35 175 181 203 67 86 94 74 247 79 193 7 9 12 222 239 48 216 186 20 16 71 213 68 208 22 196 91 182 231 132 107 178 95 193 17 14 184 96 81 191 106 155 157 89 93 118 19 105 134 91 153 202 43 174 142 134 131 118 10 153 40 105 79 57 120 186 154 201 123 4 101 52 93 194 243 113 43 145 204 196 7 247 114 141 125 246 87 135 143 229 241 223 91 105 153 132 50 21 189 151 73 87 89 60 91 132 205 185 73 212 42 187 97 246 177 184 237 65 158 106 32 249 241 185 125 226 206 59 75 23 146 126 84 238 21 33 167 111 246 209 243 87 199 60 16 180 248 174 30 169 167 15 234 37 242 10 96 61 196 242 187 146 224 209 170 135 64 254 88 51 31 31 112 21 211 104 109 241 17 125 1 252 43 243 6 210 48 202 247 236 93 87 189 7 74 253 5 42 48 36 178 160 58 10 8 167 42 26 36 253 22 79 239 28 33 240 231 25 227 68 112 19 75 186 255 80 229 188 116 151 185 174 161 234 85 203 138 121 201 147 200 184 173 234 168 195 3 139 223 115 158 198 46 158 10 19 90 85 170 20 165 75 254 26 23 136 200 224 27 30 152 200 151 64 139 96 203 107 74 105 49 77 7 60 192 98 145 238 118 55 1 116 81 171 252 25 247 24 55 14 224 207 238 108 47 134 215 121 198 8 198 145 68 134 250 214 117 2 13 118 100 94 34 218 119 25 78 175 39 74 126 21 98 173 155 67 38 97 175 236 242 134 114 236 142 231 238 211 94 82 169 
128 44 182 153 122 20 192 197 139 213 39 58 112 106 184 209 25 101 195 159 139 175 46 119 158 1 234 240 170 209 29 96 47 151 116 175 92 255 72 132 58 8 238 242 221 8 88 77 167 227 30 213 91 225 214 69 145 128 22 47 224 70 31 84 245 60 84 62 212 142 70 48 128 36 180 216 113 163 188 144 171 23 113 82 92 2 40 114 49 254 184 81 127 174 141 95 236 97 180 50 146 8 86 70 150 200 233 22 88 148 239 201 231 171 204 15 194 253 13 30 78 140 144 220 236 73 61 160 247 207 168 227 22 62 21 255 84 108 148 67 52 123 238 140 138 176 85 151 206 33 36 95 31 16 168 109 176 159 73 88 130 135 150 151 86 234 3 108 46 55 108 28 195 0 205 25 123 155 58 5 250 89 156 162 199 192 65 16 208 195 151 128 91 238 216 94 90 110 150 198 89 89 198 135 114 65 163 173 70 112 6 227 12 205 163 6 222 116 169 117 244 234 99 205 174 190 59 9 132 148 103 75 27 253 140 191 87 211 47 201 182 59 118 89 66 125 205 235 74 194 213 40 143 131 158 202 140 1 95 244 191 122 241 68 57 72 143 105 18 27 164 136 238 230 5 164 209 80 254 167 120 203 42 22 141 183 24 28 171 215 231 156 27 70 229 170 192 247 198 250 127 180 99 133 89 7 213 87 238 77 34 191 100 176 102 124 204 145 83 179 72 111 249 243 25 186 143 223 180 116 148 23 107 237 30 235 68 12 112 102 204 69 22 50 146 227 195 246 150 11 114 144 254 198 74 142 53 254 2 78 21 110 46 51 89 194 64 201 175 12 14 243 62 160 89 2 151 112 13 9 83 12 207 233 154 4 121 156 83 195 10 129 193 99 67 214 44 242 10 58 229 74 219 62 86 114 174 148 123 1 150 75 235 164 79 100 176 162 40 74 35 233 230 102 192 241 88 202 84 61 20 129 124 106 187 42 254 150 44 149 8 23 57 132 123 233 207 163 51 30 141 25 193 77 10 228 23 95 75 43 224 163 149 155 225 147 50 93 40 58 135 97 190 179 74 141 202 125 172 70 151 109 233 161 81 118 0 156 195 224 64 218 124 33 5 174 126 154 232 5 46 167 185 86 52 131 184 224 201 2 77 179 128 159 41 23 59 237 184 123 199 185 156 205 153 26 103 21 32 149 195 217 236 172 92 164 83 38 166 135 217 38 104 2 61 181 239 246 84 183 175 144 132 72 11 235 94 168 129 33 194 109 205 226 17 32 187 183 168 24 222 16 62 27 197 23 17 26 25 192 170 9 9 181 192 103 93 68 136 32 47 86 2 176 118 190 29 30 214 46 
46 20 230 244 43 196 14 68 223 184 77 241 109 13 177 203 81 186 235 129 33 237 49 170 171 79 0 129 125 118 149 99 149 192 39 195 5 7 183 82 248 197 96 169 125 177 100 235 50 133 182 100 47 161 179 47 142 48 166 58 148 59 187 187 254 81 194 182 17 186 123 22 100 249 105 200 228 201 77 154 122 125 59 173 172 201 17 82 3 196 141 191 244 140 16 136 66 33 68 189 56 6 182 161 193 154 106 37 52 228 237 111 145 58 57 162 183 60 102 100 251 91 182 11 227 68 45 39 208 101 46 18 6 239 207 112 20 134 84 1 32 230 59 85 136 243 196 239 87 253 74 13 58 45 81 53 85 33 65 131 51 110 114 3 211 134 137 217 135 169 73 194 254 157 181 195 131 12 192 12 26 250 251 107 48 69 141 113 114 192 223 199 195 178 74 76 139 188 246 212 66 244 113 201 183 245 140 120 1 65 114 252 78 162 65 104 19 179 211 242 123 96 164 197 33 47 130 228 3 196 49 117 142 39 106 26 27 107 91 211 103 169 75 168 17 189 91 229 96 214 69 115 156 102 102 30 75 10 226 124 58 112 163 61 138 190 178 230 145 28 143 220 135 161 154 238 134 250 150 203 109 242 50 211 200 125 222 100 249 24 130 156 85 101 90 8 213 236 36 96 200 172 70 98 154 213 92 49 118 202 35 252 157 235 200 123 80 250 147 210 119 233 55 112 241 13 12 21 109 102 193 179 82 92 136 27 141 255 125 176 251 218 155 195 164 235 189 65 190 52 189 245 164 80 2 176 57 111 23 42 34 105 64 171 132 1 170 2 93 165 220 234 105 128 154 38 193 54 91 126 33 255 207 223 176 8 213 199 51 215 48 115 71 181 116 105 183 210 20 147 188 190 19 87 100 212 141 205 83 174 243 34 142 78 42 99 78 93 58 254 208 129 197 69 235 245 23 255 170 211 190 97 42 34 244 183 239 7 102 226 220 244 49 47 87 127 81 145 125 123 19 66 217 254 55 169 253 226 238 187 67 5 221 56 217 204 63 3 175 27 187 224 74 33 95 155 21 220 23 108 30 240 253 85 153 16 55 136 14 123 141 12 179 102 199 242 106 165 14 37 113 88 70 32 244 91 0 11 199 95 251 196 59 148 213 89 28 227 175 170 239 230 16 183 97 122 92 20 159 205 7 229 238 21 64 238 109 7 78 97 204 137 108 161 227 103 132 146 252 116 120 24 43 218 194 135 238 211 84 245 77 66 10 237 49 120 210 127 217 19 8 70 26 235 173 230 125 169 135 246 194 12 208 132 128 190 87 171 180 165 50 190 146 134 54 100 201 16 119 250 
86 146 121 3 120 129 173 0 109 111 12 234 243 140 224 75 55 176 240 105 111 130 239 35 230 184 225 94 178 24 240 43 40 104 173 126 104 26 129 116 4 46 0 229 157 55 149 145 160 4 220 144 39 204 72 9 78 251 33 52 38 73 146 211 199 130 237 72 235 242 119 83 215 20 200 108 165 200 113 129 0 152 77 160 161 155 48 194 208 121 11 98 116 210 229 154 27 208 110 146 35 91 166 235 77 76 180 36 205 180 145 27 84 2 182 133 154 134 254 60 233 114 254 206 12 10 158 122 220 193 214 247 173 35 137 97 72 48 21 217 124 105 219 73 238 117 100 236 177 27 94 176 161 107 186 138 229 150 88 187 142 246 223 23 184 39 71 101 0 195 198 219 13 219 80 113 68 2 140 51 178 46 31 108 184 126 2 17 233 144 7 206 168 191 138 239 36 105 179 234 144 192 197 144 49 10 107 190 61 187 236 92 189 164 218 111 181 195 219 189 146 222 124 28 110 161 133 22 139 21 6 81 165 185 91 16 121 152 203 170 244 137 104 207 248 84 146 212 249 36 178 174 64 32 107 197 55 232 218 61 137 127 246 20 143 111 101 91 25 192 228 130 88 220 214 77 176 207 28 98 126 174 131 233 211 186 209 19 247 90 217 237 111 179 92 212 51 117 149 194 247 237 29 206 58 1 157 86 222 27 5 142 5 216 241 214 235 116 49 196 46 160 120 37 116 171 18 9 109 110 247 139 227 49 140 219 136 106 169 141 249 70 101 234 98 80 94 103 21 140 61 141 177 110 56 195 14 165 49 131 48 20 140 189 239 131 39 152 181 32 223 61 10 65 202 104 168 47 244 229 127 165 84 148 104 98 33 153 229 89 174 114 255 157 245 47 54 170 236 21 231 20 86 177 52 254 224 63 227 96 167 55 244 156 154 22 65 127 111 170 241 110 67 231 158 241 145 138 143 121 158 197 42 211 218 11 18 48 107 185 46 95 85 17 117 151 73 229 65 227 83 132 98 241 118 84 124 5 59 26 202 204 237 164 69 255 212 112 185 2 123 14 19 230 165 92 69 230 63 187 107 162 160 225 246 243 230 49 229 176 253 97 84 67 123 40 179 105 42 46 104 61 20 33 154 89 48 217 20 213 123 180 188 113 168 39 162 141 8 160 238 238 227 105 158 150 210 242 196 59 26 216 92 68 49 140 129 70 98 27 250 30 245 162 69 112 47 77 226 29 59 132 135 217 36 89 203 7 148 229 157 241 41 97 125 170 57 223 198 107 253 187 177 66 43 171 143 13 78 202 146 125 163 182 155 110 190 34 83 91 123 124 189 16 39 246 1 237 97 126 
168 18 94 211 190 91 225 12 158 115 137 45 41 36 248 231 70 155 67 194 10 0 210 93 246 211 218 88 81 1 106 175 238 40 11 150 52 169 105 190 214 74 226 206 189 41 106 231 235 116 206 189 209 17 144 171 17 225 172 8 145 154 96 156 48 202 69 154 243 27 228 39 234 162 229 84 137 200 200 87 241 153 105 220 69 122 153 241 130 41 140 226 10 188 173 155 86 160 55 59 199 124 221 173 152 102 117 130 189 102 214 38 66 158 161 219 55 35 4 124 6 14 110 179 170 250 83 225 182 26 94 13 199 246 72 60 120 37 162 78 139 228 236 72 191 35 111 195 160 16 210 14 51 124 8 57 93 190 236 187 203 63 177 19 90 41 56 33 119 195 94 99 12 0 135 123 229 39 139 164 53 190 104 61 248 58 251 228 182 199 36 19 218 126 207 19 159 128 214 253 170 226 254 33 93 227 133 232 135 12 167 239 51 159 41 104 131 223 165 167 243 160 37 194 103 197 66 66 194 236 85 192 14 43 163 147 14 43 159 107 26 210 84 68 58 251 35 223 154 22 127 29 216 231 197 27 41 234 7 126 175 21 169 114 168 183 50 71 35 214 25 119 1 83 114 27 50 12 95 178 41 131 153 238 153 194 217 114 64 136 141 233 250 148 161 45 170 196 3 82 59 4 154 173 31 179 185 127 7 226 2 57 209 155 235 170 13 132 50 154 70 45 47 134 90 217 112 93 43 17 97 197 213 128 121 16 255 128 189 1 185 118 157 165 88 170 41 41 69 112 211 116 246 6 77 102 51 120 119 141 62 76 234 183 92 75 55 25 203 240 143 203 149 232 204 191 17 105 47 229 20 37 235 89 140 30 205 3 171 26 80 149 146 172 224 208 198 171 135 85 118 190 61 67 175 79 172 68 52 192 3 31 25 50 61 230 88 232 0 228 125 147 231 93 99 55 8 235 228 127 169 170 194 88 255 110 157 61 47 160 140 72 211 192 47 43 223 47 15 28 194 246 4 38 46 129 17 18 222 186 188 230 19 187 101 176 248 39 80 132 150 35 68 197 78 35 13 93 63 60 84 67 108 130 196 46 148 162 84 80 137 101 11 238 32 4 22 51 136 172 227 205 113 51 240 126 87 48 187 165 115 39 3 56 85 87 218 170 217 99 15 109 82 47 189 104 98 200 20 69 204 133 121 85 3 208 34 190 117 18 229 120 66 59 207 182 229 168 238 244 21 200 36 210 44 134 155 126 204 103 230 69 188 250 21 222 127 138 241 130 3 51 65 210 233 38 123 215 97 144 160 70 99 204 59 254 74 95 101 48 229 34 42 177 0 169 246 241 43 11 
37 108 150 14 147 153 230 244 107 134 59 230 82 118 119 156 213 218 204 186 216 246 108 61 159 98 95 202 110 96 55 4 81 202 157 118 190 8 133 249 239 107 111 102 241 68 64 67 255 24 223 107 85 171 205 181 161 59 21 64 63 102 10 220 221 65 229 98 11 212 205 202 58 190 195 122 1 51 146 224 119 231 139 118 156 44 225 177 108 175 24 118 234 245 184 42 87 195 6 36 141 235 226 81 191 227 132 249 195 251 115 78 114 5 122 83 237 230 2 137 92 237 59 20 23 83 216 29 72 101 9 159 182 200 195 58 194 165 54 53 136 168 59 75 251 40 153 254 177 19 235 236 249 2 63 85 31 135 106 40 38 66 241 233 167 179 142 94 232 22 152 35 97 206 75 250 118 253 13 114 233 6 112 41 92 91 176 198 93 215 8 124 192 175 165 79 13 150 101 166 73 199 116 49 193 235 85 207 93 160 213 205 157 49 40 135 247 133 176 255 1 96 175 166 55 188 60 248 98 133 71 215 183 172 194 12 115 31 172 53 236 74 4 20 209 217 153 129 11 154 225 2 65 25 2 125 17 177 3 88 109 186 4 208 198 120 167 114 173 105 188 177 136 141 138 116 14 149 136 240 152 33 9 154 187 26 75 252 114 184 122 118 136 125 238 47 55 155 152 253 76 32 111 215 148 44 108 28 185 4 61 200 158 249 184 233 245 193 162 111 219 42 236 77 90 35 195 242 32 178 19 144 77 167 188 154 196 117 113 1 61 221 250 245 226 240 182 128 95 145 106 76 222 12 111 162 54 144 84 144 32 161 131 220 59 150 81 172 61 143 138 1 132 108 3 59 236 253 204 86 237 171 98 77 77 153 153 161 41 8 66 172 152 126 66 184 42 128 148 180 129 230 32 132 117 13 130 249 99 111 52 198 188 1 95 85 172 136 94 249 53 246 154 119 175 220 247 67 90 121 41 133 253 158 57 127 152 90 239 204 103 171 205 202 1 121 144 95 114 239 85 12 120 4 233 173 72 67 36 113 200 28 16 2 149 168 92 146 116 195 18 66 141 1 187 30 172 46 13 173 58 133 12 35 50 98 103 87 102 47 115 174 49 8 32 141 154 48 80 172 216 222 173 76 252 90 142 9 7 74 143 20 120 193 118 178 24 220 214 139 139 61 147 171 108 46 219 158 218 179 43 136 255 124 226 142 90 233 216 86 253 80 95 115 2 238 80 216 176 219 21 200 134 130 84 97 32 231 20 75 21 19 199 240 161 33 120 121 119 90 201 215 67 204 197 65 164 117 180 186 62 4 60 146 223 92 121 101 167 143 198 111 127 218 144 247 238 8 81 143 
223 148 9 164 213 210 26 138 158 88 142 67 234 110 253 99 211 57 242 154 149 113 116 60 104 98 171 185 242 60 78 251 68 35 205 35 173 108 199 60 175 225 170 172 57 125 229 35 23 122 135 140 182 121 238 98 235 224 158 83 219 226 13 169 5 91 21 204 126 196 174 44 112 231 104 85 11 18 207 146 143 133 11 167 231 246 51 133 74 33 103 87 2 108 178 221 57 48 134 231 92 155 206 196 95 217 214 207 107 102 36 119 13 243 109 64 121 183 97 96 14 99 230 192 65 77 241 199 186 77 99 243 18 194 218 232 146 168 78 182 130 91 170 237 155 35 100 253 131 210 96 105 137 161 183 152 105 113 88 204 100 73 142 62 151 32 230 169 215 104 145 129 86 224 164 186 59 39 140 215 145 22 212 72 174 52 185 6 214 29 80 63 91 231 11 65 144 153 170 33 186 0 1 145 186 61 18 71 20 182 93 232 221 11 28 110 17 242 182 97 49 111 72 60 140 216 214 231 250 144 41 251 33 211 56 51 211 76 233 141 52 198 212 81 53 49 67 235 60 117 91 78 177 231 175 135 207 248 23 248 208 56 203 202 107 158 198 84 43 254 27 0 75 80 49 127 59 110 208 150 188 20 126 107 137 77 99 58 69 52 194 16 254 217 174 196 18 217 195 125 217 14 210 11 141 237 121 94 61 53 114 120 160 251 15 4 53 141 56 247 218 54 209 31 251 227 47 190 96 221 204 50 182 89 31 144 183 92 155 41 213 20 36 228 73 90 113 233 81 75 237 34 106 37 5 153 92 102 118 87 152 44 21 184 188 225 20 87 58 233 107 242 205 180 27 62 158 64 137 139 154 243 177 235 140 13 14 2 100 19 47 121 121 235 90 18 67 148 202 174 134 222 99 162 200 1 226 149 140 124 212 61 103 93 74 117 81 174 137 221 39 2 224 129 20 15 22 222 250 156 189 61 62 133 236 32 26 79 156 238 80 4 76 220 121 157 26 2 122 100 5 90 19 25 105 58 248 100 188 181 161 210 58 141 110 84 220 173 67 44 205 143 9 106 44 35 110 166 135 231 1 154 234 106 213 239 206 145 8 112 99 0 253 209 181 218 126 239 6 76 68 15 182 135 50 36 22 186 11 66 84 245 232 41 228 233 186 237 84 29 237 34 239 163 146 109 146 144 185 214 106 111 93 112 147 115 128 159 181 178 148 158 108 121 135 193 102 219 234 83 254 165 246 144 194 137 32 177 95 138 31 189 251 216 48 123 72 230 45 219 132 154 122 11 91 15 231 69 136 229 234 238 117 173 65 150 94 56 32 125 193 27 86 32 150 158 221 196 121 14 
94 244 244 185 3 120 254 139 131 233 121 106 150 186 79 244 242 197 114 179 91 200 212 123 102 177 151 223 191 45 211 179 241 214 43 79 97 175 8 218 25 7 149 105 240 135 46 134 59 137 122 15 4 236 192 155 180 128 201 26 51 186 250 95 10 205 14 18 164 39 25 5 144 9 224 190 143 117 71 10 252 76 246 55 231 171 70 176 197 7 107 191 135 117 141 186 135 49 25 161 54 39 170 22 79 58 139 223 68 136 158 58 191 229 229 6 49 171 13 25 106 148 201 247 78 52 40 104 169 95 143 49 117 222 210 1 190 124 137 92 182 72 65 250 78 115 53 91 140 26 239 85 197 62 138 48 166 51 39 53 100 80 20 54 175 210 179 36 46 105 37 111 100 174 226 153 247 110 179 69 196 121 161 78 169 144 129 208 206 230 32 116 28 207 170 207 244 190 57 25 144 157 200 190 54 191 45 233 4 16 98 165 126 11 54 66 220 4 144 252 121 18 204 35 248 192 225 20 217 113 228 161 47 29 96 92 186 101 108 240 10 235 217 64 45 60 69 190 71 190 208 35 225 200 32 194 220 236 51 192 172 98 221 133 190 151 39 43 135 135 22 97 236 67 157 247 1 228 55 209 8 124 153 40 58 118 20 27 54 192 221 20 69 16 171 108 114 51 244 49 148 224 92 49 215 114 21 15 181 29 139 183 69 198 136 89 225 34 25 191 152 95 207 206 203 66 226 191 115 142 160 207 193 119 65 85 134 246 134 18 173 155 216 54 185 185 88 254 120 240 88 72 190 113 138 161 208 253 47 156 204 240 91 13 69 251 3 203 115 177 102 249 231 31 11 63 30 227 47 118 157 237 231 21 142 184 93 189 84 231 173 175 228 242 171 176 189 30 189 36 23 193 67 35 114 97 6 89 215 163 152 191 185 199 119 22 180 203 254 67 122 226 0 37 147 174 67 80 160 91 17 94 126 131 130 132 220 197 40 116 39 225 59 254 247 240 189 245 51 52 216 51 255 107 225 122 187 130 159 205 224 227 80 98 62 45 39 188 161 78 64 221 77 104 205 10 73 0 63 65 51 62 54 21 184 14 151 88 121 119 59 53 217 121 2 0 53 82 79 117 127 156 222 33 166 39 254 229 104 203 36 159 203 220 173 254 52 39 19 111 92 170 232 94 33 29 176 250 147 48 251 113 81 74 152 79 230 1 26 140 160 229 114 77 227 150 116 247 114 208 161 167 46 195 22 223 189 255 15 184 28 96 2 175 175 232 32 201 117 185 174 231 186 145 125 90 136 239 167 42 150 28 237 173 236 170 172 27 99 200 250 101 120 9 78 152 105 195 81 24 
170 11 225 39 101 143 22 13 32 173 41 169 90 21 211 6 48 192 206 42 106 70 51 205 223 156 51 48 180 129 60 149 68 161 36 238 174 69 21 215 238 43 237 193 216 29 129 50 72 235 56 123 185 7 24 236 77 204 109 44 98 177 93 134 159 153 203 180 58 185 223 233 122 184 192 251 234 173 231 35 203 160 42 19 140 119 142 249 164 166 170 1 115 73 154 213 253 212 91 220 189 39 148 126 224 127 43 91 162 246 86 204 9 61 67 152 221 231 62 105 232 177 98 130 134 12 87 226 85 20 9 82 146 233 47 190 68 195 180 155 66 190 216 228 86 182 176 148 31 244 70 130 219 204 142 196 174 228 70 183 54 157 161 101 178 229 41 68 128 107 2 89 80 183 15 0 117 46 244 203 176 208 95 63 148 165 35 218 114 89 120 32 191 42 216 232 110 121 83 113 94 163 40 223 164 157 56 152 104 71 104 199 117 252 109 38 215 223 101 79 255 136 121 215 225 231 80 160 88 175 136 128 142 220 29 198 127 133 13 35 77 130 188 186 168 36 153 13 33 152 149 248 112 119 71 192 23 192 111 160 167 253 124 0 195 251 128 208 31 158 83 219 35 251 255 112 9 32 42 158 24 195 21 95 92 45 31 204 205 199 140 73 199 252 68 71 249 99 229 189 62 9 141 62 121 224 94 164 220 119 103 229 214 195 131 246 143 153 189 28 198 132 24 147 203 17 220 177 206 32 186 92 132 51 60 194 215 24 0 63 253 95 2 129 214 146 26 172 174 224 162 198 115 95 215 79 227 166 111 175 2 243 96 62 182 26 87 182 77 84 21 37 213 235 100 239 152 102 207 58 248 66 154 166 145 125 108 1 44 68 244 140 234 170 166 236 97 244 42 118 25 129 98 125 214 250 227 171 52 220 155 206 130 106 76 239 173 120 51 62 5 29 63 171 9 52 159 51 222 184 181 63 53 139 182 25 54 24 245 209 18 119 60 70 102 233 21 153 39 97 182 103 217 191 155 222 243 121 138 168 185 41 51 111 226 105 135 23 59 153 48 119 223 37 96 244 157 135 85 3 238 47 157 137 13 83 3 151 19 188 193 6 43 163 174 178 186 225 75 235 74 42 16 133 31 173 252 116 177 92 163 78 228 177 161 210 72 180 92 9 186 95 172 104 27 103 73 70 82 148 248 98 25 67 16 22 109 193 114 140 15 86 1 176 41 164 101 133 85 31 228 158 136 255 167 209 69 84 101 61 187 127 128 13 149 237 111 7 122 127 94 123 64 135 31 79 12 117 0 240 19 101 239 186 132 52 14 12 113 201 222 241 214 67 222 70 194 88 197 87 
211 6 95 243 85 189 104 85 68 123 186 80 53 63 64 68 75 47 13 41 99 228 109 212 42 47 197 239 135 163 245 230 252 75 163 207 160 231 194 91 55 42 154 119 165 229 166 219 15 9 31 124 221 44 171 162 16 50 69 58 24 65 42 187 17 31 162 211 106 217 254 11 80 163 102 246 126 0 255 157 229 220 202 244 126 218 112 196 21 28 5 63 78 22 94 103 234 201 34 232 212 197 139 58 158 10 58 239 167 31 229 113 20 229 76 132 193 97 160 64 160 239 4 254 86 9 199 120 32 155 61 10 213 220 242 15 203 125 47 176 135 67 149 47 199 87 160 104 151 236 87 155 77 173 164 237 37 196 236 99 206 179 63 192 79 10 62 36 186 197 52 80 244 99 167 149 166 62 129 109 217 207 213 125 188 44 66 168 217 16 92 255 209 171 98 15 207 161 212 3 171 201 102 101 94 12 181 223 122 92 174 79 154 107 124 115 19 85 241 111 84 51 26 182 67 234 87 20 237 2 35 84 104 248 96 29 193 218 122 31 42 20 254 166 136 173 251 121 24 80 172 43 6 239 155 94 4 181 96 39 159 200 31 141 230 224 225 96 255 65 116 254 28 252 171 70 117 195 236 33 238 231 17 137 55 21 63 62 60 222 156 92 107 252 60 76 197 60 142 171 58 170 11 229 240 127 168 220 124 150 195 241 32 251 19 95 57 36 61 213 57 169 209 117 245 150 209 131 65 14 45 76 74 29 204 132 249 72 105 189 57 17 184 76 167 241 112 199 198 169 38 151 31 100 46 240 13 111 254 2 188 72 134 136 204 179 208 53 209 9 70 202 86 238 135 198 181 63 112 220 48 143 64 246 127 77 142 126 79 188 198 213 43 147 137 231 200 90 111 15 36 63 253 172 73 178 235 159 142 28 101 206 18 213 27 160 100 107 92 228 64 136 98 201 111 40 35 223 187 72 30 132 244 103 147 223 6 144 251 108 66 14 65 209 174 166 159 11 138 187 147 236 38 2 20 102 225 208 48 0 84 83 103 231 155 110 119 143 218 185 111 27 138 106 193 42 120 75 229 39 55 11 50 76 113 197 28 161 199 112 245 169 87 144 169 206 32 16 135 143 126 18 249 88 60 114 116 33 153 53 44 203 129 157 144 184 63 87 4 52 0 32 196 169 144 228 186 231 115 56 181 109 145 61 223 5 79 120 58 139 67 187 172 211 116 216 42 120 117 43 153 180 212 41 232 142 17 173 199 198 145 88 3 5 93 82 114 151 221 81 83 137 201 199 97 12 63 215 223 216 139 9 2 116 52 19 33 9 217 178 151 221 183 94 47 41 182 13 122 19 
150 67 171 248 79 254 207 46 197 90 56 4 206 108 221 239 117 223 162 13 242 89 107 203 131 34 168 253 53 216 65 224 229 144 222 123 191 163 115 247 168 66 99 133 157 217 100 107 230 86 91 81 33 253 115 202 86 169 162 217 137 135 215 104 2 24 11 118 168 179 184 103 56 85 94 156 193 194 242 28 155 20 25 129 222 111 210 128 73 70 7 32 239 9 56 120 127 224 224 56 72 236 141 166 159 78 104 216 106 3 116 131 132 103 243 87 123 60 157 89 92 140 217 148 4 224 116 229 233 188 209 105 99 112 161 203 72 46 207 189 125 83 36 231 170 159 107 71 248 94 211 209 154 216 177 246 189 154 138 142 3 254 254 164 187 71 211 30 4 80 233 40 55 184 199 162 12 191 0 182 144 154 254 65 144 209 219 26 169 223 25 102 131 212 244 86 242 243 166 219 58 222 148 62 128 160 102 129 86 45 27 84 236 172 38 124 198 207 189 223 54 152 179 42 119 165 29 251 129 87 81 21 149 248 181 251 214 11 40 86 96 20 215 134 144 243 85 77 159 139 230 101 182 93 69 211 88 248 43 170 158 192 162 31 188 120 52 228 206 233 249 166 244 137 153 84 215 56 218 189 157 48 26 226 187 115 219 113 29 121 69 191 152 112 55 204 48 5 181 236 171 169 209 68 254 202 124 216 83 26 8 42 252 196 231 215 53 2 80 122 117 232 234 146 180 27 81 105 7 136 19 216 141 17 162 57 233 246 125 242 32 250 182 8 20 235 10 16 102 127 232 80 17 56 107 98 33 115 234 213 75 119 63 238 176 82 228 46 99 4 40 76 12 60 62 22 76 244 149 52 224 166 109 70 8 142 150 242 99 2 106 162 117 26 244 192 72 87 174 112 164 146 172 226 151 249 215 163 45 183 186 154 253 79 40 147 246 140 149 254 46 10 241 35 203 91 122 121 117 30 12 190 1 163 46 216 70 219 143 0 212 140 80 1 31 70 156 181 68 196 191 53 80 138 144 127 4 6 162 16 196 28 179 242 59 249 205 60 250 161 20 74 163 163 144 63 47 212 3 78 10 84 3 154 211 195 160 117 77 100 145 81 87 204 97 36 8 20 198 28 14 105 191 8 168 238 82 171 61 226 255 64 182 210 3 192 71 81 91 217 162 251 165 4 96 174 24 183 202 38 219 138 46 161 120 128 10 181 98 178 246 25 94 249 217 93 74 52 48 237 48 119 241 144 80 9 71 246 48 34 164 94 196 110 223 206 248 65 129 113 90 223 38 52 60 28 104 108 22 152 228 96 40 52 77 111 42 62 146 206 72 86 61 120 36 53 214 165 166 181 
132 205 247 193 233 81 45 255 133 17 96 238 70 173 134 112 236 175 63 52 30 124 172 176 177 130 6 88 56 43 37 47 208 14 128 85 14 6 22 110 244 67 27 122 85 7 41 155 59 72 11 231 248 74 106 255 198 162 42 120 209 250 208 81 79 245 87 101 3 75 169 17 198 254 127 239 153 155 55 164 162 48 239 222 47 181 197 89 45 47 83 253 209 163 242 162 8 246 244 177 7 75 175 135 151 72 34 93 237 196 76 220 162 132 145 104 180 191 151 227 188 105 60 175 11 143 165 255 50 172 75 59 51 226 236 85 63 156 26 139 228 188 15 209 36 195 173 188 166 63 37 226 254 48 114 186 48 164 105 123 223 14 93 204 187 156 104 238 39 76 68 55 30 94 250 203 26 161 10 63 131 8 251 245 195 32 154 44 80 121 59 128 69 246 251 173 228 88 250 40 244 24 134 28 227 161 83 238 224 77 246 219 238 185 251 114 230 75 103 33 204 1 23 199 123 251 32 192 36 20 110 170 48 104 75 131 128 43 209 99 6 191 81 1 49 72 77 153 1 25 154 231 224 21 8 0 214 31 21 68 27 69 172 63 201 44 233 154 143 53 89 225 96 139 41 103 36 42 104 190 18 181 212 26 206 170 58 175 238 85 175 154 148 196 198 125 10 85 178 211 54 19 109 95 122 198 138 226 81 156 152 117 182 102 52 240 21 8 69 197 178 217 137 160 87 147 58 9 102 0 28 211 85 150 154 140 121 235 235 17 97 117 119 149 17 141 157 200 82 79 184 219 239 254 111 41 215 213 41 46 169 126 56 67 10 84 46 246 235 143 107 100 36 125 117 193 69 236 16 253 121 255 251 203 40 211 167 81 1 22 208 57 235 218 142 148 208 121 215 60 221 6 185 82 149 254 62 186 251 184 123 247 131 140 202 42 139 203 64 180 5 44 5 147 192 213 12 152 176 233 158 128 59 51 188 121 237 117 49 105 115 181 245 111 223 128 102 32 52 48 76 58 251 12 15 0 164 191 147 66 64 159 118 252 136 99 114 195 204 229 61 193 84 110 66 186 35 118 234 3 176 230 35 192 230 111 127 122 123 191 25 32 188 162 98 46 101 216 19 162 60 104 17 8 34 52 202 13 55 12 243 90 130 217 201 51 83 69 243 109 101 114 15 199 50 116 160 238 23 220 28 40 228 47 92 174 151 148 186 186 238 61 199 184 112 186 253 99 147 98 213 231 41 7 84 201 245 99 165 17 215 138 65 238 56 216 22 243 146 115 48 89 7 160 19 245 3 167 173 216 142 170 224 226 12 213 69 54 231 28 255 40 11 165 0 33 47 147 148 103 
236 155 90 0 145 138 167 62 42 53 233 45 23 245 6 92 43 230 120 43 187 131 208 162 165 255 202 57 102 203 213 193 94 102 75 74 164 118 74 141 163 241 131 169 38 174 143 61 217 75 153 169 237 18 168 184 149 15 131 58 208 225 116 27 43 73 145 118 175 53 103 83 222 142 225 110 203 100 185 101 18 166 119 236 94 12 149 225 71 62 194 187 77 238 4 29 100 179 56 203 6 202 89 231 255 37 75 221 138 94 75 1 74 4 13 223 171 84 29 9 15 106 235 19 135 173 198 192 155 205 138 255 180 137 203 0 102 36 94 178 73 168 182 211 135 97 212 165 107 226 15 86 54 151 3 70 87 159 89 225 158 32 106 105 237 208 142 161 130 215 161 57 171 255 154 127 167 5 97 47 91 152 212 95 222 227 254 55 122 156 87 209 6 68 178 148 230 28 107 135 237 22 135 111 150 46 168 247 93 67 143 49 72 109 21 164 165 143 3 252 97 1 65 19 157 39 48 163 174 29 55 53 140 163 100 53 185 193 120 79 243 192 71 8 100 214 151 103 68 248 104 233 12 6 229 60 169 38 89 225 77 229 132 252 26 61 49 146 141 149 83 212 87 183 170 74 31 238 82 135 215 233 141 189 226 55 227 238 24 49 42 156 45 131 217 94 104 102 244 131 58 75 21 229 149 104 211 231 32 171 208 63 104 178 198 75 160 84 124 202 139 169 77 163 8 182 63 252 57 24 71 78 127 220 183 185 195 215 158 147 22 114 70 220 29 230 48 133 177 187 208 254 94 77 180 157 246 237 182 254 60 53 250 243 238 65 202 141 29 224 255 224 188 28 116 237 161 186 168 113 160 7 190 81 164 181 80 90 179 4 143 174 242 126 239 46 11 13 33 10 237 235 38 97 203 199 27 135 56 188 116 247 13 29 172 93 36 95 98 200 13 84 35 253 130 178 10 163 48 247 142 59 89 89 69 116 224 107 48 85 50 62 114 107 155 150 98 253 94 14 81 129 109 211 52 123 118 100 120 4 160 130 93 229 121 62 81 210 147 131 71 5 238 119 155 80 181 249 94 81 123 204 78 175 71 160 19 191 115 179 65 234 153 186 238 234 141 76 109 212 138 92 75 29 172 1 34 11 82 189 215 160 182 30 64 49 221 180 224 30 158 244 216 140 167 101 216 64 57 98 42 133 127 152 134 161 244 216 94 160 120 21 171 185 70 130 109 39 160 11 27 125 151 194 155 112 3 116 210 45 217 82 197 19 243 185 152 82 90 30 103 5 246 173 136 110 212 40 39 239 166 148 178 65 159 181 181 55 226 143 167 168 162 121 97 58 203 187 88 191 
193 78 17 73 188 120 113 228 37 23 120 250 89 24 233 14 79 155 157 246 80 63 111 51 121 59 219 209 250 60 31 11 248 220 131 185 192 168 2 56 162 115 80 140 139 159 39 228 149 120 242 5 171 144 64 134 207 58 194 73 69 186 26 200 115 58 112 117 22 19 233 214 159 116 14 198 88 95 62 74 254 233 218 148 111 170 153 50 243 217 236 13 19 96 71 88 213 93 32 190 51 144 50 66 163 138 161 66 213 159 9 175 51 71 89 204 49 76 165 160 90 184 210 161 16 191 255 48 31 50 193 244 116 100 179 21 167 229 181 176 112 232 247 69 181 40 244 90 201 78 19 155 154 35 90 244 84 121 150 21 110 149 121 33 199 32 6 60 208 118 81 200 187 6 240 176 239 185 254 164 85 152 254 175 141 17 41 35 53 151 184 137 184 127 158 190 187 23 53 13 56 240 19 8 160 2 208 158 166 193 55 165 122 196 182 207 231 235 127 159 116 168 30 18 63 218 42 247 231 98 181 250 106 234 253 59 219 163 252 123 72 118 26 255 70 81 234 197 21 95 109 252 113 172 155 155 163 185 253 88 147 104 67 122 163 30 117 159 153 114 21 179 21 91 4 94 32 25 93 141 21 71 57 176 166 220 106 24 53 253 179 120 120 177 150 237 25 47 95 188 227 116 91 231 210 112 1 47 204 22 119 236 199 29 122 49 53 179 46 233 144 166 154 197 147 179 61 242 111 211 103 202 2 57 58 229 105 6 205 224 243 206 253 109 228 51 32 171 28 176 220 182 117 11 105 178 177 216 133 69 162 136 55 220 109 158 227 58 216 214 8 65 67 237 33 99 152 30 20 117 81 137 128 109 60 49 35 193 118 140 73 174 100 183 76 6 241 36 227 250 101 198 231 134 156 127 165 223 244 246 66 116 100 86 166 135 224 28 20 28 202 120 221 23 127 39 59 98 222 161 40 207 39 196 201 204 163 176 195 229 48 39 60 36 174 28 153 194 56 63 59 21 91 186 60 38 28 26 61 68 234 120 8 179 25 171 100 65 144 148 13 204 184 208 232 81 247 32 144 166 54 236 104 114 18 163 141 79 93 119 199 121 42 225 189 142 34 197 34 47 112 219 0 1 44 247 205 189 157 182 169 6 214 187 169 12 10 7 127 209 128 12 178 62 131 212 3 173 4 116 60 4 117 94 251 66 57 153 248 102 159 207 35 72 219 204 79 90 135 208 102 145 14 233 98 17 151 21 133 211 233 250 49 237 61 107 241 53 209 237 4 244 134 224 192 37 58 71 109 161 216 189 138 58 141 33 79 155 244 57 172 38 38 50 145 24 44 98 5 105 
86 139 159 22 176 163 93 29 131 53 218 190 111 103 95 191 2 233 248 175 11 30 225 255 54 13 37 59 119 182 198 22 24 118 185 110 148 61 132 110 251 225 214 90 22 216 67 134 135 78 69 104 78 61 118 115 91 237 42 146 3 66 205 188 177 148 249 53 10 244 23 158 78 45 13 146 179 227 224 248 187 46 53 67 162 145 171 204 35 33 14 240 14 191 132 17 245 143 206 12 45 199 57 58 188 237 29 10 229 217 156 27 28 125 172 199 171 207 233 77 191 247 25 68 9 40 211 215 231 0 158 220 59 90 232 88 101 34 49 1 15 77 126 244 21 42 15 254 119 187 245 145 138 254 185 74 213 160 142 116 125 97 206 101 97 51 135 156 53 150 245 179 139 38 221 154 116 85 86 137 230 224 135 159 42 124 63 184 123 188 25 80 34 123 196 169 23 147 64 12 198 203 51 251 101 167 175 187 48 140 156 183 225 198 51 199 127 174 102 152 255 166 19 195 98 43 86 132 55 29 46 106 24 110 17 199 57 65 84 158 248 53 90 44 253 246 218 99 188 217 9 59 157 108 212 243 240 231 16 30 18 41 140 74 240 197 180 68 100 198 122 190 7 119 180 0 218 112 44 228 172 6 80 128 224 64 103 125 95 122 112 235 196 129 177 120 170 21 62 154 211 70 223 135 70 89 247 114 208 163 120 170 35 88 142 139 213 222 5 70 31 201 199 126 65 113 105 128 11 26 198 234 47 12 67 2 126 19 137 246 190 129 79 76 36 36 43 72 106 74 211 49 200 216 162 49 161 174 76 226 152 123 98 220 126 40 239 7 52 173 136 178 250 173 169 37 245 248 111 200 28 55 160 135 104 65 184 180 35 91 48 134 9 174 174 161 181 227 125 62 149 109 235 62 26 224 54 20 168 83 57 72 218 168 137 146 223 172 237 72 50 246 252 225 152 44 196 21 218 89 130 144 152 157 206 206 177 185 33 235 153 251 147 65 142 115 137 123 187 18 114 183 190 10 228 241 31 190 210 162 78 150 63 28 239 240 213 135 219 110 86 111 175 119 226 56 115 157 74 1 84 9 124 56 250 238 247 204 248 69 98 24 98 81 186 55 217 249 166 47 233 85 166 197 142 25 52 216 26 22 225 151 179 219 133 7 167 126 64 9 150 55 91 80 124 52 73 222 99 50 22 9 247 188 35 43 17 61 65 159 212 244 120 90 252 89 216 60 53 110 115 220 190 239 230 7 206 65 57 228 117 49 160 216 92 177 225 158 81 4 146 201 66 142 34 22 202 87 112 61 52 72 45 26 182 251 91 116 223 208 123 127 168 181 48 137 230 129 142 66 
74 208 224 109 230 115 196 87 1 248 159 204 18 86 9 109 202 54 61 70 49 229 251 16 111 225 143 253 35 192 205 4 65 179 119 140 10 120 249 170 68 189 0 78 182 202 132 200 16 182 54 11 198 115 236 86 89 16 22 200 20 87 197 139 227 146 3 220 69 72 154 80 150 80 250 26 24 250 208 78 196 151 194 213 237 27 224 3 227 205 90 168 221 62 58 241 26 127 124 180 207 127 4 201 199 29 195 93 107 136 120 45 93 72 72 61 223 43 10 204 211 231 207 13 216 42 141 84 104 92 212 130 38 155 55 233 249 59 113 113 88 206 185 196 12 153 241 22 101 58 254 53 101 214 95 57 43 199 70 255 73 211 154 128 48 147 188 86 4 20 63 190 216 177 87 202 127 188 4 139 241 105 162 80 162 160 23 233 118 97 188 161 225 236 160 157 66 59 178 130 206 138 51 211 84 178 145 88 62 232 194 224 164 100 128 150 77 246 230 10 152 254 246 56 95 57 115 64 187 66 222 238 21 144 160 166 26 222 142 111 190 50 199 62 200 137 53 175 238 205 173 59 5 12 69 121 76 60 187 42 117 208 186 48 118 213 30 4 68 190 54 11 157 255 149 91 174 131 154 91 190 207 103 4 156 179 64 161 222 181 26 152 229 213 109 3 165 177 193 27 189 94 31 82 186 86 213 84 85 147 35 3 151 191 94 215 96 197 140 123 120 113 80 86 116 246 239 54 17 92 148 49 14 78 135 203 162 220 29 197 223 242 132 61 133 229 2 29 96 122 244 176 209 129 166 192 242 184 28 103 233 42 157 112 245 49 76 18 128 43 4 34 104 138 232 106 167 108 228 155 81 181 28 177 117 15 98 146 118 8 188 19 192 178 68 169 196 196 25 201 231 101 83 207 144 250 59 248 149 141 98 178 62 71 193 160 252 55 169 114 74 105 4 142 19 192 83 44 114 58 146 55 9 34 0 68 27 83 209 125 77 16 196 226 176 193 148 89 51 85 195 55 140 214 247 214 2 106 101 148 161 184 183 161 242 210 244 251 79 65 63 20 35 17 213 184 33 8 13 209 63 154 43 54 112 238 160 213 196 65 141 198 226 127 91 214 122 18 23 186 228 59 203 51 243 236 71 0 189 28 154 232 36 11 214 99 224 154 154 110 97 58 237 188 124 104 206 94 34 178 53 237 229 76 217 45 135 150 73 122 127 110 123 85 209 21 240 107 32 81 166 1 13 34 111 219 128 92 141 181 196 114 2 230 159 137 211 233 4 172 87 127 67 40 148 194 148 181 23 58 182 7 92 37 88 220 129 101 146 70 64 148 44 205 29 0 64 33 172 223 
160 239 200 53 177 31 234 201 72 160 208 220 197 41 22 70 142 114 140 207 78 185 156 224 185 220 116 101 188 146 85 132 179 6 164 84 207 236 137 160 200 115 201 222 19 87 80 216 38 158 30 195 127 171 159 243 100 91 133 29 224 57 130 132 141 215 112 22 222 56 137 173 22 156 77 102 116 22 4 146 110 131 61 148 119 161 87 252 190 247 53 65 82 194 24 50 216 246 182 97 164 38 253 241 94 113 8 116 4 118 218 65 10 223 227 98 98 161 89 217 226 171 214 251 222 11 241 148 206 149 187 166 135 25 8 143 142 5 5 104 119 15 71 123 113 170 188 202 131 159 118 89 65 84 101 35 232 51 30 163 217 16 189 225 165 75 231 44 179 94 187 251 217 192 165 149 208 40 53 65 130 118 12 231 153 130 26 184 214 243 200 190 213 109 98 188 154 31 26 85 106 243 22 29 136 230 24 189 39 189 51 51 230 205 181 104 133 139 79 77 74 105 186 172 92 84 203 49 170 53 237 192 82 7 166 107 250 205 40 131 1 14 64 182 118 116 66 197 65 140 46 198 56 139 19 3 188 205 56 170 34 138 177 204 245 172 140 30 47 50 44 111 255 163 227 0 104 36 183 151 234 249 34 253 133 222 203 189 136 237 192 58 185 248 230 69 130 21 119 120 132 118 150 104 119 194 140 46 101 119 39 206 116 172 101 63 105 135 44 41 101 229 33 238 42 163 40 161 27 14 24 177 35 143 116 167 189 217 15 228 167 156 144 12 19 249 147 135 34 249 199 67 231 243 230 15 217 2 29 3 179 64 165 39 231 189 1 247 76 168 147 9 181 166 237 72 45 125 65 244 118 40 232 152 55 193 219 84 196 193 148 105 195 124 38 119 115 114 158 6 123 159 172 104 72 217 229 253 206 91 69 182 243 135 119 206 175 59 144 231 165 83 59 203 202 208 62 105 76 185 8 191 34 80 197 7 77 113 99 147 74 86 26 24 37 201 206 181 176 69 8 236 129 211 188 38 60 8 241 68 199 47 149 140 233 226 253 11 117 71 18 143 96 117 89 46 204 9 116 241 245 245 166 177 27 174 185 12 129 128 60 189 12 37 2 9 48 151 81 66 121 177 184 239 223 132 126 83 117 215 72 27 225 99 201 214 112 75 136 172 8 65 209 10 194 1 161 206 67 27 216 251 10 41 127 136 218 244 96 185 15 65 13 217 23 85 36 159 185 44 225 41 55 163 213 216 113 166 243 73 167 253 114 234 134 76 230 230 6 101 39 19 90 62 104 105 222 33 66 191 74 102 98 31 147 211 197 202 29 108 162 143 87 150 220 61 147 226 162 25 
245 252 255 93 102 38 127 168 101 201 15 67 233 162 2 174 108 100 27 14 55 114 164 84 175 56 228 81 81 192 78 81 162 180 119 151 92 220 244 107 31 115 13 33 61 121 133 38 136 189 212 44 17 239 100 245 97 182 181 16 7 87 98 126 238 176 91 227 100 122 86 192 156 147 44 33 185 57 222 142 179 240 125 59 229 223 103 155 239 204 242 81 130 225 1 137 196 101 7 26 38 98 174 82 221 103 139 121 245 62 154 115 121 121 82 225 105 65 173 78 147 47 233 148 184 220 250 191 189 32 34 129 114 255 155 253 120 73 60 18 177 181 139 166 150 244 25 67 67 107 114 44 173 42 8 64 234 197 212 12 70 206 11 226 238 131 43 96 149 220 94 33 131 154 21 156 79 88 8 230 133 181 41 141 245 156 83 201 198 153 152 176 123 134 188 167 231 199 131 69 74 6 223 224 163 46 1 171 20 22 96 62 111 85 218 244 30 160 129 182 81 212 61 13 110 36 213 233 105 31 144 72 255 20 118 0 26 139 23 189 201 134 104 163 122 200 67 251 29 148 208 60 162 62 242 119 39 47 150 184 83 150 204 188 150 230 4 173 164 123 51 12 6 173 213 207 169 242 114 121 46 181 183 33 74 222 80 236 150 164 99 98 96 249 73 101 143 237 224 38 249 230 211 206 181 7 193 39 180 239 220 93 16 38 214 97 18 141 5 117 108 101 111 2 202 254 101 170 36 174 144 248 155 69 255 148 108 179 99 73 17 36 111 231 19 130 117 36 247 225 133 102 227 138 101 72 239 137 246 186 129 145 100 128 38 245 52 137 58 69 173 167 44 192 240 161 228 95 130 105 225 102 243 217 174 227 63 165 157 164 54 1 46 92 246 175 229 49 48 146 216 100 83 200 169 55 39 213 161 9 119 148 226 249 119 33 95 20 198 14 22 244 179 12 163 233 61 211 70 21 55 43 221 224 190 5 182 17 14 45 72 240 38 233 17 134 126 215 148 245 203 71 10 111 48 32 66 118 44 122 162 106 90 96 127 16 113 93 61 185 98 100 163 112 234 33 96 126 22 113 197 32 73 245 64 20 108 109 131 14 215 198 110 86 64 223 179 154 152 21 171 59 133 232 92 229 76 115 87 54 147 160 180 212 180 121 65 56 111 24 254 219 110 62 233 34 216 87 55 131 54 189 108 206 162 184 10 249 239 102 153 163 217 78 29 109 134 140 65 132 103 130 194 80 154 154 167 8 30 221 42 138 171 98 66 181 31 49 28 193 213 245 187 242 98 84 126 163 162 229 37 40 53 191 172 220 200 110 185 242 9 100 84 39 26 115 177 54 53 243 
43 240 37 142 68 250 49 231 236 87 15 106 22 188 79 222 42 132 209 51 96 37 90 25 153 11 125 206 255 151 190 36 205 2 30 249 233 10 135 249 116 184 181 195 15 223 71 38 19 167 4 109 192 213 121 61 251 120 213 148 156 162 98 186 155 32 196 34 34 56 219 12 251 234 5 66 16 186 233 21 153 169 234 172 230 229 26 187 121 147 94 219 11 249 251 167 28 30 97 247 42 37 225 47 93 242 233 88 7 130 154 241 47 131 215 73 44 80 220 18 44 231 206 39 142 44 69 239 37 111 20 65 158 113 56 135 201 26 10 99 12 57 230 19 130 18 4 94 36 219 69 242 44 211 30 88 194 68 127 214 133 197 71 190 52 16 216 211 115 228 90 89 247 100 107 251 157 143 215 31 130 3 125 160 91 194 228 218 149 106 159 87 40 212 45 0 167 116 228 1 132 219 102 247 214 3 80 173 35 187 176 160 75 11 99 205 230 248 109 133 80 82 89 125 188 0 242 228 2 118 228 104 110 200 107 190 163 142 122 121 47 197 39 146 146 215 138 255 227 218 81 201 88 13 78 74 241 168 192 213 168 46 157 170 237 64 18 103 186 126 44 225 12 190 184 59 189 155 205 15 100 88 28 179 50 14 91 138 227 3 212 129 174 149 193 192 195 123 62 176 92 75 23 21 134 67 176 84 1 21 172 191 200 222 206 35 105 234 38 61 248 212 210 220 149 150 93 211 70 30 30 94 154 165 161 246 249 163 11 165 98 188 131 48 209 236 26 153 42 19 188 252 239 226 146 76 183 217 106 76 55 4 31 216 251 62 123 6 227 221 194 220 13 147 129 40 44 4 59 232 241 42 203 27 118 130 23 224 206 170 229 237 131 224 43 186 230 14 146 169 234 14 60 107 235 105 112 249 81 97 33 28 124 92 158 147 134 108 61 252 90 192 220 133 122 193 148 13 161 126 27 136 234 6 49 90 255 109 187 32 214 55 124 40 202 2 68 8 254 227 200 219 79 67 156 169 80 62 47 107 198 195 113 247 65 113 100 43 145 59 133 14 99 64 16 167 119 15 138 66 234 218 74 134 131 18 196 178 85 138 117 165 129 183 16 230 226 130 33 104 243 132 168 132 43 32 146 182 98 163 144 172 178 19 190 156 198 20 34 59 185 231 242 202 113 213 76 243 61 63 217 229 195 250 5 86 126 103 249 169 19 171 95 210 71 239 230 105 3 159 80 201 105 194 4 181 181 247 244 142 204 184 136 9 14 6 238 7 175 244 178 15 91 249 254 111 98 1 65 179 202 39 117 207 198 42 198 48 184 146 229 64 155 218 70 137 146 245 125 160 
4 217 167 3 72 89 4 137 82 207 176 180 158 118 103 100 166 220 246 140 6 145 102 190 26 248 254 152 152 68 113 63 58 185 152 62 66 234 65 242 158 70 104 6 21 15 226 179 155 233 23 1 167 13 249 166 158 145 234 184 208 36 80 104 99 193 82 164 122 240 234 188 246 255 174 217 178 23 194 201 38 105 214 193 15 116 194 250 45 187 30 125 76 129 63 28 38 185 132 16 118 214 16 36 198 194 59 189 140 97 150 98 34 88 215 228 193 4 159 209 129 235 203 192 7 233 122 139 107 240 97 145 20 40 161 80 229 177 177 123 116 212 211 0 184 148 98 88 101 57 67 48 61 75 26 191 214 133 127 56 22 249 96 183 233 69 105 254 192 221 78 147 221 255 39 63 211 141 121 140 189 182 228 215 117 39 92 245 114 114 238 73 42 216 129 147 214 225 112 36 38 77 35 230 140 247 121 5 131 160 188 103 45 49 142 235 38 1 194 21 74 31 237 203 145 195 172 187 231 210 78 10 184 190 1 49 11 132 209 152 235 255 157 122 234 89 123 172 139 197 203 177 144 93 198 60 24 179 14 103 118 198 37 93 247 49 104 200 201 105 199 102 238 177 192 217 94 75 83 41 252 206 134 195 147 159 118 35 6 237 95 43 74 109 92 178 51 37 28 42 140 10 243 76 227 186 151 55 108 147 5 202 86 153 243 205 188 122 186 28 25 4 137 31 183 189 74 211 231 167 221 218 204 192 149 88 247 1 164 253 203 59 150 190 207 82 56 37 110 81 242 248 112 172 181 187 177 156 98 104 119 46 59 12 135 24 13 43 216 216 103 208 150 54 205 207 91 99 32 78 181 145 250 36 76 171 28 174 19 209 220 78 109 99 102 228 143 63 240 246 15 253 44 220 213 135 63 108 213 244 59 208 24 91 123 52 236 143 5 56 221 115 230 68 87 195 131 72 38 146 69 181 110 27 171 173 135 215 161 194 95 186 29 52 238 10 4 244 66 128 103 41 15 190 236 236 6 18 48 76 200 179 103 115 69 238 75 179 176 170 96 205 222 2 215 227 188 26 99 170 67 114 158 47 94 5 65 143 196 9 66 202 125 136 22 200 59 125 114 156 107 80 158 27 51 90 233 150 4 192 8 163 218 103 168 29 246 108 76 56 55 142 192 77 151 252 203 20 152 54 220 54 82 78 144 59 159 148 251 210 55 214 105 224 243 113 76 64 216 131 206 206 209 101 7 156 122 199 210 86 195 36 165 91 95 68 145 91 22 33 49 127 182 36 241 237 100 201 205 50 152 26 152 159 157 18 102 110 104 42 10 13 133 221 81 23 1 104 56 97 
231 238 188 216 220 237 162 169 17 58 195 118 217 97 168 63 207 64 105 218 82 239 183 187 6 184 200 62 25 26 45 213 130 9 194 105 178 212 66 118 74 228 215 242 30 166 51 247 128 133 54 55 64 160 240 9 143 9 35 149 223 165 211 161 14 0 117 80 9 191 52 188 178 82 50 229 73 9 106 128 175 171 32 48 180 175 103 215 68 87 124 23 97 138 24 64 219 33 225 15 221 87 98 15 22 171 24 200 43 200 173 75 248 24 250 95 195 62 183 119 86 24 78 110 88 202 143 57 84 109 144 47 124 167 63 149 111 161 93 29 76 85 53 120 180 248 195 107 111 190 131 189 252 219 135 82 21 219 192 165 11 80 76 74 189 188 235 57 217 55 206 14 175 43 6 115 128 117 49 53 50 45 160 185 128 36 148 64 255 159 144 20 233 77 186 212 135 6 12 85 194 187 129 155 46 1 169 95 54 175 141 215 36 13 251 86 77 250 15 222 15 164 43 201 67 178 207 45 8 146 1 137 45 13 138 215 201 193 134 247 152 171 87 147 1 228 141 17 241 156 181 62 101 248 28 53 37 72 199 39 250 244 52 2 203 253 139 82 245 22 253 76 215 254 48 111 15 33 2 196 95 143 189 124 44 226 196 145 9 190 198 62 193 141 59 76 130 48 98 77 124 57 159 172 168 156 205 170 155 45 58 170 169 102 111 109 247 44 43 190 14 236 75 24 57 205 86 155 27 145 213 186 194 125 87 62 40 242 235 98 156 184 200 11 229 191 55 142 125 70 251 201 94 39 150 180 19 177 69 76 108 7 232 195 70 189 181 49 58 81 233 98 93 207 196 148 93 140 218 89 76 56 128 201 236 147 146 50 224 41 57 200 218 127 133 70 176 191 9 154 34 190 105 230 16 198 115 109 31 191 1 159 136 220 51 27 20 19 68 1 219 30 51 96 101 108 31 110 236 65 45 156 40 61 54 155 170 159 90 171 102 226 135 133 253 156 37 65 157 88 96 208 107 197 60 70 51 40 166 96 197 197 157 251 7 71 155 47 243 1 202 122 134 36 22 171 6 179 3 4 131 110 69 192 180 165 232 90 106 173 32 158 169 39 254 68 86 156 69 32 227 203 68 214 119 74 81 122 78 103 233 148 27 157 57 158 248 164 94 24 66 71 63 64 244 149 220 157 181 192 225 249 150 38 67 231 242 146 79 105 38 106 227 95 8 204 3 103 106 69 174 98 134 162 122 98 64 185 34 33 78 185 72 3 160 58 252 239 163 63 89 134 209 98 83 247 201 189 87 119 31 90 25 153 160 89 82 38 123 160 136 195 163 171 253 159 100 160 222 4 
38 176 244 121 167 77 54 254 175 85 89 120 238 249 239 64 31 9 224 167 98 131 82 221 34 182 160 1 187 157 177 175 61 88 252 100 87 172 221 176 36 20 169 20 105 200 29 88 111 127 152 194 93 121 120 253 252 51 155 31 226 216 32 223 60 209 139 26 41 175 46 128 195 151 48 224 239 217 96 136 161 189 1 17 186 253 211 85 28 75 46 60 127 106 13 97 132 55 64 178 183 203 74 232 123 57 193 62 193 99 31 194 116 127 192 71 60 220 146 246 25 17 76 38 115 122 93 179 228 21 127 105 253 250 27 190 56 101 33 87 159 149 214 96 220 18 35 111 9 227 128 85 191 243 207 216 167 179 255 38 28 92 32 56 113 88 157 110 176 60 45 134 157 78 153 192 228 162 163 192 247 98 47 198 59 176 121 58 163 150 150 74 206 8 112 107 118 144 168 163 233 69 242 153 5 214 31 168 150 184 10 198 90 69 118 81 127 25 23 22 100 145 30 212 39 148 101 245 56 78 96 42 231 8 0 6 77 150 191 82 92 25 250 210 107 5 236 130 74 80 19 202 36 58 224 137 47 254 215 144 146 190 152 202 197 230 244 132 56 244 157 51 139 8 56 231 139 130 186 158 76 166 217 44 246 8 42 26 152 189 164 49 135 123 23 124 58 79 112 255 130 251 131 186 227 32 61 157 41 137 67 180 182 57 82 224 83 43 157 247 52 37 115 204 161 173 253 17 172 20 13 47 100 240 79 230 141 120 161 208 44 222 9 127 103 92 170 29 84 222 254 199 171 155 116 168 192 32 189 97 79 33 115 158 7 128 23 168 112 67 134 253 194 238 205 109 11 214 75 9 50 246 165 134 159 101 77 92 199 193 125 58 225 132 186 48 45 42 207 179 39 230 161 244 41 173 202 236 182 252 89 91 131 164 193 208 155 136 146 58 194 115 150 124 164 19 166 115 151 205 89 196 193 130 120 139 110 25 135 199 198 10 108 125 219 7 216 109 65 153 224 215 33 132 234 227 247 129 95 80 70 5 211 190 210 65 215 147 9 158 30 117 27 166 124 243 176 189 141 139 148 174 248 126 146 217 255 241 93 69 247 85 3 201 165 219 93 120 121 123 186 148 33 195 135 210 56 20 93 180 195 86 113 85 47 5 70 140 131 61 225 130 7 135 200 100 255 203 223 185 166 1 124 31 211 180 179 48 104 59 134 217 79 181 222 18 66 97 103 35 228 174 170 172 235 170 119 242 99 30 86 224 61 54 148 241 55 253 44 10 214 123 58 181 142 193 22 245 118 250 163 184 166 143 220 30 129 134 60 216 48 121 14 148 106 69 116 150 79 8 
18 137 5 160 74 220 149 193 145 57 121 167 200 85 162 73 220 72 33 12 102 47 160 162 116 20 28 195 29 134 77 34 29 151 254 47 88 143 207 210 55 100 39 217 157 3 33 101 16 136 175 176 42 208 197 70 0 226 205 116 4 234 56 3 25 133 146 232 28 201 76 117 162 234 71 196 79 110 76 254 114 118 207 130 189 207 50 138 67 247 116 123 217 141 0 222 117 29 225 193 146 115 171 217 61 251 71 223 249 185 163 200 59 239 151 110 102 219 101 35 86 63 173 87 29 33 116 254 174 6 113 35 223 174 228 38 142 144 224 49 139 27 33 132 137 135 77 239 170 228 46 87 191 75 120 22 73 38 109 186 73 225 105 45 231 247 189 198 40 72 236 73 205 204 208 26 232 122 254 113 209 190 96 73 212 142 111 65 217 184 34 34 230 9 221 163 207 70 236 187 61 185 136 101 211 112 175 209 225 127 143 66 250 99 208 203 164 170 21 198 204 132 207 169 61 158 239 35 90 44 198 226 146 178 82 65 107 51 192 62 117 186 16 70 134 159 240 155 3 188 31 167 102 92 110 85 127 61 130 70 220 20 248 54 85 100 24 21 162 106 208 178 157 86 82 19 241 85 89 16 252 73 109 106 5 236 168 107 50 132 193 43 186 67 143 210 87 49 60 172 228 217 193 54 236 145 139 69 231 135 142 216 242 148 233 154 255 86 30 192 66 216 3 117 170 90 160 230 6 47 191 200 96 172 89 68 241 65 122 128 25 5 20 2 141 19 88 127 212 155 25 215 16 55 50 176 15 56 223 185 0 63 159 90 132 94 155 254 10 180 4 252 183 145 124 15 16 144 170 41 163 186 96 119 106 111 79 73 40 129 137 199 185 13 37 186 11 48 20 15 44 175 160 168 99 176 56 26 217 219 42 57 83 212 168 162 143 208 35 249 151 220 67 189 150 204 237 170 217 25 89 228 193 189 244 249 215 148 212 1 69 39 214 30 201 101 88 236 94 0 201 161 209 95 109 104 10 70 37 99 43 18 32 31 43 248 179 236 249 248 229 207 23 186 52 111 225 147 111 171 52 64 151 162 169 96 232 206 192 19 225 202 50 12 45 230 249 78 222 222 70 245 152 63 100 122 15 212 37 67 20 188 214 189 29 11 140 221 173 109 167 149 121 212 169 114 34 219 81 104 193 233 168 160 99 183 149 136 250 250 69 209 206 98 220 226 63 137 160 230 30 44 186 199 153 221 163 18 69 100 133 237 4 214 164 154 191 159 148 35 112 98 171 76 68 240 213 228 82 243 16 145 187 169 119 94 188 50 194 65 15 199 23 84 97 214 66 245 249 230 
87 165 133 155 149 245 128 232 65 144 121 22 58 241 10 246 35 197 55 50 35 78 134 229 36 200 172 30 175 13 195 52 2 88 42 89 64 107 245 186 130 117 171 140 5 206 81 63 0 116 53 134 89 108 79 6 186 254 19 223 50 22 253 92 111 192 200 100 24 74 217 89 214 223 19 39 30 190 155 84 140 244 192 140 250 123 18 14 90 97 36 87 95 147 23 146 248 47 238 209 136 182 176 155 0 207 89 214 35 229 253 227 113 152 94 132 141 184 229 135 15 69 149 38 215 185 86 197 77 222 124 69 122 124 22 211 83 199 185 80 150 42 233 185 174 118 156 148 253 251 217 147 179 176 76 195 117 153 233 241 222 63 110 245 30 193 188 152 17 82 107 250 11 36 112 167 79 110 162 253 1 86 145 77 25 106 231 2 26 197 66 144 186 96 129 118 248 239 200 99 176 211 136 194 123 215 188 29 212 45 115 102 155 140 208 156 143 235 233 209 123 208 49 252 150 41 236 80 140 156 199 20 94 143 235 27 99 192 72 222 38 227 251 246 127 111 225 104 251 92 57 138 89 207 91 69 31 140 225 230 181 64 118 66 91 217 86 163 183 66 134 178 2 5 33 40 109 29 30 166 167 0 117 3 92 149 143 181 123 69 250 241 135 220 202 221 28 129 31 119 52 33 26 85 73 160 114 104 165 26 104 18 29 196 185 172 122 46 241 116 195 120 80 63 86 108 48 117 227 251 151 253 124 224 157 176 72 66 6 176 85 120 117 14 146 239 60 175 99 0 92 180 63 77 32 111 198 4 106 28 1 231 145 159 151 40 225 157 9 54 22 81 68 168 2 129 88 119 129 180 102 192 1 201 47 199 125 154 227 158 129 117 162 24 157 163 182 166 66 204 248 36 116 250 90 204 113 159 128 215 32 130 160 161 73 30 97 45 188 144 162 94 42 63 1 171 230 68 196 222 104 122 216 194 70 73 97 186 32 129 135 192 34 7 222 131 137 154 20 211 248 62 0 250 234 162 62 174 225 166 40 199 104 110 165 202 40 125 75 175 198 110 183 230 241 64 167 5 19 133 68 19 32 46 181 24 220 151 18 4 94 80 114 4 246 154 129 95 74 72 41 1 46 116 65 213 226 85 91 212 104 123 217 30 147 29 181 166 75 19 246 39 23 237 43 153 76 157 225 117 56 15 233 130 229 204 131 64 160 196 187 121 25 78 151 130 244 226 160 235 10 85 216 53 104 36 211 128 153 11 25 130 141 250 78 16 9 238 212 238 104 238 46 255 112 233 225 16 56 235 101 44 33 205 23 244 77 239 255 102 19 140 96 172 156 106 47 112 88 125 
94 135 108 206 112 212 222 168 211 67 213 180 17 236 160 94 220 193 197 239 181 37 156 180 143 203 64 232 72 220 111 180 76 223 136 171 136 91 121 93 16 88 73 176 155 37 113 172 21 38 11 177 218 208 124 26 245 196 246 133 121 66 109 1 237 220 93 103 187 109 191 67 29 90 160 142 7 234 180 18 15 142 226 36 168 215 213 158 92 81 224 201 22 206 165 143 53 97 144 244 164 237 78 69 90 85 47 119 103 62 5 73 99 185 33 56 71 125 138 239 71 160 141 236 47 110 77 191 60 242 173 113 55 7 101 102 127 179 164 132 9 7 62 112 64 133 186 202 117 219 106 2 88 153 112 159 88 172 140 5 29 217 13 130 203 140 54 2 16 63 104 78 175 13 212 105 20 73 68 84 75 157 30 188 60 136 104 200 33 134 162 122 8 109 127 62 112 140 125 216 24 45 229 41 150 250 119 219 78 75 120 109 148 180 245 224 125 23 156 31 145 4 140 16 138 252 157 147 213 181 209 186 222 79 180 86 124 3 161 18 112 54 237 101 22 101 124 178 26 13 182 151 30 65 182 187 212 66 112 165 63 79 244 20 165 112 206 70 131 131 124 112 134 146 214 246 68 240 91 251 135 216 60 61 229 16 127 3 181 190 190 170 210 47 26 161 126 157 36 35 14 170 105 228 160 230 212 251 120 91 211 189 152 185 184 23 188 244 214 123 4 168 170 185 73 40 99 109 75 126 23 180 27 183 154 41 179 19 13 134 208 225 63 136 60 252 124 212 119 128 236 33 57 194 73 157 106 148 27 180 72 54 33 227 96 57 246 109 240 198 79 163 78 139 42 202 96 105 74 76 101 131 14 220 32 120 253 59 44 70 114 78 218 210 135 35 63 119 6 142 27 252 26 69 194 122 174 16 198 20 218 212 240 36 76 238 167 121 52 200 199 15 3 78 50 117 197 56 71 224 52 135 37 246 21 212 6 47 232 224 169 216 4 111 198 171 67 251 115 144 10 119 9 60 236 208 116 52 30 168 187 227 158 208 196 164 0 233 132 169 189 136 25 165 51 92 126 167 236 68 30 245 63 10 197 73 62 227 133 249 199 249 202 139 161 202 116 63 115 50 227 140 215 103 233 85 239 213 154 35 203 217 202 144 35 232 116 168 242 59 162 49 198 67 42 58 131 244 108 102 190 68 206 50 153 189 190 51 224 167 13 170 125 48 146 72 216 133 216 122 182 76 190 224 135 65 213 77 167 147 136 117 197 244 51 132 56 19 43 210 190 168 5 80 240 18 213 201 66 139 21 27 108 157 149 65 234 83 212 114 148 154 103 60 30 159 177 73 113 228 
242 119 248 226 137 182 171 204 6 193 231 220 94 124 103 72 208 211 187 100 20 34 160 233 193 82 131 51 54 161 170 46 234 51 228 220 255 235 191 230 199 106 99 46 43 51 2 137 151 22 210 56 255 141 138 130 175 192 35 112 239 14 163 211 234 77 190 169 129 133 20 128 180 63 103 182 201 202 204 155 253 204 40 148 78 215 204 114 71 86 128 235 23 106 56 6 20 185 217 40 58 152 103 161 29 48 107 209 203 104 135 243 252 84 202 201 32 18 31 110 253 54 224 53 60 96 239 22 203 41 174 223 202 203 7 53 157 110 157 36 159 153 120 106 98 152 94 130 7 40 184 231 58 245 72 55 11 19 109 185 242 92 132 249 133 33 103 79 70 6 132 190 113 33 87 207 186 94 247 29 69 50 159 141 105 87 160 214 76 146 50 87 139 183 16 243 6 149 249 138 182 106 171 252 57 102 187 49 131 18 99 34 112 204 121 181 163 198 67 213 29 227 141 46 118 147 195 1 30 121 244 201 118 238 47 49 88 178 67 146 212 179 195 78 104 38 20 171 242 49 143 149 95 5 107 34 6 248 156 251 139 18 233 169 67 65 115 134 211 162 57 150 85 161 188 41 77 175 119 220 68 139 225 175 189 231 167 28 226 51 63 203 220 219 13 79 237 224 242 48 119 71 182 51 112 239 226 232 144 39 115 221 214 48 185 126 77 154 177 140 130 141 103 100 221 84 48 207 132 61 22 58 29 134 41 148 110 185 200 226 151 170 18 80 209 95 235 168 235 109 38 82 209 215 166 1 100 42 62 65 100 92 16 141 240 38 71 184 173 222 99 27 46 52 253 25 220 16 134 2 111 88 217 91 89 62 173 152 127 84 244 144 126 228 182 227 157 99 112 0 127 183 52 124 149 17 140 196 19 252 221 237 87 100 43 4 188 170 88 21 58 215 173 241 186 161 84 42 134 211 226 35 80 119 35 220 59 87 216 25 104 47 125 124 52 57 105 140 78 148 99 252 62 29 157 121 72 35 106 42 70 190 161 105 146 221 193 226 246 41 190 115 165 151 172 14 198 250 162 250 246 225 135 148 90 234 183 196 8 254 130 80 103 20 122 40 246 27 82 181 248 247 76 238 6 18 97 168 13 13 137 148 8 227 126 254 167 134 146 42 214 74 62 80 72 53 108 175 234 100 216 54 83 42 72 180 33 85 194 39 233 202 208 104 200 89 238 91 61 197 165 228 21 237 14 129 156 77 230 116 130 57 158 108 237 192 162 175 231 234 121 183 64 66 17 41 157 78 145 66 50 128 47 65 69 203 142 90 64 16 220 222 124 194 158 30 251 134 8 232 
61 72 152 78 114 17 156 3 83 207 131 240 16 200 50 158 35 97 174 255 45 42 193 109 72 188 75 80 164 234 153 60 112 11 78 173 14 161 252 146 146 152 90 196 103 125 38 119 124 83 21 61 192 195 249 11 237 158 245 53 218 101 134 40 19 31 202 15 42 92 167 56 32 15 202 70 134 37 153 156 162 89 95 31 101 77 92 90 130 86 192 8 244 211 39 206 226 81 247 137 138 193 152 84 29 31 121 61 187 28 132 26 59 29 103 151 119 234 237 220 242 225 54 26 176 246 107 167 201 245 104 171 74 133 53 195 194 205 223 70 236 26 100 167 178 219 194 159 183 41 129 237 19 49 228 6 216 173 32 64 89 139 197 142 129 135 91 203 206 72 142 50 239 110 13 177 136 196 219 58 177 238 218 149 244 91 67 20 140 156 160 100 42 33 164 133 236 105 205 122 240 189 232 190 110 113 240 73 171 253 56 133 193 44 224 115 65 108 8 225 208 75 2 116 231 238 221 17 104 206 151 81 140 100 194 125 33 109 122 144 243 60 217 211 175 17 64 183 62 16 3 127 133 234 96 98 252 98 48 147 80 189 247 184 58 25 9 180 169 203 240 130 57 159 148 44 87 210 255 90 81 63 68 177 80 64 19 213 211 99 55 203 27 104 228 37 37 141 240 95 15 41 19 163 85 4 117 85 163 198 148 250 119 228 84 138 185 153 237 241 217 9 89 173 46 126 120 30 221 92 72 240 233 157 244 248 242 152 156 135 146 17 107 231 216 37 128 79 22 89 218 111 6 199 237 126 208 202 218 254 186 195 29 175 188 101 71 88 2 217 105 245 192 65 124 64 145 231 154 107 12 160 50 34 31 3 145 249 1 126 189 30 72 121 131 3 209 134 178 58 123 249 124 247 210 13 222 147 120 235 211 170 13 109 173 159 14 175 29 45 205 102 38 81 105 227 215 27 92 82 20 45 73 230 104 39 121 228 18 77 241 32 186 105 191 200 19 220 245 193 66 28 112 171 255 61 198 92 142 218 137 101 193 241 183 58 213 0 135 198 40 66 47 58 10 67 90 0 4 25 28 116 246 27 177 56 119 64 228 1 165 170 242 93 133 200 93 70 142 133 128 190 192 8 1 26 74 5 52 84 121 42 84 42 98 112 106 70 140 16 241 3 109 118 4 202 188 247 80 60 191 16 68 77 42 142 11 94 227 12 136 55 17 235 168 138 49 52 181 34 55 31 152 60 47 84 51 156 145 242 103 213 63 183 100 75 199 71 87 241 126 105 80 38 243 216 90 168 195 146 200 245 206 247 23 1 148 176 243 251 4 50 178 149 125 121 107 213 106 207 
62 186 22 49 147 148 218 86 187 162 75 21 153 99 167 45 19 117 40 23 118 218 173 105 83 24 156 190 231 25 120 253 238 11 145 44 98 76 94 173 98 56 16 9 218 35 127 115 59 245 161 232 95 201 0 251 164 231 20 247 228 3 181 117 47 46 194 141 57 36 197 155 45 159 73 172 19 89 162 180 125 1 125 184 252 33 160 16 25 160 19 206 135 67 252 107 208 54 224 150 209 162 53 26 198 72 116 244 252 241 160 122 169 66 155 73 67 180 233 63 131 112 80 127 219 99 181 187 166 135 94 119 161 36 13 21 24 66 6 185 139 175 251 135 248 63 1 225 126 157 81 206 81 44 50 212 232 216 84 70 79 9 106 92 144 131 159 50 60 42 71 55 177 78 118 179 253 245 80 246 195 161 215 245 118 41 206 202 85 29 211 61 122 100 131 25 150 238 67 221 113 244 43 173 167 41 228 247 31 91 153 246 80 15 31 19 217 117 9 172 178 215 16 54 244 166 36 110 132 149 135 175 66 202 216 38 191 247 129 102 238 209 94 13 229 247 130 238 6 53 197 223 107 185 139 143 40 156 36 175 66 102 122 198 140 57 118 14 159 78 223 253 70 196 244 52 178 250 65 119 217 196 49 101 249 89 1 100 8 67 243 130 10 23 187 128 125 91 206 9 88 20 23 77 72 247 71 138 187 33 78 110 134 71 229 135 171 22 202 158 111 212 181 120 84 50 250 35 59 182 55 83 17 128 74 105 10 5 182 88 115 254 159 89 31 74 111 165 232 223 44 157 87 246 207 81 203 10 7 31 93 24 66 167 130 122 173 56 250 32 54 4 121 85 92 233 250 251 200 38 69 31 29 45 112 232 202 120 7 153 144 74 163 18 196 1 75 190 168 129 194 85 215 30 118 209 25 239 248 94 216 21 139 160 253 85 191 4 238 48 78 145 168 18 146 56 208 59 75 146 144 150 176 6 23 201 246 238 39 206 192 178 111 184 7 46 205 245 94 202 135 6 206 25 63 29 84 138 47 229 32 0 235 55 146 225 38 67 176 230 12 31 158 52 77 107 230 172 53 238 178 3 227 241 32 106 123 80 132 155 80 216 211 226 189 249 37 169 223 50 138 125 102 58 232 76 89 29 58 167 32 30 83 65 136 5 145 12 247 225 229 114 195 162 14 233 75 225 27 214 218 129 16 185 205 106 54 8 17 30 38 100 59 174 105 91 187 96 156 160 211 45 66 225 14 142 194 210 100 156 187 116 85 214 222 139 87 239 169 36 83 228 44 189 63 82 29 220 1 240 9 188 209 24 92 147 234 158 47 165 44 132 123 144 15 210 5 184 246 227 
156 35 211 220 117 38 184 118 227 193 50 1 217 142 241 195 45 195 104 89 86 227 234 134 181 239 10 172 210 26 207 165 210 68 204 111 187 175 75 237 176 3 124 162 196 169 101 158 2 187 97 236 65 202 219 76 173 174 102 99 83 56 15 31 167 222 207 242 34 127 245 221 33 186 203 134 88 71 66 185 240 131 131 242 207 49 223 53 148 186 110 163 104 21 129 188 8 163 219 253 129 170 183 76 42 15 147 75 201 131 210 76 117 20 125 84 151 17 15 103 180 119 156 53 51 10 217 15 32 90 185 40 166 227 37 57 47 221 188 1 236 49 21 181 134 172 2 149 19 127 12 176 145 64 186 69 79 218 123 8 2 84 236 40 174 27 5 84 28 241 141 49 167 73 221 169 122 241 40 0 161 185 149 91 255 162 54 122 226 56 206 49 96 124 57 101 208 37 87 93 64 254 166 92 167 32 141 207 33 107 137 182 92 136 88 253 2 58 88 208 107 142 76 165 199 28 202 39 121 11 141 31 103 228 63 245 226 96 96 137 23 188 88 111 185 225 170 17 105 21 160 107 186 103 59 133 142 135 144 27 163 247 255 28 236 225 59 76 106 123 8 195 219 193 164 242 211 14 98 115 121 12 218 181 33 104 60 220 132 224 97 131 252 241 101 56 232 207 179 213 146 142 33 55 129 42 69 227 235 190 239 190 115 16 49 176 236 11 144 77 116 140 62 248 196 39 123 119 252 224 6 29 176 135 71 66 106 51 121 89 241 190 105 35 125 86 46 240 163 162 160 226 154 48 9 22 189 5 246 129 34 166 249 106 233 255 157 98 134 142 33 240 177 158 73 224 142 178 130 47 8 29 95 172 51 28 142 41 158 151 208 151 156 185 150 190 27 28 40 60 12 197 218 85 84 105 7 5 152 16 229 247 188 104 20 74 133 178 225 184 73 125 225 223 59 177 251 100 106 7 41 134 92 125 194 99 131 157 115 104 6 47 208 158 121 85 149 90 13 169 215 239 91 19 160 164 119 11 131 160 145 126 30 83 133 161 240 225 9 246 69 218 148 184 47 42 232 61 211 97 44 47 188 204 211 147 215 87 166 104 213 29 188 91 190 172 60 220 163 129 125 55 58 134 97 34 96 53 131 144 100 63 205 55 211 249 142 121 197 100 151 157 191 85 5 251 49 193 125 174 110 183 52 17 217 149 72 92 37 170 156 242 223 111 235 67 232 176 122 127 77 9 212 83 109 5 20 44 179 130 39 232 147 164 125 220 91 162 134 52 148 101 145 127 168 45 47 34 156 125 43 132 208 152 4 228 196 216 103 236 222 250 144 145 214 236 121 92 32 246 
193 177 152 105 222 44 140 122 171 183 255 219 80 3 88 20 219 40 0 185 12 145 75 115 125 196 110 157 187 68 79 83 161 45 128 98 168 43 204 167 6 88 170 94 15 133 134 95 63 147 116 138 6 116 78 116 5 9 185 130 93 90 32 221 188 111 8 136 156 15 224 68 109 240 235 244 79 149 135 195 27 141 56 90 2 61 228 187 192 50 21 224 60 209 79 153 90 235 118 58 48 126 42 27 141 122 177 251 61 204 239 117 38 118 179 10 3 115 60 5 83 120 192 162 17 213 141 135 167 189 6 1 217 147 59 138 142 102 86 125 224 124 243 29 134 247 147 194 252 70 59 189 185 76 146 12 212 57 174 218 58 59 109 118 249 252 220 210 121 188 92 109 217 178 100 108 46 96 178 180 29 107 118 176 119 177 233 37 254 36 97 210 154 90 172 118 44 25 50 136 21 11 58 143 120 104 252 42 28 96 150 146 192 13 68 222 51 66 142 148 20 119 238 192 155 26 217 53 162 239 171 220 126 221 68 122 233 96 218 97 242 154 139 54 120 33 120 6 47 140 126 98 76 25 246 38 79 228 21 250 254 147 216 160 13 193 124 231 34 192 129 173 32 250 207 18 0 254 73 126 96 193 152 86 78 231 58 154 225 56 192 185 216 213 122 84 104 156 20 117 74 52 92 25 70 222 23 143 216 119 81 216 205 159 87 7 57 239 63 250 214 23 207 183 107 56 113 127 173 235 179 10 136 249 232 210 137 192 235 218 152 2 121 239 121 178 222 70 172 180 77 124 108 140 180 221 163 97 200 14 107 80 141 83 34 64 19 13 57 172 15 194 155 136 156 122 206 21 46 27 200 154 167 116 119 74 240 64 88 164 144 229 6 179 37 113 192 95 197 208 33 216 88 190 132 39 211 32 66 155 154 234 16 200 52 0 99 141 165 218 114 171 26 152 28 171 247 225 94 24 186 30 214 62 238 170 94 71 69 248 110 85 193 176 86 36 154 251 254 207 166 25 92 194 196 206 164 34 102 94 64 93 156 47 118 251 118 76 243 228 246 180 148 60 216 47 145 215 254 231 240 90 226 180 40 136 214 143 75 22 236 239 69 98 77 187 175 233 159 165 228 52 225 216 99 115 140 97 90 101 187 61 60 227 197 44 114 16 224 95 255 182 193 76 204 112 54 18 22 26 205 247 242 109 106 127 161 197 228 4 2 32 101 199 76 32 216 44 3 215 226 118 36 174 213 90 192 150 116 142 7 103 251 29 230 156 20 202 160 127 234 5 68 54 37 70 98 40 13 68 158 229 242 115 189 179 10 225 65 17 59 60 46 175 216 66 22 120 193 252 
125 5 198 162 75 176 202 89 230 105 62 72 220 251 140 230 220 127 247 23 50 37 199 115 104 221 175 41 218 135 47 160 255 122 81 124 211 55 30 18 128 232 13 12 81 234 139 46 1 189 20 200 48 12 166 223 49 128 102 153 32 101 195 113 225 242 169 255 108 41 232 64 53 57 82 193 103 95 126 124 73 175 136 75 142 185 19 245 83 185 90 22 57 60 8 90 59 116 203 35 180 116 93 6 157 196 102 211 64 175 148 200 250 18 130 14 193 213 199 80 235 1 69 243 91 159 103 38 219 28 155 23 34 56 58 136 11 151 56 159 92 50 178 156 64 115 101 8 195 231 9 8 188 100 168 167 138 131 154 37 154 1 94 213 29 105 108 64 9 200 200 187 101 0 46 202 51 242 177 115 250 109 123 162 20 132 38 174 232 192 175 115 149 205 152 2 13 246 202 213 96 47 214 105 249 9 36 170 124 82 23 248 68 43 124 63 217 101 225 137 216 7 86 112 200 99 103 93 56 199 95 14 48 42 23 84 89 148 166 83 140 235 253 8 42 21 109 11 64 69 19 26 182 219 163 29 56 249 228 152 92 20 194 148 104 27 163 14 110 186 249 108 78 35 129 218 47 193 227 66 219 80 29 126 150 85 119 76 237 211 105 175 104 77 203 11 97 57 197 201 165 20 215 38 238 209 232 209 244 195 34 35 66 184 101 185 4 130 141 109 216 245 186 197 0 27 117 197 228 64 217 187 121 200 140 31 153 129 69 187 164 45 115 10 241 119 140 51 228 100 236 158 42 121 185 159 110 157 223 110 89 88 52 229 119 13 102 189 213 11 234 111 21 219 42 161 14 158 6 251 21 48 116 250 207 227 152 174 81 82 6 133 239 126 147 72 59 104 46 37 215 148 1 2 159 15 160 180 10 181 86 127 175 92 98 72 140 179 154 91 57 137 9 204 210 15 52 0 141 12 148 200 14 52 238 174 232 239 99 62 254 19 154 9 91 38 136 245 129 234 126 138 157 80 154 214 80 39 162 229 240 215 25 222 227 1 205 241 64 203 159 218 212 2 1 92 21 130 70 112 13 228 101 167 186 228 206 93 52 190 52 133 156 23 106 105 8 131 53 167 132 9 169 196 102 191 159 172 47 160 144 149 34 75 121 47 168 173 214 220 50 165 243 156 99 251 31 0 162 164 105 75 104 158 10 7 168 58 167 14 207 202 186 72 249 75 245 208 150 40 117 62 196 216 26 228 216 13 136 66 8 240 224 170 248 136 245 159 150 0 105 81 58 99 156 9 51 50 81 168 112 70 128 138 110 89 151 51 155 159 23 123 73 159 4 62 143 154 62 135 
235 120 39 135 129 144 185 210 243 41 25 38 179 135 206 74 186 79 233 209 168 50 112 67 113 0 190 175 135 194 40 174 93 169 63 72 124 50 208 149 89 137 28 39 179 215 118 102 168 30 177 25 97 154 25 32 205 160 226 62 79 63 237 142 136 21 192 88 191 25 225 59 65 148 208 183 251 236 214 172 195 55 70 108 87 19 133 58 81 158 121 63 62 1 84 141 89 19 27 59 78 220 207 30 245 202 11 54 118 206 238 189 58 196 208 191 251 34 93 83 97 156 141 181 41 6 201 69 8 23 33 97 54 22 156 65 77 108 15 59 54 74 255 173 9 250 106 103 77 58 3 218 92 44 225 189 113 233 115 146 74 60 169 231 83 246 83 137 49 137 202 48 54 218 42 160 36 120 219 45 82 55 148 51 245 151 28 104 196 103 164 53 78 247 200 161 129 113 42 75 103 97 37 152 1 73 200 220 119 242 20 11 106 9 163 189 113 103 240 21 156 13 12 100 116 141 213 194 217 60 99 254 212 141 72 156 238 191 143 240 202 249 204 109 182 224 212 167 233 113 180 90 213 40 111 171 234 124 231 77 9 188 218 226 88 201 225 231 185 41 225 133 232 151 102 178 62 79 32 242 170 244 26 25 101 4 149 59 81 159 230 44 129 205 245 98 137 174 139 226 51 115 201 153 38 170 233 70 66 147 58 128 172 160 115 66 219 141 225 193 146 98 142 227 197 24 15 80 250 4 196 195 178 234 110 230 48 176 127 106 48 104 10 163 251 229 49 168 166 195 234 53 166 203 77 182 45 71 186 242 10 109 67 120 83 7 40 210 241 89 59 33 252 54 139 45 222 150 240 200 123 151 147 34 77 193 87 7 179 164 116 246 235 199 253 245 154 238 110 213 15 150 11 155 239 234 49 236 178 172 25 70 206 10 7 37 161 186 201 238 177 180 245 174 170 106 157 24 49 172 174 203 71 158 160 120 138 172 37 163 150 243 173 72 25 78 142 226 60 149 151 50 80 65 156 1 89 205 175 7 153 76 165 57 249 47 229 64 211 123 185 128 196 222 207 82 209 11 232 234 61 56 205 217 57 100 167 232 165 64 53 254 121 46 5 95 110 171 218 39 218 158 5 173 241 215 46 217 193 253 17 142 8 74 242 70 50 151 31 103 149 198 149 155 6 4 70 128 43 32 223 49 206 185 8 252 88 201 249 73 88 1 34 74 71 51 226 103 125 119 45 175 18 52 23 88 180 172 121 147 176 71 76 220 67 164 13 60 237 21 61 15 222 133 66 54 236 191 129 25 111 99 77 134 218 1 50 237 148 227 69 225 191 190 133 204 5 115 225 72 
130 191 132 197 246 194 132 119 71 243 218 51 121 180 76 172 161 154 143 231 155 78 165 48 26 171 17 251 243 150 186 120 9 176 58 140 39 129 81 1 180 213 182 0 201 87 154 66 62 54 238 228 102 125 143 119 203 130 13 229 250 23 224 52 163 155 181 244 75 105 201 115 106 146 116 4 213 42 58 195 130 160 65 192 23 12 164 37 242 51 60 210 182 223 109 176 211 185 229 156 44 154 47 160 4 4 203 110 199 77 114 8 13 173 21 178 77 7 229 101 217 155 138 71 76 198 0 49 165 44 203 120 204 207 20 151 61 67 228 176 71 242 93 15 164 170 23 137 15 44 37 153 51 113 95 13 162 4 84 109 124 84 61 145 128 122 212 76 42 28 228 135 43 200 50 66 186 65 111 94 219 162 232 58 175 13 63 3 126 187 87 32 76 215 141 33 36 202 61 8 69 104 208 111 170 139 247 25 233 41 188 209 106 107 222 69 111 92 128 198 124 191 158 10 122 194 212 199 202 25 232 154 137 37 37 128 141 15 169 55 224 19 81 191 89 13 27 217 120 152 152 231 162 18 174 118 217 76 144 193 14 25 230 216 153 115 114 66 171 152 85 252 167 174 9 135 135 129 70 31 105 98 50 23 250 11 99 156 205 113 18 179 73 162 39 187 187 210 83 84 206 250 150 215 130 236 88 200 154 193 42 34 216 36 65 59 192 115 172 211 127 245 117 76 177 49 255 4 133 38 255 28 248 129 8 198 73 162 157 116 196 246 152 6 183 89 121 144 44 248 203 161 68 120 210 68 109 88 106 30 116 99 35 124 41 34 30 199 163 227 189 236 233 116 96 98 4 249 91 208 82 159 72 126 227 181 31 78 212 242 177 247 74 218 25 190 161 188 58 94 168 88 211 9 59 215 2 36 167 84 135 239 210 226 165 241 129 121 227 101 112 45 179 137 235 100 69 37 62 237 126 224 246 185 62 248 222 17 76 101 233 30 71 144 16 200 128 243 45 37 33 224 158 12 68 14 50 131 151 176 99 220 105 161 201 71 179 192 172 156 184 243 44 5 188 172 35 233 209 51 202 111 39 14 125 72 145 20 84 244 240 134 150 186 54 73 122 160 229 50 231 17 55 148 190 91 135 143 142 67 255 181 45 124 253 247 145 82 5 129 216 151 59 15 139 181 175 33 232 150 106 31 42 79 122 178 97 9 245 31 190 34 174 188 25 173 14 31 42 230 182 187 245 65 60 164 99 120 59 205 45 101 29 21 23 126 53 13 157 175 47 75 184 73 249 119 104 35 51 30 222 65 95 26 39 194 146 29 144 192 193 173 213 252 43 10 98 200 186 121 
19 114 134 12 233 182 47 28 255 13 93 103 40 133 133 186 162 228 122 99 167 80 96 55 90 194 228 20 59 15 135 194 215 112 120 234 141 119 247 234 222 38 111 99 52 17 71 92 117 238 22 213 37 145 151 9 225 210 24 59 148 239 80 12 218 215 131 209 71 97 247 212 196 43 191 12 135 46 250 158 64 32 47 181 41 16 138 66 75 33 49 155 243 11 114 136 220 186 148 212 142 24 255 77 121 135 124 62 37 188 74 84 113 68 100 251 100 175 28 142 75 15 208 189 151 1 119 44 13 6 68 233 83 189 189 207 251 189 139 69 68 252 138 105 247 238 189 19 124 33 35 76 208 186 78 27 230 91 217 42 68 80 232 2 86 227 191 170 41 3 121 179 108 5 161 41 1 30 74 249 106 26 12 184 54 47 19 15 234 88 95 208 90 182 251 25 96 227 28 217 198 136 222 239 177 224 162 251 217 68 21 229 98 75 21 204 90 255 133 186 207 152 112 202 240 208 173 74 169 116 99 136 99 127 104 6 7 65 74 184 38 172 179 59 120 201 58 253 20 10 150 111 212 134 41 130 209 153 246 52 105 89 180 18 95 187 154 169 116 2 85 39 67 206 240 106 203 5 165 97 116 224 232 157 234 185 54 190 237 159 64 161 177 54 93 76 144 209 78 239 248 146 153 233 252 238 238 161 188 98 129 136 255 107 233 53 42 209 212 106 138 133 161 120 209 49 25 32 32 118 178 185 71 174 168 64 79 100 41 209 236 23 60 214 121 102 167 120 209 50 173 114 170 129 163 195 6 195 58 216 125 129 248 37 193 170 137 234 88 118 1 167 76 122 120 243 242 181 37 159 27 207 32 236 147 39 94 205 255 1 78 247 197 16 161 66 250 249 103 252 160 240 118 25 102 105 206 178 8 233 166 41 214 203 80 52 155 79 54 46 70 251 251 231 61 73 224 164 89 128 148 84 153 251 80 103 173 198 81 83 47 39 31 56 91 186 97 145 232 177 140 227 0 201 44 70 109 134 45 2 218 13 253 42 141 170 240 39 254 32 142 29 88 223 215 185 6 191 106 98 162 106 243 206 176 128 84 221 73 46 234 183 88 119 185 73 158 182 105 45 96 193 12 94 122 19 123 228 117 82 78 104 17 254 232 179 219 50 130 197 233 214 60 162 5 219 88 93 8 184 166 20 23 15 39 146 208 156 229 74 5 246 46 237 170 124 31 44 122 8 2 85 170 7 26 2 101 87 187 11 50 210 27 58 100 235 78 73 54 118 64 100 18 234 225 23 22 91 5 24 177 36 32 203 45 133 34 215 144 84 218 171 142 149 151 221 103 205 83 203 
49 101 21 18 125 85 110 130 63 31 166 85 234 211 109 13 171 141 97 133 18 240 26 163 205 129 78 32 76 229 133 97 178 2 182 228 132 245 246 43 74 100 254 184 131 169 69 110 46 88 123 72 251 220 201 73 204 22 47 153 119 225 185 46 197 63 35 188 65 110 32 198 38 164 241 107 18 239 195 141 153 190 105 199 8 54 16 55 207 217 24 137 239 222 200 103 154 9 149 186 207 184 94 192 38 112 176 76 253 73 184 103 16 123 157 32 58 108 250 66 245 233 121 189 80 145 199 229 111 150 158 9 87 196 196 7 17 34 80 201 147 96 68 144 129 126 247 123 192 148 100 57 1 181 203 246 154 58 180 56 68 123 253 8 17 14 42 104 215 189 111 27 78 191 154 69 32 90 218 161 148 219 28 95 209 128 153 133 53 221 0 208 229 18 8 16 122 5 205 234 19 27 169 234 97 201 6 59 106 160 22 134 250 231 7 142 109 60 237 109 12 135 127 21 100 250 26 74 228 46 90 141 24 39 87 30 67 193 190 164 72 185 223 79 71 245 139 53 220 152 188 73 173 32 183 199 106 54 245 196 48 14 236 20 44 47 162 235 211 249 164 178 186 235 167 2 32 131 81 220 205 221 253 132 117 103 186 34 44 235 233 24 255 223 71 161 237 26 154 25 204 85 4 115 87 168 246 169 148 195 134 180 71 251 145 2 29 142 237 6 245 236 229 33 142 210 57 40 236 128 125 240 154 213 153 102 126 45 217 4 225 208 255 114 147 28 0 219 34 246 221 8 23 202 218 81 182 198 209 68 183 108 109 80 210 234 125 172 191 94 124 61 209 15 65 209 234 64 199 199 92 223 145 127 48 72 135 1 140 97 109 249 40 64 228 223 236 163 47 104 225 172 119 34 10 98 99 219 41 191 173 187 62 116 3 197 83 143 39 131 137 79 133 109 46 242 16 93 50 241 9 30 20 19 134 119 239 254 54 156 96 117 16 137 58 100 68 97 231 71 176 108 215 222 95 96 59 145 205 68 176 221 88 54 207 71 52 227 227 148 90 243 30 144 87 98 5 63 170 64 171 129 161 10 225 82 156 174 48 76 139 108 130 90 176 183 61 8 75 151 79 105 40 50 204 45 38 118 109 125 247 15 188 216 97 104 134 145 114 17 253 14 108 174 90 169 182 221 65 6 148 105 56 223 150 94 73 4 220 21 19 152 139 116 0 130 5 115 90 3 129 224 177 220 241 103 185 93 109 77 7 166 44 72 4 117 177 224 138 71 121 21 75 121 151 94 236 241 210 110 209 216 74 195 219 3 32 140 80 39 243 124 111 97 242 32 7 124 104 11 
146 179 236 41 18 101 27 228 222 236 188 203 175 151 57 208 35 131 247 23 134 103 120 214 135 127 82 239 138 68 163 118 193 181 219 83 153 186 124 86 133 151 237 190 132 17 65 51 40 199 3 160 157 251 31 239 98 169 52 233 32 245 217 251 72 124 181 196 49 58 92 202 248 224 32 57 19 14 0 23 31 157 18 71 141 116 231 193 93 6 182 54 175 254 178 207 194 227 203 30 174 128 254 206 187 18 220 179 41 251 237 59 66 237 175 41 139 12 47 24 67 223 217 245 174 143 217 121 141 135 250 79 85 181 110 50 104 108 45 85 126 112 67 167 153 206 226 201 230 145 168 191 158 86 78 225 208 219 214 202 42 175 127 152 54 231 5 140 61 131 190 128 43 235 78 13 91 52 159 245 243 61 190 65 30 102 28 244 188 70 164 140 223 218 86 228 102 213 103 36 189 146 16 250 160 107 122 63 96 200 124 30 252 154 132 239 142 65 48 50 205 76 13 36 146 115 249 113 152 182 85 168 176 189 19 42 79 116 242 239 146 238 46 23 221 170 88 13 68 37 89 211 73 236 5 67 93 18 249 179 134 170 112 30 212 191 198 199 175 217 181 221 77 147 136 224 160 204 247 250 159 79 230 165 116 67 183 190 246 61 1 102 91 250 38 33 164 213 251 121 178 72 64 58 40 245 7 31 136 166 110 41 75 227 35 3 161 9 64 162 76 156 156 67 189 65 169 184 186 207 1 250 164 41 239 87 73 120 145 183 161 152 154 196 63 59 205 138 221 25 141 122 92 206 187 6 106 117 213 39 111 122 224 94 209 225 214 98 10 119 251 83 59 58 11 8 196 165 34 82 225 126 32 190 132 138 56 90 177 243 212 145 104 165 114 215 7 125 54 2 208 12 60 219 132 1 129 191 83 98 200 115 32 234 253 89 104 174 76 237 64 181 71 178 140 27 47 194 192 0 207 199 219 83 202 92 18 6 190 218 7 223 196 90 56 45 205 132 26 202 57 97 121 198 124 185 136 60 107 87 3 155 170 205 155 189 212 118 151 219 211 92 54 145 137 3 112 163 206 168 4 71 45 128 0 102 188 107 44 191 6 181 141 161 12 97 24 183 60 235 116 114 124 11 118 237 103 68 149 240 139 194 147 139 41 151 246 85 23 253 10 211 158 23 147 182 206 32 161 66 129 30 77 189 11 181 48 160 165 166 99 57 234 140 208 117 225 232 0 236 187 246 3 78 243 209 110 146 19 239 72 96 173 234 21 221 8 187 131 19 244 109 179 196 226 22 172 226 162 104 216 132 182 204 112 37 94 115 20 166 68 193 144 87 158 152 183 33 171 205 
142 95 136 112 117 124 82 24 64 43 156 237 247 12 85 85 127 11 251 195 48 140 26 69 36 209 6 208 158 165 47 38 198 164 162 85 188 227 197 88 208 24 100 37 67 227 48 58 166 97 143 192 166 138 146 172 22 48 81 59 87 24 11 249 109 58 220 50 222 172 74 155 209 141 243 2 199 88 99 86 59 9 225 226 181 247 162 7 50 52 31 61 101 140 119 188 190 86 181 9 241 146 150 228 62 94 60 16 180 120 18 149 90 117 141 252 126 191 49 51 253 150 58 116 82 89 202 7 229 187 153 164 160 216 173 220 232 67 84 250 161 174 111 86 171 237 235 220 32 120 114 91 56 196 180 53 203 154 169 101 62 116 61 235 47 37 46 207 31 208 172 142 38 0 123 17 175 155 138 90 246 194 54 171 247 168 69 160 108 131 20 55 110 68 156 156 19 217 108 191 254 146 192 29 164 111 171 46 201 38 240 255 194 231 167 184 135 19 99 156 74 168 224 231 43 243 192 153 179 191 54 115 220 162 226 136 53 171 174 217 170 112 7 81 41 247 100 140 222 174 53 101 149 96 1 86 250 225 21 48 213 241 210 136 121 7 251 40 224 221 152 231 136 193 222 50 78 188 131 131 34 231 227 35 149 221 5 43 13 218 129 224 98 150 231 93 135 200 58 1 175 194 41 142 244 193 74 119 131 108 94 209 144 243 84 149 30 55 111 159 21 209 53 34 46 189 2 104 190 234 42 231 178 30 168 97 149 43 239 243 252 58 230 80 166 5 136 54 164 157 203 218 191 58 151 194 11 85 172 57 60 94 161 228 191 203 16 175 233 12 233 126 93 143 113 229 198 88 130 145 93 65 204 1 3 215 219 175 17 114 13 178 199 205 126 3 124 103 232 101 230 248 244 87 4 186 175 97 76 12 70 24 14 200 239 233 10 0 92 13 179 35 189 49 39 202 152 15 151 126 7 19 214 11 120 133 109 109 146 179 39 160 124 115 137 134 139 229 147 123 9 80 123 48 27 46 63 178 95 70 198 248 81 62 118 190 171 76 114 211 210 238 70 100 116 210 4 7 77 141 88 200 115 115 247 124 37 86 172 235 78 235 42 197 49 213 17 130 168 227 65 239 71 179 193 75 161 14 217 21 214 76 28 205 200 116 36 116 231 114 95 13 55 144 248 73 18 34 44 83 248 116 6 160 191 167 143 152 188 80 228 217 94 172 77 53 32 53 2 127 66 38 15 58 153 34 93 208 117 85 25 124 245 70 35 133 186 224 213 121 185 52 18 6 105 246 59 107 163 125 146 195 184 43 67 21 251 82 106 21 116 95 91 234 228 21 102 186 142 137 
238 160 105 87 151 34 194 58 41 84 253 100 127 64 226 123 147 154 144 7 175 235 241 25 0 87 120 142 225 93 47 74 23 198 109 5 0 150 92 253 250 30 62 220 115 209 118 242 216 37 109 202 62 253 33 183 232 2 20 232 77 43 119 186 48 166 80 140 108 74 170 108 39 29 105 157 16 167 195 125 120 1 123 81 184 99 27 204 76 60 247 195 63 39 105 140 179 213 70 94 65 150 123 170 224 139 82 7 9 202 165 132 27 104 231 54 105 51 115 34 246 178 238 95 62 230 52 132 13 117 26 193 32 250 31 114 2 154 60 167 38 88 15 47 142 120 179 1 154 154 179 137 206 241 111 196 117 124 36 143 61 88 138 92 206 140 247 238 51 29 96 66 76 156 186 255 244 85 153 131 222 103 132 77 44 56 201 80 41 7 168 159 99 118 46 90 100 184 119 196 68 195 97 119 194 85 185 92 216 116 195 93 201 239 149 167 63 190 244 232 93 189 94 140 196 195 68 40 135 137 130 232 0 250 62 186 189 22 46 128 115 247 220 8 158 159 199 146 143 36 79 206 176 20 182 245 60 21 126 190 216 126 184 95 56 118 72 102 246 134 93 210 156 251 113 16 141 0 24 221 207 223 241 133 4 45 154 180 235 114 169 164 210 39 26 26 166 16 160 222 226 60 69 83 76 162 84 101 158 35 68 43 168 72 8 67 253 249 181 166 38 135 206 18 161 116 182 65 82 208 126 151 224 202 58 194 47 216 21 116 3 105 188 12 140 185 5 53 96 44 120 46 62 45 162 244 181 244 196 86 140 164 152 198 102 22 158 123 224 161 229 16 173 113 132 179 166 64 223 30 250 29 76 90 17 1 136 213 87 42 121 239 30 223 5 170 90 230 112 63 246 14 177 122 176 87 186 93 118 180 16 194 14 239 195 150 12 26 192 29 10 223 242 15 137 107 245 250 74 235 8 165 101 184 228 32 22 149 212 38 237 227 22 99 121 34 37 58 64 232 25 50 2 162 158 12 156 232 28 165 141 17 93 114 253 115 7 98 154 244 130 176 87 87 210 124 58 18 100 179 69 103 237 227 115 6 203 143 169 89 161 69 203 158 234 210 0 72 199 131 187 30 218 85 155 20 5 255 199 216 102 181 234 218 187 47 105 100 18 10 170 222 168 148 55 169 220 2 44 152 212 6 237 155 26 243 186 225 203 85 150 181 84 82 229 187 182 247 149 96 213 254 245 12 9 209 14 177 105 227 90 87 126 134 74 56 140 21 141 166 202 226 136 175 157 30 167 50 112 124 48 39 137 57 135 151 235 124 122 69 78 249 204 183 49 88 14 191 255 88 
161 135 109 62 165 56 112 22 231 160 61 142 218 196 11 197 65 148 10 143 43 214 70 166 47 85 159 46 173 208 181 27 143 90 83 48 112 58 110 173 201 222 114 212 127 179 104 89 66 147 30 136 57 40 221 216 255 139 169 46 166 56 92 249 105 17 51 215 107 252 182 220 208 53 137 56 142 251 204 172 174 5 212 240 222 211 121 135 1 86 191 93 225 40 110 135 0 218 128 182 182 180 235 63 176 121 59 129 37 233 185 249 218 133 205 83 139 206 169 105 44 139 240 154 18 175 116 147 216 42 71 216 106 247 142 165 120 121 142 50 242 104 183 23 187 66 16 101 171 221 240 155 172 2 75 216 149 35 114 220 251 231 212 137 17 76 2 123 126 244 32 54 11 175 120 27 23 36 249 211 191 165 56 10 125 40 45 239 42 40 214 192 177 232 156 179 99 112 167 132 189 178 51 59 206 74 113 199 29 234 108 85 14 233 125 205 216 168 216 175 104 5 151 4 46 250 117 223 126 50 147 177 109 58 252 223 237 25 201 187 111 215 130 236 164 238 148 124 215 252 130 175 1 176 94 118 143 245 168 34 240 21 93 110 244 74 32 189 5 28 148 135 53 57 117 164 181 76 145 55 251 37 231 90 34 119 79 35 153 63 153 246 174 65 64 206 86 69 234 75 204 31 8 65 196 157 141 85 214 137 122 139 227 156 195 50 191 170 114 88 33 32 153 187 238 240 177 216 59 242 247 67 55 187 224 4 16 182 69 139 66 211 39 5 92 231 175 63 63 209 113 217 140 227 201 61 3 4 47 241 71 103 201 40 107 193 222 176 124 32 131 141 37 223 24 213 30 63 166 144 38 50 115 102 111 119 63 159 104 8 6 50 12 113 243 83 33 111 123 165 252 90 132 20 122 163 84 160 51 122 117 166 224 27 29 31 77 134 39 188 184 51 91 171 135 97 26 2 210 23 92 244 43 215 153 127 119 29 250 236 192 218 7 243 250 84 154 33 16 183 85 108 61 220 205 245 222 160 160 59 148 187 18 45 210 137 74 253 117 11 125 124 254 119 208 152 81 224 80 75 76 141 109 26 131 194 186 35 158 78 222 124 123 176 183 197 174 201 208 43 82 207 162 199 103 243 67 183 63 19 69 172 244 200 110 64 235 12 90 202 136 20 122 64 98 40 9 221 83 92 163 245 35 115 233 103 66 40 122 170 212 110 97 66 175 166 78 9 110 214 30 90 22 128 36 32 94 158 124 1 199 159 116 26 6 183 16 129 97 249 239 194 33 158 105 245 168 215 55 198 49 133 70 85 91 164 244 114 165 187 146 26 213 14 209 229 173 50 222 180 
244 255 53 93 244 36 53 43 195 102 176 107 188 12 49 176 126 119 107 16 28 64 30 193 38 203 219 4 127 172 4 180 222 248 217 211 36 156 48 212 7 101 224 56 204 94 175 136 110 203 56 140 141 163 88 104 227 215 21 9 140 243 14 101 198 18 1 247 10 8 92 46 64 40 3 239 176 227 187 232 66 72 139 176 176 111 61 197 120 149 185 134 108 127 152 248 118 163 93 211 209 94 251 212 102 172 184 166 148 250 150 32 170 81 143 231 153 7 124 73 142 233 15 38 225 200 201 63 71 155 157 190 111 4 145 39 170 140 33 64 56 204 145 205 179 42 237 48 116 124 25 131 131 250 75 17 57 146 56 215 80 1 219 225 156 133 110 12 198 166 51 87 115 85 130 96 33 246 220 212 121 96 4 196 113 29 86 169 24 167 171 81 136 71 40 246 83 3 157 135 137 16 220 79 113 253 166 77 209 40 173 214 30 31 243 151 200 11 91 115 93 178 187 133 89 14 137 225 149 18 216 113 97 117 110 7 133 64 48 246 22 78 68 9 230 241 21 65 16 114 243 217 247 76 76 128 46 7 146 6 22 243 123 171 251 0 29 43 247 139 121 59 203 95 44 225 161 61 235 148 22 0 225 98 114 15 106 105 21 128 234 144 43 124 144 72 112 135 212 107 194 159 150 239 129 15 44 108 111 66 108 16 164 222 164 14 71 133 142 49 148 186 174 169 2 30 57 214 137 202 118 31 81 247 46 20 99 157 3 207 173 47 173 82 113 244 215 21 38 108 36 212 21 178 242 79 108 123 25 111 154 106 69 200 126 187 102 129 178 19 176 21 101 33 228 61 55 145 169 91 134 190 13 172 13 122 128 38 233 114 145 46 237 15 234 135 145 156 79 65 178 181 99 150 201 154 40 46 245 174 107 2 90 20 124 218 211 101 76 224 148 57 7 126 192 152 26 15 167 204 197 56 99 142 122 139 188 221 57 40 119 147 60 108 109 15 110 185 240 235 242 247 80 178 143 228 193 54 98 134 111 125 20 233 73 209 198 172 249 61 55 53 169 112 69 23 3 53 2 112 44 83 41 187 55 27 241 154 205 96 23 143 73 96 21 15 13 42 76 68 251 245 181 244 13 184 41 15 41 110 98 82 163 154 110 207 52 59 138 75 202 124 171 224 220 184 10 38 253 5 53 178 249 130 106 34 119 147 145 132 230 52 148 84 4 246 143 142 144 90 10 196 58 231 15 68 13 187 73 66 115 66 196 112 100 60 34 245 192 141 42 84 32 46 75 6 188 219 90 199 160 234 174 175 68 187 106 126 253 222 194 194 78 11 254 113 77 190 254 177 
19 30 167 94 37 209 57 127 255 217 105 187 137 173 130 243 43 48 209 237 235 32 248 233 145 69 171 143 247 169 173 158 103 210 111 122 82 110 216 187 41 18 105 172 235 148 220 116 130 200 104 122 177 57 192 92 89 183 5 234 85 108 121 196 231 39 50 191 249 91 209 75 7 189 7 228 49 112 172 153 4 93 211 134 185 44 1 190 23 193 42 144 120 17 183 205 209 177 145 162 252 195 95 3 30 145 115 38 42 120 10 253 254 182 42 255 19 65 192 204 209 56 138 137 5 180 58 150 198 54 89 151 58 120 57 173 158 153 37 168 42 36 94 84 35 113 82 228 61 124 28 199 189 34 123 142 184 65 23 18 216 81 138 18 136 40 171 194 208 213 111 46 41 149 159 123 185 220 247 220 163 180 192 30 67 221 96 90 255 56 172 183 74 52 201 245 246 83 202 101 123 244 250 75 111 179 121 103 144 24 27 80 244 94 45 151 185 44 182 101 228 22 153 173 78 143 1 153 244 124 142 239 200 89 162 65 77 50 90 188 131 78 35 176 230 63 221 156 157 193 178 86 110 0 187 111 153 84 236 40 227 180 129 216 245 206 199 79 138 105 158 174 156 132 237 31 32 138 207 210 225 172 210 156 109 108 241 220 148 212 75 21 172 55 227 115 235 109 221 225 27 121 48 8 152 206 147 103 82 116 20 114 16 129 68 1 93 23 214 169 131 130 224 23 246 204 44 211 173 15 76 221 124 228 172 152 75 254 160 95 113 51 225 181 167 62 204 184 231 79 185 200 102 143 148 146 18 65 161 8 30 30 219 202 182 39 201 86 11 58 138 86 239 49 182 188 233 151 11 163 213 114 50 189 4 68 133 166 76 25 196 39 90 122 78 120 208 89 67 90 176 12 140 102 70 117 253 53 24 210 241 75 143 253 143 20 111 220 45 115 3 135 25 82 0 221 171 67 87 91 79 40 193 149 130 190 202 14 145 188 132 32 185 156 53 40 231 98 155 119 234 181 83 234 146 86 45 234 168 124 18 84 17 148 175 219 163 113 151 39 47 80 195 192 120 171 225 20 34 22 201 117 120 91 203 98 69 116 76 87 200 121 236 119 245 143 232 6 182 24 226 121 216 121 36 185 202 70 207 66 187 72 86 135 170 31 251 247 123 195 112 192 58 102 24 35 108 4 59 78 147 19 200 73 205 146 194 156 212 231 228 43 45 143 74 233 134 197 112 246 134 107 92 158 46 201 162 104 23 53 139 223 126 198 113 64 218 70 39 167 113 85 67 187 62 40 129 174 183 7 25 61 165 71 51 71 175 144 124 59 89 250 1 112 58 219 80 98 130 193 
183 198 7 245 238 120 163 165 52 188 226 181 3 21 188 178 165 97 237 254 168 239 111 36 202 191 30 77 128 88 19 136 186 1 0 113 166 52 102 136 233 9 157 165 197 67 6 200 65 174 123 176 210 104 111 240 87 240 73 34 120 3 111 120 117 130 173 219 131 150 229 41 60 170 177 66 115 78 241 238 145 195 86 211 180 174 131 253 208 243 0 63 227 117 193 91 81 68 211 54 109 128 224 30 23 83 108 83 65 254 149 152 209 134 70 84 74 22 71 254 85 42 251 22 133 251 90 89 113 199 217 194 229 240 248 81 67 216 79 217 44 32 95 109 117 169 5 188 167 75 231 162 97 108 158 182 197 15 204 159 209 38 143 201 237 211 161 210 172 205 36 11 59 115 181 64 148 92 140 9 255 237 197 157 164 172 172 112 25 125 151 222 70 132 125 231 87 13 181 123 224 240 238 140 48 130 151 188 139 76 170 81 169 78 253 168 190 22 69 85 245 241 218 114 110 49 127 180 172 95 155 154 235 80 29 131 64 168 207 113 249 120 45 247 32 215 13 101 37 2 86 228 117 196 57 244 120 19 84 20 68 63 100 240 194 165 139 146 22 168 10 67 80 43 27 74 144 64 65 231 36 78 171 94 81 36 113 198 56 182 186 156 166 14 65 49 78 87 217 16 155 42 162 182 116 173 246 181 216 27 3 104 121 84 79 234 26 251 160 213 31 71 227 87 120 49 243 82 66 53 124 228 140 240 145 39 165 105 221 168 210 212 253 33 239 23 28 104 236 59 82 208 146 243 1 134 58 67 187 178 40 71 4 185 111 128 35 76 112 245 32 21 22 15 190 51 119 187 110 202 210 1 189 191 135 247 143 66 169 144 137 174 212 248 46 252 69 159 181 101 180 216 117 114 205 236 45 228 182 0 23 115 191 133 106 78 134 20 222 13 194 178 79 240 174 217 143 100 209 68 60 22 182 10 124 228 238 241 228 5 221 163 138 148 241 17 7 207 30 114 130 110 134 48 71 72 148 24 56 209 47 200 219 171 12 201 156 194 206 121 166 88 13 138 105 21 45 136 135 30 246 13 238 61 85 112 85 141 160 132 85 53 47 97 6 203 36 225 69 202 170 82 85 120 103 130 208 238 161 58 251 143 194 80 255 184 222 159 245 51 212 74 149 218 207 185 187 254 131 101 202 216 221 15 91 174 97 252 232 201 139 170 183 138 98 179 41 87 3 254 161 225 216 112 21 148 111 170 249 57 99 215 72 230 133 169 191 109 114 26 23 42 22 121 221 161 208 224 43 113 194 84 226 215 82 81 129 43 138 228 191 210 202 184 123 137 143 238 163 20 
24 185 129 245 90 152 213 133 17 151 218 225 110 44 83 239 87 53 211 22 134 158 207 16 39 94 226 203 115 93 132 244 75 223 141 99 100 158 88 62 128 46 107 211 197 194 8 52 217 142 35 168 158 247 6 128 149 121 221 188 110 41 135 251 140 12 153 229 235 25 19 79 236 216 142 244 12 249 130 48 187 32 39 148 160 188 60 126 120 67 167 0 188 51 12 42 24 247 37 43 70 191 4 212 216 16 205 197 64 137 185 103 29 60 35 90 92 156 157 253 156 89 123 168 132 34 159 169 85 229 104 110 186 65 153 135 6 157 16 191 174 46 251 238 136 88 86 37 85 121 126 208 21 2 242 177 172 71 89 20 181 248 85 79 222 91 236 152 27 154 31 22 137 48 110 223 94 195 88 230 147 110 11 133 31 137 205 121 140 130 113 56 209 79 76 190 231 162 88 7 253 225 55 24 192 149 47 25 123 157 135 134 97 166 15 244 31 155 122 145 211 71 224 32 201 200 194 155 207 191 89 6 216 177 155 7 147 22 164 83 156 5 108 171 250 243 71 116 154 26 187 185 58 132 74 252 31 43 188 120 243 148 42 194 155 189 200 63 16 99 69 125 121 63 112 21 179 10 192 110 196 7 242 14 34 18 57 92 138 44 89 180 238 21 113 182 169 130 25 68 255 146 131 111 167 200 122 104 7 62 111 186 76 145 40 134 238 27 178 71 45 161 92 183 87 5 108 113 73 221 3 204 95 171 149 94 19 156 206 130 87 72 20 127 134 2 154 210 73 199 88 165 127 11 170 235 172 243 200 3 191 40 116 84 134 120 241 84 35 72 156 54 199 34 184 98 245 204 41 77 206 168 88 23 147 4 188 92 8 102 132 124 89 10 244 25 95 23 109 251 77 94 30 6 166 19 210 110 96 161 208 185 184 249 189 117 162 197 219 53 66 53 145 54 78 21 78 187 32 155 26 127 161 192 122 116 46 152 21 254 171 205 248 12 66 154 197 30 207 130 83 97 72 161 118 138 92 150 192 118 21 14 55 144 170 101 40 75 100 212 191 92 224 212 246 165 162 197 39 228 38 111 2 157 249 85 51 186 246 73 200 83 217 114 201 1 190 0 213 125 102 181 82 202 90 244 38 130 216 28 241 219 225 235 48 8 165 39 165 109 122 216 224 67 33 158 68 250 27 170 252 109 116 209 97 154 135 58 182 225 21 151 99 69 159 85 108 68 64 230 29 229 42 62 82 110 57 50 24 53 208 140 6 236 38 141 89 220 111 187 115 210 245 19 39 10 87 103 79 116 76 188 179 159 162 236 209 204 33 162 58 39 142 82 181 231 222 36 162 4 
246 151 224 30 161 84 133 241 103 210 173 190 113 79 51 66 28 230 228 86 210 114 169 243 90 135 26 252 140 207 148 108 243 53 192 234 38 39 8 211 230 141 35 25 95 63 255 208 149 209 19 62 196 247 198 222 106 82 174 196 190 161 192 127 139 84 166 147 138 140 33 176 165 128 132 164 81 167 117 100 230 57 91 123 24 197 186 198 137 128 103 74 210 243 158 144 134 40 15 167 217 182 40 93 66 121 4 232 221 234 140 56 101 2 254 31 59 135 159 83 209 113 25 112 2 129 152 17 116 113 199 250 206 10 162 210 242 202 188 126 67 34 128 32 65 188 88 225 15 86 82 41 222 84 170 175 102 30 31 45 24 184 55 186 41 41 132 248 168 199 202 40 231 135 228 64 169 244 150 234 29 116 203 199 36 30 229 67 114 253 251 216 184 37 6 60 29 61 4 231 103 235 110 15 43 23 55 194 2 28 54 205 16 90 235 45 158 94 244 153 54 217 190 60 214 219 122 142 195 225 203 49 240 207 73 39 186 75 67 230 24 83 168 4 128 222 98 116 57 152 77 215 213 36 112 79 178 47 48 125 10 32 76 205 71 7 255 139 237 72 222 149 147 95 115 171 211 172 175 33 131 17 69 244 170 247 35 127 117 45 206 193 251 254 200 250 30 181 66 101 74 213 240 190 128 207 106 48 46 238 65 1 226 235 34 5 106 103 50 56 95 45 54 212 39 84 149 105 186 94 62 170 19 191 121 94 239 167 28 48 169 134 28 203 116 134 51 86 191 146 91 245 102 142 74 251 187 4 89 227 174 109 76 40 203 139 207 231 74 120 109 57 68 226 105 119 56 133 9 148 12 111 34 203 106 221 192 196 192 10 49 13 14 252 152 189 227 226 229 80 27 180 50 132 45 107 10 113 255 22 232 33 225 241 254 161 96 191 172 202 204 186 142 100 119 191 70 92 187 97 17 158 229 62 239 239 175 33 5 151 140 230 136 139 136 232 172 52 178 171 238 65 106 102 0 54 194 188 154 211 90 224 17 73 65 192 107 38 87 247 22 223 131 27 199 47 2 122 218 138 187 68 190 187 122 172 119 20 18 210 244 213 27 53 168 134 92 186 126 114 122 1 141 210 48 143 177 11 25 121 79 215 243 202 132 174 222 150 105 211 107 225 8 20 179 100 206 206 214 72 85 100 26 211 243 204 212 13 69 4 228 56 15 104 230 95 255 79 41 106 48 7 126 227 218 76 178 227 149 7 71 175 218 30 123 174 130 192 178 117 248 194 130 222 33 103 46 74 207 94 81 206 66 44 57 244 15 183 251 86 4 213 116 153 131 246 72 53 108 196 
247 238 132 24 85 125 98 37 91 180 243 137 224 44 232 239 228 42 69 232 30 186 129 25 176 201 238 28 141 113 11 18 166 96 143 158 133 234 182 121 116 25 165 92 205 137 134 173 113 164 156 242 189 225 188 171 155 73 28 76 91 194 104 234 96 115 213 23 212 73 48 89 165 253 210 43 170 120 207 70 1 140 39 115 55 195 101 83 15 33 21 119 107 118 235 198 141 191 177 189 24 134 186 235 207 100 99 116 170 100 159 209 215 110 148 61 250 163 94 49 27 201 132 6 144 153 197 65 15 221 199 156 200 150 89 43 10 19 144 169 119 103 23 33 164 17 243 3 66 135 204 198 43 92 95 70 157 111 76 100 11 17 250 101 238 4 120 183 173 240 226 196 17 114 213 4 218 23 140 126 221 183 129 61 253 78 172 73 170 183 90 72 28 72 172 149 255 167 133 226 171 150 84 89 155 46 29 39 173 243 222 46 10 219 124 232 36 39 37 126 111 209 198 27 136 198 194 165 168 110 58 252 199 191 43 228 85 216 215 240 6 226 23 131 202 245 170 239 208 25 192 244 52 72 114 247 237 57 101 39 255 44 230 167 16 60 163 232 44 206 202 68 166 148 57 173 131 10 48 67 254 218 139 113 243 121 170 39 160 169 30 135 80 131 195 243 175 239 194 192 51 104 168 109 21 114 119 69 6 117 31 137 230 18 204 144 58 87 57 88 208 137 220 113 125 139 248 63 75 187 167 243 170 189 101 222 2 107 75 34 244 194 52 192 55 110 24 30 199 232 174 163 89 232 46 81 113 122 12 238 109 183 45 211 149 213 62 224 146 51 162 148 243 217 182 11 247 235 244 166 89 77 142 32 159 255 195 171 238 242 98 27 108 247 240 217 215 130 172 121 23 235 83 205 30 74 184 17 240 18 29 126 50 17 126 246 94 108 232 253 135 84 169 120 45 11 250 218 3 17 197 218 223 227 84 151 244 167 169 17 241 220 34 226 210 129 96 186 126 222 14 39 74 59 51 210 21 54 74 218 16 68 189 100 86 178 11 53 195 253 204 230 223 118 103 63 82 229 30 36 13 104 222 64 58 236 118 132 39 134 201 61 235 31 23 246 84 213 243 32 135 210 150 74 18 232 48 48 12 151 152 234 125 211 214 138 87 254 202 32 59 64 63 82 198 147 39 177 180 174 168 74 249 155 51 41 110 63 193 128 42 62 176 0 200 72 254 146 27 57 210 115 140 152 147 179 74 211 98 242 102 91 141 26 132 251 101 69 123 152 131 43 215 75 116 1 221 143 2 175 2 0 72 150 58 146 105 198 132 207 121 17 234 219 13 79 54 136 231 187 
180 190 0 40 192 132 183 194 207 186 194 173 80 252 92 185 194 164 136 60 54 114 23 186 193 78 204 168 9 217 103 9 97 39 141 21 233 93 61 171 10 245 168 102 175 106 11 255 166 65 184 190 252 64 12 200 179 21 161 116 30 2 29 172 24 132 9 85 171 19 74 148 121 249 63 132 248 231 198 176 82 194 241 248 138 164 182 43 24 194 45 53 215 69 185 246 155 100 162 229 248 171 223 56 190 215 31 55 136 113 188 121 106 130 29 32 68 53 227 206 107 186 249 36 176 38 137 82 108 129 253 7 185 187 236 217 243 203 74 175 163 180 49 43 213 117 164 184 67 193 114 60 246 35 98 97 117 206 134 115 213 15 46 194 144 33 141 74 208 48 35 1 91 109 118 255 34 185 192 247 245 183 175 88 24 33 38 158 68 252 173 186 190 62 45 75 136 91 124 171 125 215 24 77 215 58 79 151 49 197 78 224 127 103 2 116 5 70 204 179 0 243 241 45 239 121 137 173 36 6 248 60 83 116 119 162 76 168 104 35 137 231 186 139 91 9 209 40 112 210 27 117 255 10 40 136 183 25 142 175 146 226 36 182 132 112 243 236 147 106 211 77 18 47 86 155 87 198 38 114 60 248 124 100 202 51 126 201 226 16 82 6 199 224 118 186 194 9 36 71 87 54 51 173 210 7 116 248 54 176 240 141 20 186 255 146 132 123 163 214 174 106 182 144 36 121 151 72 192 13 126 243 23 80 250 110 73 48 27 57 189 143 244 188 63 120 55 84 78 229 230 4 118 137 125 13 243 61 26 23 49 49 95 43 159 222 92 187 46 25 74 119 214 138 177 13 222 165 243 196 29 105 78 107 118 65 111 144 89 237 194 184 42 97 150 91 28 197 135 103 60 227 241 237 252 207 146 210 147 175 224 225 26 211 35 138 60 124 119 178 52 161 66 203 253 4 144 132 102 204 103 130 186 99 233 76 54 218 252 22 169 22 233 61 160 37 30 23 215 65 185 25 189 182 30 242 58 132 189 161 6 77 4 240 25 58 202 211 80 116 32 57 177 28 94 207 50 53 17 211 79 206 234 109 192 163 241 125 89 247 202 147 231 228 52 178 183 57 38 215 115 215 243 196 166 38 253 183 249 92 134 227 145 70 135 224 196 224 77 142 116 62 114 168 54 42 225 29 1 85 207 245 25 245 27 22 204 20 114 115 247 4 42 126 228 176 95 50 247 211 112 187 123 166 73 93 196 188 178 147 230 203 137 231 225 85 220 84 200 247 88 243 11 60 163 3 110 154 129 223 85 224 133 159 179 73 91 47 221 65 140 102 40 62 187 5 9 132 252 234 
119 8 62 26 11 150 181 140 211 10 109 65 169 32 32 4 79 166 69 219 239 110 25 204 115 34 50 111 13 238 119 75 114 130 226 233 15 181 3 124 246 184 156 23 195 236 189 108 199 172 113 225 121 182 3 171 36 16 153 151 92 11 7 62 244 126 243 248 1 233 176 16 0 115 140 189 224 40 106 81 20 227 7 220 142 44 189 40 195 192 51 202 209 40 73 45 32 74 107 208 90 94 68 230 71 36 14 72 117 35 5 124 255 111 168 188 82 108 124 225 54 77 9 127 122 60 201 229 100 35 67 132 9 139 85 24 211 153 59 216 189 58 72 50 246 154 174 114 123 87 192 132 195 58 193 249 32 37 121 99 170 66 238 255 102 193 152 111 154 85 135 226 135 194 124 53 252 248 140 242 124 79 101 61 73 37 99 194 95 13 4 127 12 106 227 164 218 209 249 97 147 128 36 45 181 32 15 66 19 139 145 120 131 218 157 0 156 252 61 161 124 160 11 95 173 229 48 185 71 195 93 107 240 86 139 255 214 158 139 140 22 14 206 179 14 95 176 76 58 44 236 214 139 154 119 187 83 131 127 177 104 111 7 175 111 222 26 250 106 166 8 56 68 23 151 91 99 209 14 79 168 190 233 31 234 61 162 117 238 11 49 245 186 176 211 213 31 61 123 142 117 191 136 13 26 145 222 41 168 134 231 11 166 210 90 72 71 68 83 120 129 14 40 111 227 72 100 94 214 56 29 95 117 56 240 235 97 152 248 72 163 214 26 253 93 98 65 3 218 194 75 3 49 159 75 150 173 33 206 144 128 67 238 112 46 11 8 38 67 171 253 164 169 90 237 234 93 7 173 168 105 222 71 68 116 244 71 66 132 146 134 114 179 180 126 52 219 193 164 216 102 173 50 83 88 143 90 1 55 196 236 127 8 153 115 79 119 248 225 236 106 148 46 232 200 180 170 109 105 16 26 68 99 114 28 189 116 78 129 96 221 137 249 20 216 112 147 185 92 7 78 139 255 22 63 105 131 168 82 157 236 252 16 8 12 132 86 111 228 51 44 221 72 174 77 219 55 170 226 16 53 225 201 116 75 23 29 157 46 9 153 177 18 165 79 104 20 95 156 64 227 228 238 199 191 38 164 162 54 241 131 255 155 206 23 208 107 69 69 4 246 98 169 69 107 189 164 125 254 135 230 236 78 130 18 242 102 72 228 37 72 127 199 95 80 75 164 149 25 154 247 133 224 98 137 132 224 51 12 198 240 90 72 238 77 174 219 49 211 237 176 155 54 0 230 126 149 255 221 140 132 129 239 14 27 207 65 251 149 49 128 221 32 140 139 251 230 94 232 51 
249 30 100 223 156 21 223 121 21 99 250 171 113 22 55 178 17 38 228 145 245 4 29 138 255 4 103 231 55 242 6 156 81 162 177 74 28 198 42 22 113 9 44 169 108 62 207 222 207 197 144 237 79 116 241 183 120 40 169 119 196 250 95 117 69 101 60 111 7 173 120 35 86 228 58 38 194 102 235 83 164 58 199 116 241 64 97 155 183 82 149 22 122 218 123 63 73 131 180 193 166 240 166 224 158 104 71 244 187 235 26 131 95 5 195 192 64 122 18 49 145 141 204 12 204 98 143 128 60 54 113 134 22 15 71 93 3 237 73 30 86 168 35 17 105 99 148 123 149 87 8 97 210 212 195 99 85 0 111 198 134 255 213 205 53 216 187 75 246 17 169 26 34 242 125 183 154 18 14 3 116 224 127 55 67 135 55 179 92 189 178 177 139 231 119 70 50 76 87 219 36 121 205 27 48 104 53 63 107 178 31 234 197 99 114 57 22 206 112 200 127 168 175 246 101 225 66 240 189 102 54 138 129 141 242 182 7 94 105 55 72 46 118 186 103 150 136 215 249 7 127 15 253 229 215 63 213 134 166 12 103 39 153 36 222 160 175 71 216 161 117 78 255 220 228 72 179 221 2 51 236 139 24 195 146 237 73 144 249 177 207 147 213 117 51 132 157 11 38 123 90 37 194 62 109 55 28 112 19 8 251 198 204 141 249 21 29 17 198 237 255 156 98 248 32 255 139 70 122 191 108 60 202 217 115 36 73 134 99 68 77 127 210 70 135 239 88 83 220 87 105 63 79 47 62 219 203 185 154 236 245 100 50 105 137 158 239 236 120 60 107 193 131 242 6 219 70 216 50 175 199 129 222 164 92 170 227 246 150 33 91 200 218 228 103 208 208 223 57 59 160 40 45 166 101 115 126 232 34 70 195 1 234 245 171 205 118 65 238 211 9 201 201 112 153 36 79 210 8 240 250 216 150 95 19 21 71 65 91 10 180 69 255 215 18 118 216 0 73 131 201 18 196 98 55 205 52 63 62 47 24 141 142 43 125 214 108 20 224 33 41 224 248 132 86 208 201 159 83 219 177 23 219 232 228 165 40 34 7 64 176 60 107 45 107 216 65 249 249 106 207 241 238 176 193 183 144 20 146 230 43 110 133 15 19 54 50 26 31 226 86 71 15 193 135 81 187 242 187 138 202 170 58 195 97 202 180 244 176 117 98 53 137 117 108 180 143 139 196 230 210 246 167 89 216 98 75 231 237 22 56 39 217 244 242 142 158 162 3 255 216 141 243 68 65 85 207 5 202 161 251 90 250 211 64 69 187 231 91 243 74 53 231 55 195 133 94 198 133 80 
83 120 243 149 206 203 154 152 15 150 242 222 105 50 127 36 26 121 24 100 190 255 155 26 133 249 79 10 74 18 130 61 216 80 8 44 233 23 193 219 245 91 14 116 241 40 237 91 140 171 127 39 197 151 32 20 151 106 38 28 167 255 38 175 43 168 198 236 249 187 71 226 47 57 189 28 148 203 200 19 243 141 171 127 162 66 166 200 94 199 199 132 49 242 44 217 222 37 136 38 7 79 95 197 10 243 144 58 6 132 86 177 3 30 243 170 172 81 113 78 213 162 22 2 123 222 39 4 208 47 83 175 244 93 213 132 151 52 8 238 39 12 12 45 182 184 223 39 6 210 201 29 36 69 251 249 73 203 251 156 122 35 249 79 82 145 131 70 127 170 202 139 216 211 68 183 223 74 137 149 103 173 188 98 167 133 46 162 202 168 197 19 248 23 175 123 93 169 38 40 58 254 251 185 181 218 68 62 111 136 236 43 211 147 176 58 53 123 157 251 142 203 18 62 115 112 231 107 152 33 231 147 218 13 109 30 11 220 167 192 7 122 254 183 180 234 50 81 125 193 28 179 255 144 174 230 251 192 7 226 48 225 239 200 255 250 91 166 186 200 32 185 164 213 163 171 38 33 99 67 212 149 211 130 86 206 66 85 177 115 59 160 59 66 155 151 35 85 95 35 14 4 201 178 175 234 211 18 191 167 168 229 41 254 40 107 84 251 222 143 202 26 210 123 177 245 27 16 24 182 20 226 12 196 204 26 214 139 204 126 112 159 125 153 70 209 148 111 96 94 219 50 217 185 40 245 211 64 171 132 34 183 149 238 210 169 121 158 109 234 62 68 131 132 194 23 244 63 118 207 16 79 136 113 68 92 163 240 224 203 167 117 12 121 31 46 24 140 29 86 208 150 218 147 128 206 210 3 157 227 27 38 84 145 130 247 224 98 195 37 216 207 21 247 253 188 131 26 54 84 177 78 231 49 164 185 53 126 156 80 77 240 225 234 232 193 16 171 230 146 122 251 245 119 184 205 146 238 196 67 60 71 116 224 155 169 94 130 249 171 60 218 150 216 156 166 201 130 57 177 126 46 92 54 251 214 36 191 77 96 6 223 64 162 34 158 36 151 74 96 64 224 57 58 134 2 20 191 179 176 237 15 51 232 229 177 167 50 231 174 18 11 80 52 107 116 203 171 213 12 73 14 70 147 16 90 115 195 11 250 210 62 185 183 239 167 233 214 143 251 225 55 48 76 229 251 247 53 7 64 169 77 212 126 168 71 140 179 65 156 241 251 95 224 162 49 182 49 232 151 104 210 227 77 205 218 130 253 26 44 249 238 170 0 54 55 78 119 211 246 
114 51 169 20 100 154 70 77 122 174 31 48 252 236 199 126 234 170 170 227 132 85 227 158 140 49 141 95 39 195 146 208 58 247 106 173 68 228 193 99 20 7 79 219 182 57 133 178 28 9 48 0 168 219 49 53 48 89 248 188 41 50 27 148 223 174 120 161 165 141 168 233 104 94 76 238 16 155 247 65 213 159 28 241 212 76 241 204 8 35 255 35 124 222 209 165 127 118 57 40 95 178 134 171 63 151 71 167 216 28 149 244 13 141 64 255 44 72 34 1 107 158 205 61 67 204 179 125 171 19 47 42 190 110 82 5 21 217 33 171 112 47 56 72 46 100 60 80 101 124 238 51 196 49 255 47 174 170 108 221 213 32 75 39 51 97 0 241 12 112 247 68 184 24 168 244 71 14 112 117 65 52 197 64 100 179 235 208 229 192 240 147 231 35 113 232 21 188 88 12 29 17 36 41 5 108 109 118 225 22 170 167 36 14 90 101 223 63 165 207 211 144 243 68 80 8 0 56 20 30 32 56 71 120 164 181 137 134 203 143 45 239 5 135 84 175 199 249 190 154 138 157 222 218 108 222 18 95 252 50 103 68 171 123 249 52 180 196 195 88 179 200 222 7 120 11 0 54 147 138 211 90 101 63 244 119 159 210 170 6 176 85 130 173 137 54 241 77 142 234 21 109 174 141 120 97 195 11 104 150 101 104 214 89 243 117 43 88 123 220 207 253 137 121 51 122 206 194 100 88 47 18 165 167 115 186 179 219 72 24 67 11 114 54 162 157 142 120 121 94 237 2 215 104 124 166 102 224 254 153 242 163 91 101 93 138 64 165 50 132 177 229 186 83 253 73 203 111 167 184 13 126 32 134 36 134 137 34 32 5 197 123 230 35 6 216 200 56 62 121 29 126 204 26 2 151 138 189 79 151 6 112 29 173 246 166 43 22 172 80 146 146 114 152 106 56 208 168 91 237 39 35 7 41 157 145 230 105 40 236 1 70 153 80 236 197 192 152 21 183 42 135 205 149 191 95 61 26 247 100 62 199 142 219 180 116 68 188 97 69 77 250 150 118 191 86 188 212 13 168 92 219 65 27 58 107 54 50 0 116 249 62 79 174 162 147 106 48 217 183 165 111 45 6 197 233 0 211 146 192 174 211 148 232 62 240 26 63 12 20 125 66 194 31 182 44 80 5 227 245 152 17 251 113 250 251 224 140 187 166 95 80 121 158 64 39 221 76 15 90 142 42 121 68 62 201 73 0 190 226 44 185 83 15 181 52 32 112 218 27 192 83 167 1 122 7 77 137 165 220 179 130 32 241 220 106 241 85 76 29 31 159 45 221 211 77 151 173 104 76 
0 16 188 122 23 125 4 188 126 183 62 203 169 26 167 154 111 200 184 142 50 229 108 126 50 3 29 155 79 241 171 11 158 194 136 159 126 6 25 188 210 29 214 121 213 69 65 126 212 115 24 64 241 208 67 15 181 146 0 232 157 158 131 38 61 46 44 87 240 254 116 110 120 73 42 185 199 0 45 224 69 30 176 25 45 102 89 45 78 156 204 209 46 9 255 204 96 239 242 213 93 30 30 135 29 230 135 149 198 204 78 118 230 123 220 63 154 42 220 199 251 10 245 250 214 193 233 200 202 70 231 43 205 4 0 84 153 30 33 231 4 7 99 202 70 253 65 34 196 29 45 185 72 3 122 67 204 69 62 179 112 39 183 112 110 80 142 59 55 147 144 154 93 177 151 158 184 92 188 254 21 4 33 144 71 78 213 133 81 69 173 29 181 27 208 67 86 135 214 230 215 52 151 15 210 79 169 142 78 65 146 111 157 218 189 178 95 14 66 12 44 23 39 252 92 126 132 17 100 91 85 252 106 43 75 20 95 153 85 50 8 242 192 197 164 83 212 231 45 0 254 140 252 91 153 128 108 192 220 193 62 70 237 163 90 76 159 175 126 234 161 63 132 70 146 140 45 191 82 43 75 38 134 228 38 243 165 34 180 227 163 161 134 127 238 37 197 108 16 32 171 148 207 61 32 113 252 114 183 72 152 228 44 190 15 209 225 150 181 132 137 59 3 61 97 200 223 113 232 205 5 184 57 37 41 229 152 224 34 48 196 31 239 211 103 208 105 147 84 242 101 87 48 26 31 15 85 8 220 182 192 21 39 233 250 44 201 29 82 141 60 234 96 163 26 202 54 9 188 155 217 236 181 45 251 11 132 215 193 164 237 233 172 231 21 108 4 103 85 64 81 30 227 108 171 26 117 11 181 79 213 107 124 146 118 1 126 55 165 122 32 81 81 54 189 62 157 18 38 239 48 42 91 219 107 208 230 78 31 188 104 156 78 30 157 204 137 66 70 255 147 152 54 80 214 87 98 252 141 146 39 42 109 146 25 83 224 116 15 73 69 93 103 100 42 240 0 112 239 157 8 37 223 223 124 114 219 9 194 2 52 36 148 77 182 117 194 35 190 7 119 37 107 134 21 108 228 4 9 14 41 233 126 166 91 135 175 30 102 227 66 65 49 249 68 243 28 216 250 147 77 101 26 11 209 254 48 219 12 69 196 138 73 31 17 115 61 119 25 128 185 200 121 253 172 149 213 221 41 35 208 67 46 202 65 95 47 77 164 1 215 238 220 233 97 160 96 122 191 25 66 253 22 238 125 236 203 246 15 155 139 61 101 180 156 149 247 65 150 56 
47 114 133 144 18 93 10 209 70 76 206 166 59 75 192 6 65 214 162 205 194 7 129 209 156 121 15 50 177 171 164 55 236 182 148 27 136 218 171 86 128 181 162 64 2 227 23 61 176 217 67 50 171 229 171 186 237 92 101 137 147 82 188 39 109 96 1 25 23 130 206 159 194 208 245 217 13 151 179 81 123 94 54 43 24 35 93 125 173 8 207 105 101 61 201 248 86 224 32 36 127 33 245 117 163 2 12 102 83 135 63 138 179 242 173 16 80 90 25 104 195 126 230 141 118 181 109 150 242 237 184 72 98 91 109 110 193 98 246 1 100 169 243 184 185 68 66 210 172 239 80 146 74 199 72 13 93 58 154 21 131 8 113 240 245 50 82 87 51 182 197 39 110 187 107 176 100 23 160 30 170 234 240 242 247 65 44 146 8 175 154 101 159 143 123 241 230 236 168 171 30 22 103 82 199 203 121 103 233 228 81 218 251 72 27 165 218 35 151 116 136 196 3 3 115 233 239 19 149 14 4 252 96 172 199 217 195 177 189 138 139 184 241 166 94 66 201 245 138 81 185 101 85 45 217 68 64 221 82 68 198 178 241 91 139 180 87 72 62 31 1 47 208 95 113 91 84 251 1 14 96 202 59 58 27 123 23 112 191 221 181 176 57 7 100 144 186 162 175 69 209 127 142 66 218 143 62 219 238 158 165 66 216 193 80 239 49 139 205 230 6 6 238 198 150 168 118 70 237 219 197 123 125 160 10 79 123 248 145 33 59 207 226 139 110 19 23 70 250 29 54 232 227 3 144 90 9 125 53 159 249 178 229 3 1 171 252 147 75 55 98 198 194 208 231 217 23 201 247 77 221 218 80 215 52 89 191 105 248 79 28 222 204 29 137 197 176 212 201 19 154 197 227 130 252 250 75 190 71 40 152 151 255 143 240 190 105 233 13 158 199 218 7 80 159 35 36 104 65 190 45 241 64 41 4 140 232 232 180 128 226 180 15 42 114 120 193 128 22 178 90 30 155 249 65 98 98 130 178 143 116 214 185 120 148 161 96 213 33 67 97 48 109 21 168 46 201 191 224 60 221 123 188 30 221 22 161 143 15 21 101 113 141 250 1 238 207 186 49 48 91 158 69 124 204 15 172 173 75 84 40 7 19 6 29 240 149 44 15 251 158 176 245 159 197 196 89 82 244 180 64 57 48 113 72 220 15 147 48 220 154 68 137 183 52 177 228 67 183 130 243 77 33 184 72 122 11 61 46 75 1 94 189 245 58 204 46 106 168 119 174 49 10 227 227 165 38 154 92 26 231 64 210 47 194 221 108 227 41 109 93 230 98 139 178 145 233 91 8 35 
140 18 142 111 183 60 10 20 31 241 84 70 33 23 96 141 250 50 251 88 16 93 227 57 238 205 31 246 240 209 9 126 44 192 187 185 212 218 40 41 32 50 64 128 36 58 179 69 146 195 210 118 252 205 67 27 43 51 236 25 178 25 16 109 210 25 71 250 217 104 45 174 232 81 215 155 150 23 94 104 81 90 54 228 117 97 90 98 122 157 123 138 208 77 163 130 71 125 239 116 43 55 197 2 159 91 25 135 196 106 35 250 78 129 91 168 220 213 69 81 96 22 179 3 152 46 128 136 123 171 191 195 173 94 55 198 229 253 49 8 88 127 138 28 40 102 22 109 183 113 131 107 71 28 153 167 164 21 170 99 216 43 193 15 214 166 12 132 175 101 74 57 129 123 159 152 251 86 9 35 193 80 144 91 247 20 112 162 48 72 205 212 87 163 55 100 39 248 201 114 158 74 237 77 226 232 134 236 11 37 60 156 124 52 176 61 214 224 152 163 180 8 70 235 80 110 227 168 224 129 12 205 207 213 182 85 31 193 123 2 93 247 238 13 52 42 237 205 94 161 213 52 140 38 215 111 206 30 241 218 140 192 175 108 21 206 57 144 208 239 135 190 177 188 233 14 137 71 28 94 124 9 132 83 171 82 113 55 44 253 167 219 105 152 170 163 88 122 146 109 57 67 254 34 82 133 105 110 65 229 119 202 57 34 41 170 90 173 168 1 0 17 153 44 180 241 8 71 94 178 138 92 44 220 226 101 74 35 135 194 238 241 228 23 214 62 196 15 63 196 186 216 241 98 201 249 115 40 171 40 132 215 111 102 61 249 138 196 214 120 181 32 143 140 226 83 155 199 24 85 5 9 183 69 2 43 29 173 83 231 132 194 15 193 187 147 134 145 250 59 178 132 199 148 252 99 91 139 184 97 222 112 166 246 155 195 255 238 170 1 176 185 174 107 77 51 253 71 244 175 203 122 67 199 182 159 82 125 0 48 224 166 39 153 105 38 9 20 40 164 205 214 146 26 9 66 97 254 173 44 120 170 243 46 89 69 172 157 118 140 60 157 37 60 195 46 226 235 210 75 194 100 95 203 166 45 201 84 71 66 254 169 112 88 213 28 245 201 169 49 14 206 109 132 253 79 33 207 154 229 52 250 208 218 39 146 46 110 94 45 23 39 133 237 105 122 182 218 171 196 246 24 73 159 103 106 110 1 79 107 251 32 58 34 178 110 145 16 73 168 56 119 149 161 164 75 123 41 16 114 163 89 17 78 195 127 102 19 234 205 51 37 207 229 147 202 246 220 237 46 84 126 207 248 38 75 34 188 189 197 7 206 20 23 78 122 112 56 72 52 
93 23 71 241 225 122 205 206 95 33 76 85 26 115 131 60 47 83 1 54 158 21 78 91 144 190 41 216 242 119 239 57 176 208 179 13 159 19 254 235 104 204 94 236 237 141 63 7 196 221 67 18 56 69 208 97 90 195 217 234 252 137 194 176 150 177 195 149 130 43 97 33 23 78 12 86 86 107 51 153 248 107 222 188 205 57 206 166 35 159 47 230 98 197 151 94 90 25 14 187 58 209 10 71 253 96 178 20 249 170 107 216 103 158 17 53 10 52 212 215 26 54 125 178 149 172 203 163 113 6 117 204 77 114 135 255 134 145 169 241 241 16 144 235 70 154 195 26 113 212 81 238 8 230 154 35 137 11 213 254 215 160 112 95 166 247 240 243 232 226 242 120 205 156 18 144 172 131 100 242 113 108 13 11 143 94 23 100 68 238 5 205 77 171 204 62 159 60 32 145 51 237 45 28 125 218 148 225 204 167 77 217 42 221 55 156 65 123 167 70 73 190 242 21 173 145 81 250 34 133 56 80 161 88 42 53 69 246 220 194 208 7 163 7 163 241 131 74 206 204 9 15 225 182 86 50 176 72 183 233 217 88 65 251 142 135 75 106 73 117 113 237 108 20 222 60 95 172 67 104 187 198 30 17 146 206 89 115 183 50 166 249 46 93 128 121 182 201 239 68 182 91 174 148 151 32 64 218 52 252 161 147 13 51 251 103 167 25 153 77 232 199 170 159 65 96 152 48 164 24 139 83 226 34 115 152 252 167 45 157 59 109 209 54 105 120 80 119 197 56 222 111 215 119 208 112 63 116 136 128 199 106 176 58 3 59 226 48 93 29 157 89 83 7 247 163 126 200 219 92 64 179 211 5 35 18 116 171 146 68 22 66 185 25 125 128 73 218 187 230 52 157 237 43 186 107 243 13 199 51 177 155 56 140 173 172 63 64 241 98 130 170 14 0 42 36 218 229 61 14 130 134 57 60 108 44 74 90 95 251 197 151 135 141 68 199 40 53 41 213 223 55 21 9 91 152 239 152 152 113 30 114 174 139 129 248 229 186 243 170 231 122 55 70 65 95 222 107 53 34 162 74 87 254 226 54 150 122 63 181 237 46 64 110 160 37 40 78 207 15 70 7 86 57 102 52 179 155 86 245 230 173 96 200 227 2 67 34 0 48 81 151 158 241 76 198 63 140 214 133 177 44 190 128 96 113 135 182 102 238 99 198 137 70 201 111 104 201 56 185 96 123 170 172 171 233 56 73 110 233 15 44 106 229 158 241 17 4 223 113 203 105 39 148 216 138 93 16 208 190 139 57 106 54 242 163 127 157 140 143 134 246 116 245 232 134 33 199 247 191 
48 31 196 9 169 143 25 122 35 165 179 128 219 165 62 91 66 169 234 201 76 94 190 216 228 223 207 220 159 183 251 99 126 164 242 175 30 21 184 209 149 209 119 212 118 185 125 82 130 201 173 64 161 151 32 112 245 191 39 218 34 166 182 20 85 177 41 13 85 190 222 116 146 85 69 15 167 188 216 84 118 122 235 248 234 224 57 18 186 89 184 112 24 13 33 58 26 119 78 248 235 119 77 48 53 244 237 200 72 99 215 51 91 176 20 148 42 206 237 20 63 5 38 96 63 222 215 141 235 194 4 5 243 58 254 224 2 75 67 217 64 158 137 136 51 179 188 32 200 208 38 238 158 101 205 221 243 184 62 247 190 21 49 188 216 51 7 203 13 71 171 150 208 238 74 140 140 18 92 191 0 250 224 205 216 6 134 22 107 68 43 94 0 3 86 7 206 135 79 121 187 31 103 200 171 244 94 7 179 168 1 147 186 217 153 187 239 5 136 27 99 14 30 185 82 237 65 82 102 252 90 206 196 169 194 34 200 117 203 115 9 133 122 162 64 123 167 201 85 11 215 68 196 42 95 5 124 126 1 214 107 197 127 209 232 71 159 179 186 97 56 52 215 121 176 224 66 5 130 25 73 42 67 169 53 192 39 249 150 146 255 22 99 0 93 3 198 24 100 174 76 59 97 252 27 153 1 158 18 75 200 84 244 253 110 27 246 177 173 245 113 16 246 8 19 188 30 120 106 123 179 203 147 207 100 224 109 119 220 53 203 222 50 57 41 40 235 29 30 92 56 20 100 229 208 130 245 58 254 9 5 145 129 105 113 52 224 78 3 172 44 112 229 85 165 208 114 215 45 170 0 145 143 30 20 132 50 18 141 2 163 14 60 21 67 65 99 70 170 143 183 139 228 92 55 86 52 28 0 52 237 143 82 26 19 132 171 161 134 191 175 194 209 242 3 117 57 173 138 240 56 237 76 111 124 128 140 96 180 121 182 6 147 182 138 62 69 16 254 88 210 207 249 213 68 169 131 206 155 187 187 212 43 55 196 183 151 17 48 77 145 195 3 70 1 72 76 255 161 215 207 154 231 19 67 186 226 223 143 157 179 18 213 120 206 108 137 249 186 26 176 189 96 224 6 173 163 167 132 164 65 107 164 133 37 115 100 181 134 23 199 104 143 149 6 24 142 219 51 62 71 147 30 1 64 193 191 196 102 197 48 10 108 85 125 173 10 3 50 210 108 150 103 114 174 246 77 61 52 148 86 83 150 137 20 85 28 122 26 93 132 134 33 1 51 81 5 102 167 113 252 177 227 170 131 48 232 235 196 62 225 90 199 21 175 227 104 201 64 125 
79 98 247 131 179 124 233 90 125 229 12 130 144 143 243 120 122 214 182 91 6 125 113 203 96 217 37 161 86 213 3 78 158 182 202 238 17 71 113 29 202 90 172 189 63 39 148 207 130 154 71 243 101 253 205 139 122 35 96 219 113 254 124 59 236 127 131 93 53 77 183 70 10 247 99 158 198 16 57 14 55 158 11 185 41 134 173 137 97 122 136 221 157 116 92 15 210 145 74 137 216 205 128 59 26 71 75 37 85 130 195 96 60 252 230 233 155 71 99 196 36 0 78 128 15 214 18 90 74 234 39 28 37 66 166 113 103 38 243 42 109 47 39 194 24 194 35 123 134 9 124 212 81 139 170 117 229 245 246 13 17 8 79 183 242 182 222 23 224 75 136 7 14 124 201 49 171 80 58 196 36 139 63 207 1 187 196 247 71 213 255 44 141 241 57 107 8 136 182 145 62 196 13 31 245 184 38 48 124 240 187 188 64 188 119 100 179 190 51 178 235 247 163 36 205 172 173 90 61 235 197 74 10 123 2 49 64 127 33 53 59 97 101 178 197 33 113 249 221 92 240 145 128 189 67 45 23 231 25 220 147 35 88 208 84 152 26 117 205 28 214 51 155 156 84 214 149 49 137 133 194 250 67 6 86 90 237 214 55 128 4 143 80 29 39 106 64 244 134 149 39 34 10 123 248 225 173 129 125 111 123 18 117 209 151 98 168 218 226 172 53 50 201 108 156 9 251 35 158 34 69 169 22 61 138 62 191 7 185 58 25 102 12 176 214 180 139 75 96 192 174 41 44 144 50 39 195 209 73 95 122 95 130 4 157 199 11 87 5 36 189 196 212 147 254 95 223 10 31 141 190 75 29 30 114 224 71 187 64 122 27 194 75 184 138 197 15 143 201 205 83 212 96 81 248 63 92 204 204 26 44 234 57 75 202 128 151 10 250 9 205 69 197 87 10 224 230 211 152 57 167 168 138 159 117 230 108 213 1 152 21 58 227 225 186 122 203 181 132 150 250 73 160 5 41 109 216 193 196 128 105 170 31 222 227 139 180 110 35 201 84 7 170 85 129 118 143 5 12 74 78 172 255 119 26 249 57 222 254 162 137 215 129 108 87 53 218 118 254 47 2 168 132 37 30 20 44 42 94 174 215 93 179 241 86 2 207 85 121 88 44 178 197 131 85 159 249 214 206 251 11 83 33 9 103 77 177 197 251 208 34 175 250 120 177 209 205 42 194 249 221 146 124 50 234 118 8 175 113 19 79 146 28 29 224 205 112 219 157 215 138 152 156 59 105 190 102 44 55 67 190 4 117 168 254 125 88 122 144 167 240 172 196 98 121 53 244 23 12 212 
175 169 176 24 103 58 68 158 118 2 163 220 171 161 31 3 27 148 170 12 17 110 110 161 163 98 77 176 55 198 89 231 221 192 33 140 95 151 165 2 115 233 163 146 236 190 38 151 202 55 154 56 216 68 155 37 178 210 236 86 185 201 6 218 86 95 114 251 31 229 228 126 120 208 128 158 103 35 214 1 226 174 69 172 212 248 229 192 78 128 137 84 82 223 179 11 218 210 229 191 81 87 143 209 61 247 245 181 248 215 83 62 131 41 54 104 216 132 232 172 216 58 108 139 69 245 93 43 213 174 130 175 128 191 110 117 116 254 76 200 245 207 241 237 56 201 43 32 117 97 91 225 229 160 215 189 203 172 72 78 91 166 13 202 84 130 200 212 74 189 73 59 170 149 5 214 101 122 55 157 92 29 189 51 218 24 223 35 185 58 201 132 4 29 210 204 242 224 137 59 98 52 209 172 10 54 231 65 211 236 94 144 103 57 169 195 92 98 246 37 230 213 66 185 15 52 153 20 112 251 224 65 167 106 119 142 158 74 123 168 218 226 233 131 165 72 229 155 129 204 112 221 133 127 2 30 147 68 25 116 121 192 222 233 78 124 42 201 36 161 171 13 235 80 85 197 235 214 73 91 179 46 219 181 250 110 250 127 226 115 157 192 92 182 60 134 118 96 39 197 110 18 142 195 215 58 154 32 138 77 79 118 3 73 209 253 201 172 112 102 27 204 29 253 82 147 190 121 88 250 139 231 91 98 33 201 131 171 140 210 33 38 27 243 116 228 159 119 75 186 116 104 184 228 251 118 176 84 112 2 59 203 123 92 148 6 7 33 104 41 71 235 28 187 189 187 50 217 118 166 189 46 138 8 164 58 112 20 60 108 224 183 192 116 189 251 149 38 87 221 17 94 152 207 135 203 168 163 113 101 95 252 110 213 54 222 3 115 74 167 42 10 187 232 5 155 14 92 16 31 187 165 238 66 130 150 230 27 252 69 230 106 26 87 72 29 83 147 196 138 157 127 253 163 27 39 255 43 15 186 208 29 253 83 61 227 110 43 40 84 194 66 171 190 95 255 40 35 137 112 162 134 3 189 173 161 232 189 68 185 218 67 12 23 254 122 67 251 206 5 222 121 195 6 120 235 72 1 91 167 135 95 202 53 0 108 242 68 42 204 135 18 228 133 203 39 128 215 44 94 81 239 100 31 218 172 153 53 83 17 148 29 19 148 138 154 216 180 207 96 198 193 229 146 142 102 105 114 196 187 153 41 218 197 213 115 180 41 133 142 70 152 195 208 50 88 132 2 236 75 195 197 221 81 37 70 195 10 1 92 112 220 33 53 79 213 94 212 99 51 
